(G-CODE GENERATED BY FLATCAM v8.991 - www.flatcam.org - Version Date: 2019/12/27)

(Name: Drill_PTH_Through.DRL_cnc)
(Type: G-code from Excellon)
(Units: MM)

(Created on Friday, 05 July 2024 at 16:19)

(Feedrate: 300.0 mm/min)
(Feedrate rapids 1500.0 mm/min)

(Z_Cut: -2.2 mm)
(Z_Move: 2.0 mm)
(Z Toolchange: 15.0 mm)
(X,Y Toolchange: 0.0000, 0.0000 mm)
(Z Start: None mm)
(Z End: 0.5 mm)
(Steps per circle: 64)
(Preprocessor Excellon: default)

(X range:    6.8425 ...   33.7615  mm)
(Y range:    5.6995 ...   27.4475  mm)

(Spindle Speed: None RPM)
G21
G90
G94




G01 F300.00
G00 Z2.0000

M03
G00 X7.4930 Y26.7610
G01 Z-2.2000
G01 Z0
G00 Z2.0000
G00 X7.4930 Y21.7530
G01 Z-2.2000
G01 Z0
G00 Z2.0000
G00 X7.4930 Y16.5100
G01 Z-2.2000
G01 Z0
G00 Z2.0000
G00 X7.4930 Y11.4300
G01 Z-2.2000
G01 Z0
G00 Z2.0000
G00 X7.4930 Y6.3500
G01 Z-2.2000
G01 Z0
G00 Z2.0000
G00 X17.9430 Y6.8580
G01 Z-2.2000
G01 Z0
G00 Z2.0000
G00 X22.9510 Y6.8580
G01 Z-2.2000
G01 Z0
G00 Z2.0000
G00 X28.1030 Y6.8580
G01 Z-2.2000
G01 Z0
G00 Z2.0000
G00 X33.1110 Y6.8580
G01 Z-2.2000
G01 Z0
G00 Z2.0000
G00 X32.9840 Y26.7970
G01 Z-2.2000
G01 Z0
G00 Z2.0000
G00 X27.9760 Y26.7970
G01 Z-2.2000
G01 Z0
G00 Z2.0000
G00 X22.8240 Y26.7970
G01 Z-2.2000
G01 Z0
G00 Z2.0000
G00 X17.8160 Y26.7970
G01 Z-2.2000
G01 Z0
G00 Z2.0000
M05
G00 Z0.50
G00 X0.0 Y0.0

