(G-CODE GENERATED BY FLATCAM v8.991 - www.flatcam.org - Version Date: 2019/12/27)

(Name: Gerber_BottomLayer.GBL_iso_cnc)
(Type: G-code from Geometry)
(Units: MM)

(Created on Friday, 05 July 2024 at 16:24)

(TOOL DIAMETER: 0.2 mm)
(Feedrate: 120.0 mm/min)
(Feedrate_Z: 60.0 mm/min)
(Feedrate rapids 1500.0 mm/min)

(Z_Cut: -0.09 mm)
(Z_Move: 2.0 mm)
(Z Toolchange: 15.0 mm)
(X,Y Toolchange: 0.0000, 0.0000 mm)
(Z Start: None mm)
(Z End: 15.0 mm)
(Steps per circle: 64)
(Preprocessor Geometry: default)

(X range:    1.6277 ...   34.9304  mm)
(Y range:    1.1197 ...   35.2023  mm)

(Spindle Speed: None RPM)
G21
G90
G94




G01 F120.00
G00 Z2.0000

M03
G00 X8.6297 Y4.9298
G01 F60.00
G01 Z-0.0900
G01 F120.00
G01 X17.4346 Y4.9298
G01 X17.4749 Y4.9308
G01 X17.5337 Y4.9336
G01 X17.6138 Y4.9415
G01 X17.6721 Y4.9502
G01 X17.7510 Y4.9659
G01 X17.8081 Y4.9802
G01 X17.8851 Y5.0036
G01 X17.9406 Y5.0234
G01 X17.9782 Y5.0390
G01 X18.0808 Y5.0438
G01 X18.1609 Y5.0517
G01 X18.2580 Y5.0661
G01 X18.3369 Y5.0818
G01 X18.4321 Y5.1056
G01 X18.5091 Y5.1290
G01 X18.6015 Y5.1621
G01 X18.6758 Y5.1928
G01 X18.7645 Y5.2348
G01 X18.8355 Y5.2727
G01 X18.9197 Y5.3232
G01 X18.9866 Y5.3679
G01 X19.0654 Y5.4264
G01 X19.1276 Y5.4774
G01 X19.2003 Y5.5433
G01 X19.2572 Y5.6002
G01 X19.3231 Y5.6729
G01 X19.3742 Y5.7351
G01 X19.4326 Y5.8140
G01 X19.4774 Y5.8809
G01 X19.5278 Y5.9650
G01 X19.5657 Y6.0360
G01 X19.6077 Y6.1247
G01 X19.6385 Y6.1991
G01 X19.6716 Y6.2915
G01 X19.6949 Y6.3685
G01 X19.7188 Y6.4637
G01 X19.7345 Y6.5426
G01 X19.7489 Y6.6397
G01 X19.7567 Y6.7197
G01 X19.7616 Y6.8178
G01 X19.7616 Y6.8982
G01 X19.7567 Y6.9963
G01 X19.7489 Y7.0763
G01 X19.7345 Y7.1734
G01 X19.7188 Y7.2523
G01 X19.6949 Y7.3475
G01 X19.6716 Y7.4245
G01 X19.6385 Y7.5169
G01 X19.6077 Y7.5913
G01 X19.5657 Y7.6800
G01 X19.5278 Y7.7510
G01 X19.4774 Y7.8351
G01 X19.4326 Y7.9020
G01 X19.3742 Y7.9809
G01 X19.3231 Y8.0431
G01 X19.2572 Y8.1158
G01 X19.2359 Y8.1372
G01 X19.2359 Y25.6603
G01 X19.2472 Y25.6741
G01 X19.3056 Y25.7530
G01 X19.3504 Y25.8199
G01 X19.4008 Y25.9040
G01 X19.4387 Y25.9750
G01 X19.4807 Y26.0637
G01 X19.5115 Y26.1381
G01 X19.5446 Y26.2305
G01 X19.5679 Y26.3075
G01 X19.5918 Y26.4027
G01 X19.6075 Y26.4816
G01 X19.6219 Y26.5787
G01 X19.6297 Y26.6587
G01 X19.6346 Y26.7568
G01 X19.6346 Y26.8372
G01 X19.6297 Y26.9353
G01 X19.6219 Y27.0153
G01 X19.6075 Y27.1124
G01 X19.5918 Y27.1913
G01 X19.5679 Y27.2865
G01 X19.5446 Y27.3635
G01 X19.5115 Y27.4559
G01 X19.4807 Y27.5303
G01 X19.4387 Y27.6190
G01 X19.4008 Y27.6900
G01 X19.3504 Y27.7741
G01 X19.3056 Y27.8410
G01 X19.2472 Y27.9199
G01 X19.1961 Y27.9821
G01 X19.1302 Y28.0548
G01 X19.0733 Y28.1117
G01 X19.0006 Y28.1776
G01 X18.9384 Y28.2286
G01 X18.8596 Y28.2871
G01 X18.7927 Y28.3318
G01 X18.7085 Y28.3823
G01 X18.6375 Y28.4202
G01 X18.5488 Y28.4622
G01 X18.4745 Y28.4929
G01 X18.3821 Y28.5260
G01 X18.3051 Y28.5494
G01 X18.2099 Y28.5732
G01 X18.1310 Y28.5889
G01 X18.0339 Y28.6033
G01 X17.9538 Y28.6112
G01 X17.8558 Y28.6160
G01 X17.7753 Y28.6160
G01 X17.6773 Y28.6112
G01 X17.5972 Y28.6033
G01 X17.5001 Y28.5889
G01 X17.4212 Y28.5732
G01 X17.3260 Y28.5494
G01 X17.2490 Y28.5260
G01 X17.1566 Y28.4929
G01 X17.0823 Y28.4622
G01 X16.9936 Y28.4202
G01 X16.9226 Y28.3823
G01 X16.8384 Y28.3318
G01 X16.7715 Y28.2871
G01 X16.6927 Y28.2286
G01 X16.6305 Y28.1776
G01 X16.5578 Y28.1117
G01 X16.5009 Y28.0548
G01 X16.4350 Y27.9821
G01 X16.3839 Y27.9199
G01 X16.3255 Y27.8410
G01 X16.2807 Y27.7741
G01 X16.2303 Y27.6900
G01 X16.1924 Y27.6190
G01 X16.1504 Y27.5303
G01 X16.1196 Y27.4559
G01 X16.0865 Y27.3635
G01 X16.0632 Y27.2865
G01 X16.0393 Y27.1913
G01 X16.0236 Y27.1124
G01 X16.0092 Y27.0153
G01 X16.0014 Y26.9353
G01 X15.9965 Y26.8372
G01 X15.9965 Y26.7568
G01 X16.0014 Y26.6587
G01 X16.0092 Y26.5787
G01 X16.0236 Y26.4816
G01 X16.0393 Y26.4027
G01 X16.0632 Y26.3075
G01 X16.0865 Y26.2305
G01 X16.1196 Y26.1381
G01 X16.1504 Y26.0637
G01 X16.1924 Y25.9750
G01 X16.2303 Y25.9040
G01 X16.2807 Y25.8199
G01 X16.3255 Y25.7530
G01 X16.3839 Y25.6741
G01 X16.3952 Y25.6603
G01 X16.3952 Y7.8143
G01 X16.3689 Y7.7704
G01 X8.6297 Y7.7704
G01 X8.6158 Y7.7817
G01 X8.5370 Y7.8402
G01 X8.4701 Y7.8849
G01 X8.3859 Y7.9353
G01 X8.3150 Y7.9733
G01 X8.2262 Y8.0152
G01 X8.1519 Y8.0460
G01 X8.0595 Y8.0791
G01 X7.9825 Y8.1024
G01 X7.8873 Y8.1263
G01 X7.8084 Y8.1420
G01 X7.7113 Y8.1564
G01 X7.6312 Y8.1643
G01 X7.5332 Y8.1691
G01 X7.4527 Y8.1691
G01 X7.3547 Y8.1643
G01 X7.2746 Y8.1564
G01 X7.1776 Y8.1420
G01 X7.0986 Y8.1263
G01 X7.0034 Y8.1024
G01 X6.9264 Y8.0791
G01 X6.8340 Y8.0460
G01 X6.7597 Y8.0152
G01 X6.6710 Y7.9733
G01 X6.6000 Y7.9353
G01 X6.5158 Y7.8849
G01 X6.4489 Y7.8402
G01 X6.3701 Y7.7817
G01 X6.3079 Y7.7307
G01 X6.2352 Y7.6648
G01 X6.1783 Y7.6079
G01 X6.1124 Y7.5351
G01 X6.0613 Y7.4729
G01 X6.0029 Y7.3941
G01 X5.9582 Y7.3272
G01 X5.9077 Y7.2430
G01 X5.8698 Y7.1721
G01 X5.8278 Y7.0833
G01 X5.7970 Y7.0090
G01 X5.7640 Y6.9166
G01 X5.7406 Y6.8396
G01 X5.7168 Y6.7444
G01 X5.7011 Y6.6655
G01 X5.6867 Y6.5684
G01 X5.6788 Y6.4883
G01 X5.6740 Y6.3903
G01 X5.6740 Y6.3098
G01 X5.6788 Y6.2118
G01 X5.6867 Y6.1317
G01 X5.7011 Y6.0347
G01 X5.7168 Y5.9557
G01 X5.7406 Y5.8605
G01 X5.7640 Y5.7835
G01 X5.7970 Y5.6911
G01 X5.8278 Y5.6168
G01 X5.8698 Y5.5281
G01 X5.9077 Y5.4571
G01 X5.9582 Y5.3729
G01 X6.0029 Y5.3060
G01 X6.0613 Y5.2272
G01 X6.1124 Y5.1650
G01 X6.1783 Y5.0923
G01 X6.2352 Y5.0354
G01 X6.3079 Y4.9695
G01 X6.3701 Y4.9184
G01 X6.4489 Y4.8600
G01 X6.5158 Y4.8153
G01 X6.6000 Y4.7648
G01 X6.6710 Y4.7269
G01 X6.7597 Y4.6849
G01 X6.8340 Y4.6541
G01 X6.9264 Y4.6211
G01 X7.0034 Y4.5977
G01 X7.0986 Y4.5739
G01 X7.1776 Y4.5582
G01 X7.2746 Y4.5438
G01 X7.3547 Y4.5359
G01 X7.4527 Y4.5311
G01 X7.5332 Y4.5311
G01 X7.6312 Y4.5359
G01 X7.7113 Y4.5438
G01 X7.8084 Y4.5582
G01 X7.8873 Y4.5739
G01 X7.9825 Y4.5977
G01 X8.0595 Y4.6211
G01 X8.1519 Y4.6541
G01 X8.2262 Y4.6849
G01 X8.3150 Y4.7269
G01 X8.3859 Y4.7648
G01 X8.4701 Y4.8153
G01 X8.5370 Y4.8600
G01 X8.6158 Y4.9184
G01 X8.6297 Y4.9298
G00 Z2.0000
G00 X8.5648 Y5.1098
G01 F60.00
G01 Z-0.0900
G01 F120.00
G01 X17.4346 Y5.1098
G01 X17.4660 Y5.1105
G01 X17.5249 Y5.1134
G01 X17.5874 Y5.1196
G01 X17.6457 Y5.1282
G01 X17.7073 Y5.1405
G01 X17.7644 Y5.1548
G01 X17.8245 Y5.1730
G01 X17.8800 Y5.1929
G01 X17.9419 Y5.2188
G01 X17.9740 Y5.2188
G01 X18.0720 Y5.2236
G01 X18.1345 Y5.2297
G01 X18.2315 Y5.2441
G01 X18.2931 Y5.2564
G01 X18.3883 Y5.2802
G01 X18.4484 Y5.2985
G01 X18.5408 Y5.3315
G01 X18.5989 Y5.3556
G01 X18.6876 Y5.3975
G01 X18.7430 Y5.4271
G01 X18.8271 Y5.4776
G01 X18.8794 Y5.5125
G01 X18.9582 Y5.5709
G01 X19.0067 Y5.6108
G01 X19.0795 Y5.6767
G01 X19.1239 Y5.7211
G01 X19.1898 Y5.7938
G01 X19.2296 Y5.8424
G01 X19.2881 Y5.9212
G01 X19.3230 Y5.9734
G01 X19.3734 Y6.0576
G01 X19.4030 Y6.1130
G01 X19.4450 Y6.2017
G01 X19.4690 Y6.2597
G01 X19.5021 Y6.3521
G01 X19.5203 Y6.4122
G01 X19.5442 Y6.5074
G01 X19.5564 Y6.5690
G01 X19.5708 Y6.6661
G01 X19.5770 Y6.7286
G01 X19.5818 Y6.8266
G01 X19.5818 Y6.8894
G01 X19.5770 Y6.9874
G01 X19.5708 Y7.0499
G01 X19.5564 Y7.1470
G01 X19.5442 Y7.2086
G01 X19.5203 Y7.3038
G01 X19.5021 Y7.3639
G01 X19.4690 Y7.4563
G01 X19.4450 Y7.5143
G01 X19.4030 Y7.6030
G01 X19.3734 Y7.6584
G01 X19.3230 Y7.7426
G01 X19.2881 Y7.7948
G01 X19.2296 Y7.8736
G01 X19.1898 Y7.9222
G01 X19.1239 Y7.9949
G01 X19.0795 Y8.0393
G01 X19.0559 Y8.0607
G01 X19.0559 Y25.7252
G01 X19.0628 Y25.7328
G01 X19.1026 Y25.7814
G01 X19.1611 Y25.8602
G01 X19.1960 Y25.9124
G01 X19.2464 Y25.9966
G01 X19.2760 Y26.0520
G01 X19.3180 Y26.1407
G01 X19.3420 Y26.1987
G01 X19.3751 Y26.2911
G01 X19.3933 Y26.3512
G01 X19.4172 Y26.4464
G01 X19.4294 Y26.5080
G01 X19.4438 Y26.6051
G01 X19.4500 Y26.6676
G01 X19.4548 Y26.7656
G01 X19.4548 Y26.8284
G01 X19.4500 Y26.9264
G01 X19.4438 Y26.9889
G01 X19.4294 Y27.0860
G01 X19.4172 Y27.1476
G01 X19.3933 Y27.2428
G01 X19.3751 Y27.3029
G01 X19.3420 Y27.3953
G01 X19.3180 Y27.4533
G01 X19.2760 Y27.5420
G01 X19.2464 Y27.5974
G01 X19.1960 Y27.6816
G01 X19.1611 Y27.7338
G01 X19.1026 Y27.8126
G01 X19.0628 Y27.8612
G01 X18.9969 Y27.9339
G01 X18.9525 Y27.9783
G01 X18.8797 Y28.0442
G01 X18.8312 Y28.0841
G01 X18.7524 Y28.1425
G01 X18.7001 Y28.1774
G01 X18.6160 Y28.2279
G01 X18.5606 Y28.2575
G01 X18.4719 Y28.2994
G01 X18.4138 Y28.3235
G01 X18.3214 Y28.3565
G01 X18.2613 Y28.3748
G01 X18.1661 Y28.3986
G01 X18.1045 Y28.4109
G01 X18.0075 Y28.4253
G01 X17.9450 Y28.4314
G01 X17.8470 Y28.4362
G01 X17.7841 Y28.4362
G01 X17.6861 Y28.4314
G01 X17.6236 Y28.4253
G01 X17.5266 Y28.4109
G01 X17.4650 Y28.3986
G01 X17.3698 Y28.3748
G01 X17.3097 Y28.3565
G01 X17.2173 Y28.3235
G01 X17.1592 Y28.2994
G01 X17.0705 Y28.2575
G01 X17.0151 Y28.2279
G01 X16.9310 Y28.1774
G01 X16.8787 Y28.1425
G01 X16.7999 Y28.0841
G01 X16.7514 Y28.0442
G01 X16.6786 Y27.9783
G01 X16.6342 Y27.9339
G01 X16.5683 Y27.8612
G01 X16.5285 Y27.8126
G01 X16.4700 Y27.7338
G01 X16.4351 Y27.6816
G01 X16.3847 Y27.5974
G01 X16.3551 Y27.5420
G01 X16.3131 Y27.4533
G01 X16.2891 Y27.3953
G01 X16.2560 Y27.3029
G01 X16.2378 Y27.2428
G01 X16.2139 Y27.1476
G01 X16.2017 Y27.0860
G01 X16.1873 Y26.9889
G01 X16.1811 Y26.9264
G01 X16.1763 Y26.8284
G01 X16.1763 Y26.7656
G01 X16.1811 Y26.6676
G01 X16.1873 Y26.6051
G01 X16.2017 Y26.5080
G01 X16.2139 Y26.4464
G01 X16.2378 Y26.3512
G01 X16.2560 Y26.2911
G01 X16.2891 Y26.1987
G01 X16.3131 Y26.1407
G01 X16.3551 Y26.0520
G01 X16.3847 Y25.9966
G01 X16.4351 Y25.9124
G01 X16.4700 Y25.8602
G01 X16.5285 Y25.7814
G01 X16.5683 Y25.7328
G01 X16.5752 Y25.7252
G01 X16.5752 Y7.7622
G01 X16.5621 Y7.7426
G01 X16.5117 Y7.6584
G01 X16.4821 Y7.6030
G01 X16.4761 Y7.5904
G01 X8.5648 Y7.5904
G01 X8.5572 Y7.5973
G01 X8.5086 Y7.6371
G01 X8.4298 Y7.6956
G01 X8.3776 Y7.7305
G01 X8.2934 Y7.7809
G01 X8.2380 Y7.8105
G01 X8.1493 Y7.8525
G01 X8.0913 Y7.8765
G01 X7.9989 Y7.9096
G01 X7.9388 Y7.9278
G01 X7.8436 Y7.9517
G01 X7.7820 Y7.9639
G01 X7.6849 Y7.9783
G01 X7.6224 Y7.9845
G01 X7.5244 Y7.9893
G01 X7.4616 Y7.9893
G01 X7.3635 Y7.9845
G01 X7.3010 Y7.9783
G01 X7.2040 Y7.9639
G01 X7.1424 Y7.9517
G01 X7.0472 Y7.9278
G01 X6.9871 Y7.9096
G01 X6.8947 Y7.8765
G01 X6.8367 Y7.8525
G01 X6.7479 Y7.8105
G01 X6.6925 Y7.7809
G01 X6.6084 Y7.7305
G01 X6.5562 Y7.6956
G01 X6.4773 Y7.6371
G01 X6.4288 Y7.5973
G01 X6.3561 Y7.5314
G01 X6.3117 Y7.4870
G01 X6.2458 Y7.4143
G01 X6.2059 Y7.3657
G01 X6.1474 Y7.2869
G01 X6.1126 Y7.2347
G01 X6.0621 Y7.1505
G01 X6.0325 Y7.0951
G01 X5.9905 Y7.0064
G01 X5.9665 Y6.9484
G01 X5.9334 Y6.8560
G01 X5.9152 Y6.7959
G01 X5.8914 Y6.7007
G01 X5.8791 Y6.6391
G01 X5.8647 Y6.5420
G01 X5.8586 Y6.4795
G01 X5.8537 Y6.3815
G01 X5.8537 Y6.3187
G01 X5.8586 Y6.2206
G01 X5.8647 Y6.1581
G01 X5.8791 Y6.0611
G01 X5.8914 Y5.9995
G01 X5.9152 Y5.9043
G01 X5.9334 Y5.8442
G01 X5.9665 Y5.7518
G01 X5.9905 Y5.6938
G01 X6.0325 Y5.6050
G01 X6.0621 Y5.5496
G01 X6.1126 Y5.4655
G01 X6.1474 Y5.4133
G01 X6.2059 Y5.3344
G01 X6.2458 Y5.2859
G01 X6.3117 Y5.2132
G01 X6.3561 Y5.1688
G01 X6.4288 Y5.1029
G01 X6.4773 Y5.0630
G01 X6.5562 Y5.0045
G01 X6.6084 Y4.9697
G01 X6.6925 Y4.9192
G01 X6.7479 Y4.8896
G01 X6.8367 Y4.8476
G01 X6.8947 Y4.8236
G01 X6.9871 Y4.7905
G01 X7.0472 Y4.7723
G01 X7.1424 Y4.7485
G01 X7.2040 Y4.7362
G01 X7.3010 Y4.7218
G01 X7.3635 Y4.7157
G01 X7.4616 Y4.7108
G01 X7.5244 Y4.7108
G01 X7.6224 Y4.7157
G01 X7.6849 Y4.7218
G01 X7.7820 Y4.7362
G01 X7.8436 Y4.7485
G01 X7.9388 Y4.7723
G01 X7.9989 Y4.7905
G01 X8.0913 Y4.8236
G01 X8.1493 Y4.8476
G01 X8.2380 Y4.8896
G01 X8.2934 Y4.9192
G01 X8.3776 Y4.9697
G01 X8.4298 Y5.0045
G01 X8.5086 Y5.0630
G01 X8.5572 Y5.1029
G01 X8.5648 Y5.1098
G00 Z2.0000
G00 X8.4954 Y5.2898
G01 F60.00
G01 Z-0.0900
G01 F120.00
G01 X17.4346 Y5.2898
G01 X17.4572 Y5.2903
G01 X17.5160 Y5.2932
G01 X17.5610 Y5.2976
G01 X17.6192 Y5.3063
G01 X17.6635 Y5.3151
G01 X17.7207 Y5.3294
G01 X17.7639 Y5.3425
G01 X17.8193 Y5.3624
G01 X17.8610 Y5.3796
G01 X17.9028 Y5.3994
G01 X17.9200 Y5.3986
G01 X17.9651 Y5.3986
G01 X18.0631 Y5.4034
G01 X18.1081 Y5.4078
G01 X18.2051 Y5.4222
G01 X18.2494 Y5.4310
G01 X18.3446 Y5.4548
G01 X18.3878 Y5.4679
G01 X18.4802 Y5.5010
G01 X18.5219 Y5.5183
G01 X18.6106 Y5.5602
G01 X18.6504 Y5.5815
G01 X18.7346 Y5.6320
G01 X18.7721 Y5.6571
G01 X18.8510 Y5.7155
G01 X18.8859 Y5.7442
G01 X18.9586 Y5.8101
G01 X18.9905 Y5.8420
G01 X19.0564 Y5.9147
G01 X19.0850 Y5.9496
G01 X19.1435 Y6.0284
G01 X19.1686 Y6.0659
G01 X19.2190 Y6.1501
G01 X19.2403 Y6.1899
G01 X19.2823 Y6.2786
G01 X19.2995 Y6.3203
G01 X19.3326 Y6.4127
G01 X19.3457 Y6.4559
G01 X19.3695 Y6.5511
G01 X19.3784 Y6.5954
G01 X19.3928 Y6.6925
G01 X19.3972 Y6.7374
G01 X19.4020 Y6.8354
G01 X19.4020 Y6.8806
G01 X19.3972 Y6.9786
G01 X19.3928 Y7.0235
G01 X19.3784 Y7.1206
G01 X19.3695 Y7.1649
G01 X19.3457 Y7.2601
G01 X19.3326 Y7.3033
G01 X19.2995 Y7.3957
G01 X19.2823 Y7.4374
G01 X19.2403 Y7.5261
G01 X19.2190 Y7.5659
G01 X19.1686 Y7.6501
G01 X19.1435 Y7.6876
G01 X19.0850 Y7.7664
G01 X19.0564 Y7.8013
G01 X18.9905 Y7.8740
G01 X18.9586 Y7.9059
G01 X18.8859 Y7.9718
G01 X18.8759 Y7.9801
G01 X18.8759 Y25.7946
G01 X18.9294 Y25.8537
G01 X18.9580 Y25.8886
G01 X19.0165 Y25.9674
G01 X19.0416 Y26.0049
G01 X19.0920 Y26.0891
G01 X19.1133 Y26.1289
G01 X19.1553 Y26.2176
G01 X19.1725 Y26.2593
G01 X19.2056 Y26.3517
G01 X19.2187 Y26.3949
G01 X19.2425 Y26.4901
G01 X19.2514 Y26.5344
G01 X19.2658 Y26.6315
G01 X19.2702 Y26.6764
G01 X19.2750 Y26.7744
G01 X19.2750 Y26.8196
G01 X19.2702 Y26.9176
G01 X19.2658 Y26.9625
G01 X19.2514 Y27.0596
G01 X19.2425 Y27.1039
G01 X19.2187 Y27.1991
G01 X19.2056 Y27.2423
G01 X19.1725 Y27.3347
G01 X19.1553 Y27.3764
G01 X19.1133 Y27.4651
G01 X19.0920 Y27.5049
G01 X19.0416 Y27.5891
G01 X19.0165 Y27.6266
G01 X18.9580 Y27.7054
G01 X18.9294 Y27.7403
G01 X18.8635 Y27.8130
G01 X18.8316 Y27.8449
G01 X18.7589 Y27.9108
G01 X18.7240 Y27.9395
G01 X18.6451 Y27.9979
G01 X18.6076 Y28.0230
G01 X18.5234 Y28.0735
G01 X18.4836 Y28.0948
G01 X18.3949 Y28.1367
G01 X18.3532 Y28.1540
G01 X18.2608 Y28.1871
G01 X18.2176 Y28.2002
G01 X18.1224 Y28.2240
G01 X18.0781 Y28.2328
G01 X17.9811 Y28.2472
G01 X17.9361 Y28.2516
G01 X17.8381 Y28.2564
G01 X17.7930 Y28.2564
G01 X17.6950 Y28.2516
G01 X17.6500 Y28.2472
G01 X17.5530 Y28.2328
G01 X17.5087 Y28.2240
G01 X17.4135 Y28.2002
G01 X17.3703 Y28.1871
G01 X17.2779 Y28.1540
G01 X17.2362 Y28.1367
G01 X17.1475 Y28.0948
G01 X17.1077 Y28.0735
G01 X17.0235 Y28.0230
G01 X16.9860 Y27.9979
G01 X16.9071 Y27.9395
G01 X16.8722 Y27.9108
G01 X16.7995 Y27.8449
G01 X16.7676 Y27.8130
G01 X16.7017 Y27.7403
G01 X16.6731 Y27.7054
G01 X16.6146 Y27.6266
G01 X16.5895 Y27.5891
G01 X16.5391 Y27.5049
G01 X16.5178 Y27.4651
G01 X16.4758 Y27.3764
G01 X16.4586 Y27.3347
G01 X16.4255 Y27.2423
G01 X16.4124 Y27.1991
G01 X16.3886 Y27.1039
G01 X16.3797 Y27.0596
G01 X16.3653 Y26.9625
G01 X16.3609 Y26.9176
G01 X16.3561 Y26.8196
G01 X16.3561 Y26.7744
G01 X16.3609 Y26.6764
G01 X16.3653 Y26.6315
G01 X16.3797 Y26.5344
G01 X16.3886 Y26.4901
G01 X16.4124 Y26.3949
G01 X16.4255 Y26.3517
G01 X16.4586 Y26.2593
G01 X16.4758 Y26.2176
G01 X16.5178 Y26.1289
G01 X16.5391 Y26.0891
G01 X16.5895 Y26.0049
G01 X16.6146 Y25.9674
G01 X16.6731 Y25.8886
G01 X16.7017 Y25.8537
G01 X16.7552 Y25.7946
G01 X16.7552 Y7.7060
G01 X16.7416 Y7.6876
G01 X16.7165 Y7.6501
G01 X16.6661 Y7.5659
G01 X16.6448 Y7.5261
G01 X16.6028 Y7.4374
G01 X16.5917 Y7.4104
G01 X8.4954 Y7.4104
G01 X8.4363 Y7.4639
G01 X8.4014 Y7.4926
G01 X8.3226 Y7.5510
G01 X8.2850 Y7.5761
G01 X8.2009 Y7.6265
G01 X8.1610 Y7.6478
G01 X8.0723 Y7.6898
G01 X8.0306 Y7.7071
G01 X7.9382 Y7.7401
G01 X7.8950 Y7.7532
G01 X7.7998 Y7.7771
G01 X7.7556 Y7.7859
G01 X7.6585 Y7.8003
G01 X7.6136 Y7.8047
G01 X7.5155 Y7.8095
G01 X7.4704 Y7.8095
G01 X7.3724 Y7.8047
G01 X7.3275 Y7.8003
G01 X7.2304 Y7.7859
G01 X7.1861 Y7.7771
G01 X7.0909 Y7.7532
G01 X7.0477 Y7.7401
G01 X6.9553 Y7.7071
G01 X6.9136 Y7.6898
G01 X6.8249 Y7.6478
G01 X6.7851 Y7.6265
G01 X6.7009 Y7.5761
G01 X6.6634 Y7.5510
G01 X6.5846 Y7.4926
G01 X6.5497 Y7.4639
G01 X6.4769 Y7.3980
G01 X6.4450 Y7.3661
G01 X6.3791 Y7.2934
G01 X6.3505 Y7.2585
G01 X6.2920 Y7.1797
G01 X6.2669 Y7.1421
G01 X6.2165 Y7.0580
G01 X6.1952 Y7.0181
G01 X6.1533 Y6.9294
G01 X6.1360 Y6.8877
G01 X6.1029 Y6.7953
G01 X6.0898 Y6.7521
G01 X6.0660 Y6.6569
G01 X6.0572 Y6.6127
G01 X6.0428 Y6.5156
G01 X6.0383 Y6.4707
G01 X6.0335 Y6.3726
G01 X6.0335 Y6.3275
G01 X6.0383 Y6.2295
G01 X6.0428 Y6.1846
G01 X6.0572 Y6.0875
G01 X6.0660 Y6.0432
G01 X6.0898 Y5.9480
G01 X6.1029 Y5.9048
G01 X6.1360 Y5.8124
G01 X6.1533 Y5.7707
G01 X6.1952 Y5.6820
G01 X6.2165 Y5.6422
G01 X6.2669 Y5.5580
G01 X6.2920 Y5.5205
G01 X6.3505 Y5.4417
G01 X6.3791 Y5.4068
G01 X6.4450 Y5.3340
G01 X6.4769 Y5.3021
G01 X6.5497 Y5.2362
G01 X6.5846 Y5.2076
G01 X6.6634 Y5.1491
G01 X6.7009 Y5.1240
G01 X6.7851 Y5.0736
G01 X6.8249 Y5.0523
G01 X6.9136 Y5.0104
G01 X6.9553 Y4.9931
G01 X7.0477 Y4.9600
G01 X7.0909 Y4.9469
G01 X7.1861 Y4.9231
G01 X7.2304 Y4.9143
G01 X7.3275 Y4.8999
G01 X7.3724 Y4.8954
G01 X7.4704 Y4.8906
G01 X7.5155 Y4.8906
G01 X7.6136 Y4.8954
G01 X7.6585 Y4.8999
G01 X7.7556 Y4.9143
G01 X7.7998 Y4.9231
G01 X7.8950 Y4.9469
G01 X7.9382 Y4.9600
G01 X8.0306 Y4.9931
G01 X8.0723 Y5.0104
G01 X8.1610 Y5.0523
G01 X8.2009 Y5.0736
G01 X8.2850 Y5.1240
G01 X8.3226 Y5.1491
G01 X8.4014 Y5.2076
G01 X8.4363 Y5.2362
G01 X8.4954 Y5.2898
G00 Z2.0000
G00 X8.4210 Y5.4698
G01 F60.00
G01 Z-0.0900
G01 F120.00
G01 X17.4346 Y5.4698
G01 X17.4484 Y5.4701
G01 X17.5072 Y5.4730
G01 X17.5346 Y5.4757
G01 X17.5928 Y5.4843
G01 X17.6198 Y5.4897
G01 X17.6769 Y5.5040
G01 X17.7032 Y5.5120
G01 X17.7587 Y5.5318
G01 X17.7841 Y5.5423
G01 X17.8373 Y5.5675
G01 X17.8633 Y5.5816
G01 X17.9288 Y5.5783
G01 X17.9563 Y5.5783
G01 X18.0543 Y5.5832
G01 X18.0817 Y5.5858
G01 X18.1787 Y5.6002
G01 X18.2057 Y5.6056
G01 X18.3009 Y5.6295
G01 X18.3272 Y5.6374
G01 X18.4196 Y5.6705
G01 X18.4449 Y5.6810
G01 X18.5337 Y5.7230
G01 X18.5579 Y5.7359
G01 X18.6421 Y5.7864
G01 X18.6649 Y5.8016
G01 X18.7437 Y5.8601
G01 X18.7650 Y5.8775
G01 X18.8377 Y5.9434
G01 X18.8571 Y5.9629
G01 X18.9230 Y6.0356
G01 X18.9405 Y6.0568
G01 X18.9989 Y6.1356
G01 X19.0142 Y6.1585
G01 X19.0646 Y6.2427
G01 X19.0776 Y6.2669
G01 X19.1195 Y6.3556
G01 X19.1301 Y6.3810
G01 X19.1631 Y6.4734
G01 X19.1711 Y6.4997
G01 X19.1949 Y6.5949
G01 X19.2003 Y6.6218
G01 X19.2147 Y6.7189
G01 X19.2174 Y6.7462
G01 X19.2222 Y6.8443
G01 X19.2222 Y6.8717
G01 X19.2174 Y6.9698
G01 X19.2147 Y6.9971
G01 X19.2003 Y7.0942
G01 X19.1949 Y7.1211
G01 X19.1711 Y7.2163
G01 X19.1631 Y7.2426
G01 X19.1301 Y7.3350
G01 X19.1195 Y7.3604
G01 X19.0776 Y7.4491
G01 X19.0646 Y7.4733
G01 X19.0142 Y7.5575
G01 X18.9989 Y7.5804
G01 X18.9405 Y7.6592
G01 X18.9230 Y7.6804
G01 X18.8571 Y7.7531
G01 X18.8377 Y7.7726
G01 X18.7650 Y7.8385
G01 X18.7437 Y7.8559
G01 X18.6959 Y7.8914
G01 X18.6959 Y25.8690
G01 X18.7107 Y25.8824
G01 X18.7301 Y25.9019
G01 X18.7960 Y25.9746
G01 X18.8135 Y25.9958
G01 X18.8719 Y26.0746
G01 X18.8872 Y26.0975
G01 X18.9376 Y26.1817
G01 X18.9506 Y26.2059
G01 X18.9925 Y26.2946
G01 X19.0031 Y26.3200
G01 X19.0361 Y26.4124
G01 X19.0441 Y26.4387
G01 X19.0679 Y26.5339
G01 X19.0733 Y26.5608
G01 X19.0877 Y26.6579
G01 X19.0904 Y26.6852
G01 X19.0952 Y26.7833
G01 X19.0952 Y26.8107
G01 X19.0904 Y26.9088
G01 X19.0877 Y26.9361
G01 X19.0733 Y27.0332
G01 X19.0679 Y27.0601
G01 X19.0441 Y27.1553
G01 X19.0361 Y27.1816
G01 X19.0031 Y27.2740
G01 X18.9925 Y27.2994
G01 X18.9506 Y27.3881
G01 X18.9376 Y27.4123
G01 X18.8872 Y27.4965
G01 X18.8719 Y27.5194
G01 X18.8135 Y27.5982
G01 X18.7960 Y27.6194
G01 X18.7301 Y27.6921
G01 X18.7107 Y27.7116
G01 X18.6380 Y27.7775
G01 X18.6167 Y27.7949
G01 X18.5379 Y27.8534
G01 X18.5151 Y27.8686
G01 X18.4309 Y27.9191
G01 X18.4067 Y27.9320
G01 X18.3179 Y27.9740
G01 X18.2926 Y27.9845
G01 X18.2002 Y28.0176
G01 X18.1739 Y28.0255
G01 X18.0787 Y28.0494
G01 X18.0517 Y28.0548
G01 X17.9547 Y28.0692
G01 X17.9273 Y28.0718
G01 X17.8293 Y28.0767
G01 X17.8018 Y28.0767
G01 X17.7038 Y28.0718
G01 X17.6764 Y28.0692
G01 X17.5794 Y28.0548
G01 X17.5524 Y28.0494
G01 X17.4572 Y28.0255
G01 X17.4309 Y28.0176
G01 X17.3385 Y27.9845
G01 X17.3132 Y27.9740
G01 X17.2244 Y27.9320
G01 X17.2002 Y27.9191
G01 X17.1160 Y27.8686
G01 X17.0932 Y27.8534
G01 X17.0144 Y27.7949
G01 X16.9931 Y27.7775
G01 X16.9204 Y27.7116
G01 X16.9010 Y27.6921
G01 X16.8351 Y27.6194
G01 X16.8176 Y27.5982
G01 X16.7592 Y27.5194
G01 X16.7439 Y27.4965
G01 X16.6935 Y27.4123
G01 X16.6805 Y27.3881
G01 X16.6386 Y27.2994
G01 X16.6280 Y27.2740
G01 X16.5950 Y27.1816
G01 X16.5870 Y27.1553
G01 X16.5632 Y27.0601
G01 X16.5578 Y27.0332
G01 X16.5434 Y26.9361
G01 X16.5407 Y26.9088
G01 X16.5359 Y26.8107
G01 X16.5359 Y26.7833
G01 X16.5407 Y26.6852
G01 X16.5434 Y26.6579
G01 X16.5578 Y26.5608
G01 X16.5632 Y26.5339
G01 X16.5870 Y26.4387
G01 X16.5950 Y26.4124
G01 X16.6280 Y26.3200
G01 X16.6386 Y26.2946
G01 X16.6805 Y26.2059
G01 X16.6935 Y26.1817
G01 X16.7439 Y26.0975
G01 X16.7592 Y26.0746
G01 X16.8176 Y25.9958
G01 X16.8351 Y25.9746
G01 X16.9010 Y25.9019
G01 X16.9204 Y25.8824
G01 X16.9352 Y25.8690
G01 X16.9352 Y7.6465
G01 X16.8862 Y7.5804
G01 X16.8709 Y7.5575
G01 X16.8205 Y7.4733
G01 X16.8075 Y7.4491
G01 X16.7656 Y7.3604
G01 X16.7550 Y7.3350
G01 X16.7220 Y7.2426
G01 X16.7183 Y7.2304
G01 X8.4210 Y7.2304
G01 X8.4075 Y7.2452
G01 X8.3881 Y7.2646
G01 X8.3154 Y7.3305
G01 X8.2942 Y7.3480
G01 X8.2153 Y7.4064
G01 X8.1925 Y7.4217
G01 X8.1083 Y7.4722
G01 X8.0841 Y7.4851
G01 X7.9954 Y7.5271
G01 X7.9700 Y7.5376
G01 X7.8776 Y7.5706
G01 X7.8513 Y7.5786
G01 X7.7561 Y7.6025
G01 X7.7291 Y7.6078
G01 X7.6321 Y7.6222
G01 X7.6047 Y7.6249
G01 X7.5067 Y7.6297
G01 X7.4792 Y7.6297
G01 X7.3812 Y7.6249
G01 X7.3539 Y7.6222
G01 X7.2568 Y7.6078
G01 X7.2298 Y7.6025
G01 X7.1347 Y7.5786
G01 X7.1084 Y7.5706
G01 X7.0160 Y7.5376
G01 X6.9906 Y7.5271
G01 X6.9019 Y7.4851
G01 X6.8776 Y7.4722
G01 X6.7935 Y7.4217
G01 X6.7706 Y7.4064
G01 X6.6918 Y7.3480
G01 X6.6705 Y7.3305
G01 X6.5978 Y7.2646
G01 X6.5784 Y7.2452
G01 X6.5125 Y7.1725
G01 X6.4951 Y7.1513
G01 X6.4366 Y7.0724
G01 X6.4213 Y7.0496
G01 X6.3709 Y6.9654
G01 X6.3579 Y6.9412
G01 X6.3160 Y6.8525
G01 X6.3055 Y6.8271
G01 X6.2724 Y6.7347
G01 X6.2644 Y6.7084
G01 X6.2406 Y6.6132
G01 X6.2352 Y6.5862
G01 X6.2208 Y6.4892
G01 X6.2181 Y6.4618
G01 X6.2133 Y6.3638
G01 X6.2133 Y6.3363
G01 X6.2181 Y6.2383
G01 X6.2208 Y6.2110
G01 X6.2352 Y6.1139
G01 X6.2406 Y6.0869
G01 X6.2644 Y5.9918
G01 X6.2724 Y5.9655
G01 X6.3055 Y5.8731
G01 X6.3160 Y5.8477
G01 X6.3579 Y5.7590
G01 X6.3709 Y5.7347
G01 X6.4213 Y5.6506
G01 X6.4366 Y5.6277
G01 X6.4951 Y5.5489
G01 X6.5125 Y5.5276
G01 X6.5784 Y5.4549
G01 X6.5978 Y5.4355
G01 X6.6705 Y5.3696
G01 X6.6918 Y5.3522
G01 X6.7706 Y5.2937
G01 X6.7935 Y5.2784
G01 X6.8776 Y5.2280
G01 X6.9019 Y5.2150
G01 X6.9906 Y5.1731
G01 X7.0160 Y5.1626
G01 X7.1084 Y5.1295
G01 X7.1347 Y5.1215
G01 X7.2298 Y5.0977
G01 X7.2568 Y5.0923
G01 X7.3539 Y5.0779
G01 X7.3812 Y5.0752
G01 X7.4792 Y5.0704
G01 X7.5067 Y5.0704
G01 X7.6047 Y5.0752
G01 X7.6321 Y5.0779
G01 X7.7291 Y5.0923
G01 X7.7561 Y5.0977
G01 X7.8513 Y5.1215
G01 X7.8776 Y5.1295
G01 X7.9700 Y5.1626
G01 X7.9954 Y5.1731
G01 X8.0841 Y5.2150
G01 X8.1083 Y5.2280
G01 X8.1925 Y5.2784
G01 X8.2153 Y5.2937
G01 X8.2942 Y5.3522
G01 X8.3154 Y5.3696
G01 X8.3881 Y5.4355
G01 X8.4075 Y5.4549
G01 X8.4210 Y5.4698
G00 Z2.0000
G00 X8.3411 Y5.6498
G01 F60.00
G01 Z-0.0900
G01 F120.00
G01 X17.4346 Y5.6498
G01 X17.4984 Y5.6528
G01 X17.5081 Y5.6537
G01 X17.5664 Y5.6624
G01 X17.5760 Y5.6643
G01 X17.6332 Y5.6786
G01 X17.6426 Y5.6815
G01 X17.6980 Y5.7013
G01 X17.7071 Y5.7051
G01 X17.7604 Y5.7303
G01 X17.7690 Y5.7349
G01 X17.8199 Y5.7654
G01 X17.8396 Y5.7629
G01 X17.9376 Y5.7581
G01 X17.9475 Y5.7581
G01 X18.0455 Y5.7629
G01 X18.0552 Y5.7639
G01 X18.1523 Y5.7783
G01 X18.1619 Y5.7802
G01 X18.2571 Y5.8041
G01 X18.2665 Y5.8069
G01 X18.3589 Y5.8400
G01 X18.3680 Y5.8437
G01 X18.4567 Y5.8857
G01 X18.4654 Y5.8903
G01 X18.5495 Y5.9408
G01 X18.5577 Y5.9462
G01 X18.6365 Y6.0047
G01 X18.6441 Y6.0109
G01 X18.7168 Y6.0768
G01 X18.7238 Y6.0837
G01 X18.7897 Y6.1565
G01 X18.7959 Y6.1640
G01 X18.8543 Y6.2429
G01 X18.8598 Y6.2510
G01 X18.9102 Y6.3352
G01 X18.9149 Y6.3438
G01 X18.9568 Y6.4326
G01 X18.9606 Y6.4416
G01 X18.9936 Y6.5340
G01 X18.9965 Y6.5434
G01 X19.0203 Y6.6386
G01 X19.0223 Y6.6482
G01 X19.0367 Y6.7453
G01 X19.0376 Y6.7551
G01 X19.0424 Y6.8531
G01 X19.0424 Y6.8629
G01 X19.0376 Y6.9609
G01 X19.0367 Y6.9707
G01 X19.0223 Y7.0678
G01 X19.0203 Y7.0774
G01 X18.9965 Y7.1726
G01 X18.9936 Y7.1820
G01 X18.9606 Y7.2744
G01 X18.9568 Y7.2834
G01 X18.9149 Y7.3722
G01 X18.9102 Y7.3808
G01 X18.8598 Y7.4650
G01 X18.8543 Y7.4731
G01 X18.7959 Y7.5520
G01 X18.7897 Y7.5595
G01 X18.7238 Y7.6323
G01 X18.7168 Y7.6392
G01 X18.6441 Y7.7051
G01 X18.6365 Y7.7113
G01 X18.5577 Y7.7698
G01 X18.5495 Y7.7752
G01 X18.5159 Y7.7954
G01 X18.5159 Y25.9489
G01 X18.5898 Y26.0158
G01 X18.5968 Y26.0227
G01 X18.6627 Y26.0955
G01 X18.6689 Y26.1030
G01 X18.7273 Y26.1819
G01 X18.7328 Y26.1900
G01 X18.7832 Y26.2742
G01 X18.7879 Y26.2828
G01 X18.8298 Y26.3716
G01 X18.8336 Y26.3806
G01 X18.8666 Y26.4730
G01 X18.8695 Y26.4824
G01 X18.8933 Y26.5776
G01 X18.8953 Y26.5872
G01 X18.9097 Y26.6843
G01 X18.9106 Y26.6941
G01 X18.9154 Y26.7921
G01 X18.9154 Y26.8019
G01 X18.9106 Y26.8999
G01 X18.9097 Y26.9097
G01 X18.8953 Y27.0068
G01 X18.8933 Y27.0164
G01 X18.8695 Y27.1116
G01 X18.8666 Y27.1210
G01 X18.8336 Y27.2134
G01 X18.8298 Y27.2224
G01 X18.7879 Y27.3112
G01 X18.7832 Y27.3198
G01 X18.7328 Y27.4040
G01 X18.7273 Y27.4121
G01 X18.6689 Y27.4910
G01 X18.6627 Y27.4985
G01 X18.5968 Y27.5713
G01 X18.5898 Y27.5782
G01 X18.5171 Y27.6441
G01 X18.5095 Y27.6503
G01 X18.4307 Y27.7088
G01 X18.4225 Y27.7142
G01 X18.3384 Y27.7647
G01 X18.3297 Y27.7693
G01 X18.2410 Y27.8113
G01 X18.2319 Y27.8150
G01 X18.1395 Y27.8481
G01 X18.1301 Y27.8509
G01 X18.0349 Y27.8748
G01 X18.0253 Y27.8767
G01 X17.9282 Y27.8911
G01 X17.9185 Y27.8921
G01 X17.8205 Y27.8969
G01 X17.8106 Y27.8969
G01 X17.7126 Y27.8921
G01 X17.7029 Y27.8911
G01 X17.6058 Y27.8767
G01 X17.5962 Y27.8748
G01 X17.5010 Y27.8509
G01 X17.4916 Y27.8481
G01 X17.3992 Y27.8150
G01 X17.3901 Y27.8113
G01 X17.3014 Y27.7693
G01 X17.2927 Y27.7647
G01 X17.2086 Y27.7142
G01 X17.2004 Y27.7088
G01 X17.1216 Y27.6503
G01 X17.1140 Y27.6441
G01 X17.0413 Y27.5782
G01 X17.0343 Y27.5713
G01 X16.9684 Y27.4985
G01 X16.9622 Y27.4910
G01 X16.9038 Y27.4121
G01 X16.8983 Y27.4040
G01 X16.8479 Y27.3198
G01 X16.8432 Y27.3112
G01 X16.8013 Y27.2224
G01 X16.7975 Y27.2134
G01 X16.7645 Y27.1210
G01 X16.7616 Y27.1116
G01 X16.7378 Y27.0164
G01 X16.7358 Y27.0068
G01 X16.7214 Y26.9097
G01 X16.7205 Y26.8999
G01 X16.7157 Y26.8019
G01 X16.7157 Y26.7921
G01 X16.7205 Y26.6941
G01 X16.7214 Y26.6843
G01 X16.7358 Y26.5872
G01 X16.7378 Y26.5776
G01 X16.7616 Y26.4824
G01 X16.7645 Y26.4730
G01 X16.7975 Y26.3806
G01 X16.8013 Y26.3716
G01 X16.8432 Y26.2828
G01 X16.8479 Y26.2742
G01 X16.8983 Y26.1900
G01 X16.9038 Y26.1819
G01 X16.9622 Y26.1030
G01 X16.9684 Y26.0955
G01 X17.0343 Y26.0227
G01 X17.0413 Y26.0158
G01 X17.1152 Y25.9489
G01 X17.1152 Y7.5814
G01 X17.0954 Y7.5595
G01 X17.0892 Y7.5520
G01 X17.0308 Y7.4731
G01 X17.0253 Y7.4650
G01 X16.9749 Y7.3808
G01 X16.9702 Y7.3722
G01 X16.9283 Y7.2834
G01 X16.9245 Y7.2744
G01 X16.8915 Y7.1820
G01 X16.8886 Y7.1726
G01 X16.8648 Y7.0774
G01 X16.8628 Y7.0678
G01 X16.8603 Y7.0504
G01 X8.3411 Y7.0504
G01 X8.2742 Y7.1243
G01 X8.2672 Y7.1313
G01 X8.1945 Y7.1972
G01 X8.1869 Y7.2034
G01 X8.1081 Y7.2619
G01 X8.1000 Y7.2673
G01 X8.0158 Y7.3178
G01 X8.0071 Y7.3224
G01 X7.9184 Y7.3643
G01 X7.9093 Y7.3681
G01 X7.8169 Y7.4012
G01 X7.8076 Y7.4040
G01 X7.7124 Y7.4279
G01 X7.7027 Y7.4298
G01 X7.6057 Y7.4442
G01 X7.5959 Y7.4451
G01 X7.4979 Y7.4499
G01 X7.4881 Y7.4499
G01 X7.3900 Y7.4451
G01 X7.3803 Y7.4442
G01 X7.2832 Y7.4298
G01 X7.2736 Y7.4279
G01 X7.1784 Y7.4040
G01 X7.1690 Y7.4012
G01 X7.0766 Y7.3681
G01 X7.0675 Y7.3643
G01 X6.9788 Y7.3224
G01 X6.9702 Y7.3178
G01 X6.8860 Y7.2673
G01 X6.8778 Y7.2619
G01 X6.7990 Y7.2034
G01 X6.7914 Y7.1972
G01 X6.7187 Y7.1313
G01 X6.7118 Y7.1243
G01 X6.6459 Y7.0516
G01 X6.6396 Y7.0440
G01 X6.5812 Y6.9652
G01 X6.5757 Y6.9571
G01 X6.5253 Y6.8729
G01 X6.5206 Y6.8642
G01 X6.4787 Y6.7755
G01 X6.4749 Y6.7664
G01 X6.4419 Y6.6740
G01 X6.4390 Y6.6647
G01 X6.4152 Y6.5695
G01 X6.4133 Y6.5598
G01 X6.3989 Y6.4628
G01 X6.3979 Y6.4530
G01 X6.3931 Y6.3550
G01 X6.3931 Y6.3452
G01 X6.3979 Y6.2471
G01 X6.3989 Y6.2374
G01 X6.4133 Y6.1403
G01 X6.4152 Y6.1307
G01 X6.4390 Y6.0355
G01 X6.4419 Y6.0261
G01 X6.4749 Y5.9337
G01 X6.4787 Y5.9246
G01 X6.5206 Y5.8359
G01 X6.5253 Y5.8273
G01 X6.5757 Y5.7431
G01 X6.5812 Y5.7349
G01 X6.6396 Y5.6561
G01 X6.6459 Y5.6485
G01 X6.7118 Y5.5758
G01 X6.7187 Y5.5689
G01 X6.7914 Y5.5030
G01 X6.7990 Y5.4967
G01 X6.8778 Y5.4383
G01 X6.8860 Y5.4328
G01 X6.9702 Y5.3824
G01 X6.9788 Y5.3777
G01 X7.0675 Y5.3358
G01 X7.0766 Y5.3320
G01 X7.1690 Y5.2990
G01 X7.1784 Y5.2961
G01 X7.2736 Y5.2723
G01 X7.2832 Y5.2704
G01 X7.3803 Y5.2560
G01 X7.3900 Y5.2550
G01 X7.4881 Y5.2502
G01 X7.4979 Y5.2502
G01 X7.5959 Y5.2550
G01 X7.6057 Y5.2560
G01 X7.7027 Y5.2704
G01 X7.7124 Y5.2723
G01 X7.8076 Y5.2961
G01 X7.8169 Y5.2990
G01 X7.9093 Y5.3320
G01 X7.9184 Y5.3358
G01 X8.0071 Y5.3777
G01 X8.0158 Y5.3824
G01 X8.1000 Y5.4328
G01 X8.1081 Y5.4383
G01 X8.1869 Y5.4967
G01 X8.1945 Y5.5030
G01 X8.2672 Y5.5689
G01 X8.2742 Y5.5758
G01 X8.3411 Y5.6498
G00 Z2.0000
G00 X5.7953 Y10.0097
G01 F60.00
G01 Z-0.0900
G01 F120.00
G01 X6.3564 Y10.0097
G01 X6.3701 Y9.9984
G01 X6.4489 Y9.9400
G01 X6.5158 Y9.8953
G01 X6.6000 Y9.8448
G01 X6.6710 Y9.8069
G01 X6.7597 Y9.7649
G01 X6.8340 Y9.7341
G01 X6.9264 Y9.7011
G01 X7.0034 Y9.6777
G01 X7.0986 Y9.6539
G01 X7.1776 Y9.6382
G01 X7.2746 Y9.6238
G01 X7.3547 Y9.6159
G01 X7.4527 Y9.6111
G01 X7.5332 Y9.6111
G01 X7.6312 Y9.6159
G01 X7.7113 Y9.6238
G01 X7.8084 Y9.6382
G01 X7.8873 Y9.6539
G01 X7.9825 Y9.6777
G01 X8.0595 Y9.7011
G01 X8.1519 Y9.7341
G01 X8.2262 Y9.7649
G01 X8.3150 Y9.8069
G01 X8.3859 Y9.8448
G01 X8.4701 Y9.8953
G01 X8.5370 Y9.9400
G01 X8.6158 Y9.9984
G01 X8.6780 Y10.0495
G01 X8.7508 Y10.1154
G01 X8.8077 Y10.1723
G01 X8.8736 Y10.2450
G01 X8.9246 Y10.3072
G01 X8.9831 Y10.3860
G01 X9.0278 Y10.4529
G01 X9.0782 Y10.5371
G01 X9.1162 Y10.6081
G01 X9.1581 Y10.6968
G01 X9.1889 Y10.7711
G01 X9.2220 Y10.8635
G01 X9.2453 Y10.9405
G01 X9.2692 Y11.0357
G01 X9.2849 Y11.1147
G01 X9.2993 Y11.2117
G01 X9.3072 Y11.2918
G01 X9.3120 Y11.3898
G01 X9.3120 Y11.4703
G01 X9.3072 Y11.5683
G01 X9.2993 Y11.6484
G01 X9.2849 Y11.7455
G01 X9.2692 Y11.8244
G01 X9.2453 Y11.9196
G01 X9.2220 Y11.9966
G01 X9.1889 Y12.0890
G01 X9.1581 Y12.1633
G01 X9.1162 Y12.2521
G01 X9.0782 Y12.3230
G01 X9.0278 Y12.4072
G01 X8.9831 Y12.4741
G01 X8.9246 Y12.5529
G01 X8.8736 Y12.6151
G01 X8.8077 Y12.6879
G01 X8.7508 Y12.7448
G01 X8.6780 Y12.8107
G01 X8.6158 Y12.8617
G01 X8.5370 Y12.9202
G01 X8.4701 Y12.9649
G01 X8.3859 Y13.0153
G01 X8.3150 Y13.0533
G01 X8.2262 Y13.0952
G01 X8.1519 Y13.1260
G01 X8.0595 Y13.1591
G01 X7.9825 Y13.1824
G01 X7.8873 Y13.2063
G01 X7.8084 Y13.2220
G01 X7.7113 Y13.2364
G01 X7.6312 Y13.2443
G01 X7.5332 Y13.2491
G01 X7.4527 Y13.2491
G01 X7.3547 Y13.2443
G01 X7.2746 Y13.2364
G01 X7.1776 Y13.2220
G01 X7.0986 Y13.2063
G01 X7.0034 Y13.1824
G01 X6.9264 Y13.1591
G01 X6.8340 Y13.1260
G01 X6.7597 Y13.0952
G01 X6.6710 Y13.0533
G01 X6.6000 Y13.0153
G01 X6.5158 Y12.9649
G01 X6.4489 Y12.9202
G01 X6.3701 Y12.8617
G01 X6.3562 Y12.8503
G01 X5.2070 Y12.8503
G01 X5.1668 Y12.8493
G01 X5.1079 Y12.8464
G01 X5.0278 Y12.8385
G01 X4.9696 Y12.8299
G01 X4.8906 Y12.8142
G01 X4.8335 Y12.7999
G01 X4.7565 Y12.7765
G01 X4.7010 Y12.7567
G01 X4.6267 Y12.7259
G01 X4.5734 Y12.7007
G01 X4.5025 Y12.6628
G01 X4.4519 Y12.6325
G01 X4.3850 Y12.5878
G01 X4.3377 Y12.5527
G01 X4.2755 Y12.5016
G01 X4.2318 Y12.4621
G01 X4.2027 Y12.4343
G01 X2.0437 Y10.2753
G01 X2.0159 Y10.2462
G01 X1.9764 Y10.2025
G01 X1.9253 Y10.1403
G01 X1.8902 Y10.0930
G01 X1.8455 Y10.0261
G01 X1.8152 Y9.9755
G01 X1.7773 Y9.9046
G01 X1.7521 Y9.8513
G01 X1.7213 Y9.7770
G01 X1.7015 Y9.7215
G01 X1.6781 Y9.6445
G01 X1.6638 Y9.5874
G01 X1.6481 Y9.5084
G01 X1.6395 Y9.4502
G01 X1.6316 Y9.3701
G01 X1.6287 Y9.3112
G01 X1.6277 Y9.2710
G01 X1.6277 Y3.8100
G01 X1.6287 Y3.7698
G01 X1.6316 Y3.7109
G01 X1.6395 Y3.6308
G01 X1.6481 Y3.5726
G01 X1.6638 Y3.4936
G01 X1.6781 Y3.4365
G01 X1.7015 Y3.3595
G01 X1.7213 Y3.3040
G01 X1.7521 Y3.2297
G01 X1.7773 Y3.1764
G01 X1.8152 Y3.1055
G01 X1.8455 Y3.0549
G01 X1.8902 Y2.9880
G01 X1.9253 Y2.9407
G01 X1.9764 Y2.8785
G01 X2.0159 Y2.8348
G01 X2.0437 Y2.8057
G01 X3.3137 Y1.5357
G01 X3.3428 Y1.5079
G01 X3.3865 Y1.4684
G01 X3.4487 Y1.4173
G01 X3.4960 Y1.3822
G01 X3.5629 Y1.3375
G01 X3.6135 Y1.3072
G01 X3.6844 Y1.2693
G01 X3.7377 Y1.2441
G01 X3.8120 Y1.2133
G01 X3.8675 Y1.1935
G01 X3.9445 Y1.1701
G01 X4.0016 Y1.1558
G01 X4.0806 Y1.1401
G01 X4.1388 Y1.1315
G01 X4.2189 Y1.1236
G01 X4.2778 Y1.1207
G01 X4.3180 Y1.1197
G01 X18.6334 Y1.1197
G01 X18.6737 Y1.1207
G01 X18.7325 Y1.1236
G01 X18.8126 Y1.1315
G01 X18.8709 Y1.1401
G01 X18.9498 Y1.1558
G01 X19.0069 Y1.1701
G01 X19.0839 Y1.1935
G01 X19.1394 Y1.2133
G01 X19.2138 Y1.2441
G01 X19.2670 Y1.2693
G01 X19.3380 Y1.3072
G01 X19.3885 Y1.3375
G01 X19.4554 Y1.3822
G01 X19.5027 Y1.4173
G01 X19.5649 Y1.4684
G01 X19.6086 Y1.5079
G01 X19.6377 Y1.5357
G01 X23.1520 Y5.0499
G01 X23.1698 Y5.0517
G01 X23.2668 Y5.0661
G01 X23.3458 Y5.0818
G01 X23.4410 Y5.1056
G01 X23.5180 Y5.1290
G01 X23.6104 Y5.1621
G01 X23.6847 Y5.1928
G01 X23.7734 Y5.2348
G01 X23.8444 Y5.2727
G01 X23.9286 Y5.3232
G01 X23.9955 Y5.3679
G01 X24.0743 Y5.4264
G01 X24.1365 Y5.4774
G01 X24.2092 Y5.5433
G01 X24.2661 Y5.6002
G01 X24.3320 Y5.6729
G01 X24.3831 Y5.7351
G01 X24.4415 Y5.8140
G01 X24.4862 Y5.8809
G01 X24.5367 Y5.9650
G01 X24.5746 Y6.0360
G01 X24.6166 Y6.1247
G01 X24.6474 Y6.1991
G01 X24.6804 Y6.2915
G01 X24.7038 Y6.3685
G01 X24.7276 Y6.4637
G01 X24.7433 Y6.5426
G01 X24.7577 Y6.6397
G01 X24.7656 Y6.7197
G01 X24.7704 Y6.8178
G01 X24.7704 Y6.8982
G01 X24.7656 Y6.9963
G01 X24.7577 Y7.0763
G01 X24.7433 Y7.1734
G01 X24.7276 Y7.2523
G01 X24.7038 Y7.3475
G01 X24.6804 Y7.4245
G01 X24.6474 Y7.5169
G01 X24.6166 Y7.5913
G01 X24.5746 Y7.6800
G01 X24.5367 Y7.7510
G01 X24.4862 Y7.8351
G01 X24.4415 Y7.9020
G01 X24.3831 Y7.9809
G01 X24.3320 Y8.0431
G01 X24.2661 Y8.1158
G01 X24.2447 Y8.1372
G01 X24.2447 Y25.6603
G01 X24.2561 Y25.6741
G01 X24.3145 Y25.7530
G01 X24.3592 Y25.8199
G01 X24.4097 Y25.9040
G01 X24.4476 Y25.9750
G01 X24.4896 Y26.0637
G01 X24.5204 Y26.1381
G01 X24.5534 Y26.2305
G01 X24.5768 Y26.3075
G01 X24.6006 Y26.4027
G01 X24.6163 Y26.4816
G01 X24.6307 Y26.5787
G01 X24.6386 Y26.6587
G01 X24.6434 Y26.7568
G01 X24.6434 Y26.8372
G01 X24.6386 Y26.9353
G01 X24.6307 Y27.0153
G01 X24.6163 Y27.1124
G01 X24.6006 Y27.1913
G01 X24.5768 Y27.2865
G01 X24.5534 Y27.3635
G01 X24.5204 Y27.4559
G01 X24.4896 Y27.5303
G01 X24.4476 Y27.6190
G01 X24.4097 Y27.6900
G01 X24.3592 Y27.7741
G01 X24.3145 Y27.8410
G01 X24.2561 Y27.9199
G01 X24.2050 Y27.9821
G01 X24.1391 Y28.0548
G01 X24.0822 Y28.1117
G01 X24.0095 Y28.1776
G01 X23.9473 Y28.2286
G01 X23.8685 Y28.2871
G01 X23.8016 Y28.3318
G01 X23.7174 Y28.3823
G01 X23.6464 Y28.4202
G01 X23.5577 Y28.4622
G01 X23.4834 Y28.4929
G01 X23.3910 Y28.5260
G01 X23.3140 Y28.5494
G01 X23.2188 Y28.5732
G01 X23.1398 Y28.5889
G01 X23.0428 Y28.6033
G01 X22.9627 Y28.6112
G01 X22.8647 Y28.6160
G01 X22.7842 Y28.6160
G01 X22.6862 Y28.6112
G01 X22.6061 Y28.6033
G01 X22.5090 Y28.5889
G01 X22.4301 Y28.5732
G01 X22.3349 Y28.5494
G01 X22.2579 Y28.5260
G01 X22.1655 Y28.4929
G01 X22.0912 Y28.4622
G01 X22.0024 Y28.4202
G01 X21.9315 Y28.3823
G01 X21.8473 Y28.3318
G01 X21.7804 Y28.2871
G01 X21.7016 Y28.2286
G01 X21.6394 Y28.1776
G01 X21.5666 Y28.1117
G01 X21.5097 Y28.0548
G01 X21.4438 Y27.9821
G01 X21.3928 Y27.9199
G01 X21.3343 Y27.8410
G01 X21.2896 Y27.7741
G01 X21.2392 Y27.6900
G01 X21.2012 Y27.6190
G01 X21.1593 Y27.5303
G01 X21.1285 Y27.4559
G01 X21.0954 Y27.3635
G01 X21.0721 Y27.2865
G01 X21.0482 Y27.1913
G01 X21.0325 Y27.1124
G01 X21.0181 Y27.0153
G01 X21.0102 Y26.9353
G01 X21.0054 Y26.8372
G01 X21.0054 Y26.7568
G01 X21.0102 Y26.6587
G01 X21.0181 Y26.5787
G01 X21.0325 Y26.4816
G01 X21.0482 Y26.4027
G01 X21.0721 Y26.3075
G01 X21.0954 Y26.2305
G01 X21.1285 Y26.1381
G01 X21.1593 Y26.0637
G01 X21.2012 Y25.9750
G01 X21.2392 Y25.9040
G01 X21.2896 Y25.8199
G01 X21.3343 Y25.7530
G01 X21.3928 Y25.6741
G01 X21.4041 Y25.6603
G01 X21.4041 Y7.8143
G01 X21.3662 Y7.7510
G01 X21.3282 Y7.6800
G01 X21.2863 Y7.5913
G01 X21.2555 Y7.5169
G01 X21.2224 Y7.4245
G01 X21.1991 Y7.3475
G01 X21.1752 Y7.2523
G01 X21.1595 Y7.1734
G01 X21.1451 Y7.0763
G01 X21.1434 Y7.0585
G01 X18.0451 Y3.9603
G01 X4.9063 Y3.9603
G01 X4.4683 Y4.3983
G01 X4.4683 Y8.6827
G01 X5.7953 Y10.0097
G00 Z2.0000
G00 X5.7207 Y10.1897
G01 F60.00
G01 Z-0.0900
G01 F120.00
G01 X6.4212 Y10.1897
G01 X6.4288 Y10.1829
G01 X6.4773 Y10.1430
G01 X6.5562 Y10.0845
G01 X6.6084 Y10.0497
G01 X6.6925 Y9.9992
G01 X6.7479 Y9.9696
G01 X6.8367 Y9.9276
G01 X6.8947 Y9.9036
G01 X6.9871 Y9.8705
G01 X7.0472 Y9.8523
G01 X7.1424 Y9.8285
G01 X7.2040 Y9.8162
G01 X7.3010 Y9.8018
G01 X7.3635 Y9.7957
G01 X7.4616 Y9.7908
G01 X7.5244 Y9.7908
G01 X7.6224 Y9.7957
G01 X7.6849 Y9.8018
G01 X7.7820 Y9.8162
G01 X7.8436 Y9.8285
G01 X7.9388 Y9.8523
G01 X7.9989 Y9.8705
G01 X8.0913 Y9.9036
G01 X8.1493 Y9.9276
G01 X8.2380 Y9.9696
G01 X8.2934 Y9.9992
G01 X8.3776 Y10.0497
G01 X8.4298 Y10.0845
G01 X8.5086 Y10.1430
G01 X8.5572 Y10.1829
G01 X8.6299 Y10.2488
G01 X8.6743 Y10.2932
G01 X8.7402 Y10.3659
G01 X8.7800 Y10.4144
G01 X8.8385 Y10.4933
G01 X8.8734 Y10.5455
G01 X8.9238 Y10.6296
G01 X8.9534 Y10.6850
G01 X8.9954 Y10.7738
G01 X9.0194 Y10.8318
G01 X9.0525 Y10.9242
G01 X9.0707 Y10.9843
G01 X9.0946 Y11.0795
G01 X9.1068 Y11.1411
G01 X9.1212 Y11.2381
G01 X9.1274 Y11.3006
G01 X9.1322 Y11.3987
G01 X9.1322 Y11.4615
G01 X9.1274 Y11.5595
G01 X9.1212 Y11.6220
G01 X9.1068 Y11.7191
G01 X9.0946 Y11.7807
G01 X9.0707 Y11.8759
G01 X9.0525 Y11.9360
G01 X9.0194 Y12.0284
G01 X8.9954 Y12.0864
G01 X8.9534 Y12.1751
G01 X8.9238 Y12.2305
G01 X8.8734 Y12.3147
G01 X8.8385 Y12.3669
G01 X8.7800 Y12.4457
G01 X8.7402 Y12.4943
G01 X8.6743 Y12.5670
G01 X8.6299 Y12.6114
G01 X8.5572 Y12.6773
G01 X8.5086 Y12.7171
G01 X8.4298 Y12.7756
G01 X8.3776 Y12.8105
G01 X8.2934 Y12.8609
G01 X8.2380 Y12.8905
G01 X8.1493 Y12.9325
G01 X8.0913 Y12.9565
G01 X7.9989 Y12.9896
G01 X7.9388 Y13.0078
G01 X7.8436 Y13.0317
G01 X7.7820 Y13.0439
G01 X7.6849 Y13.0583
G01 X7.6224 Y13.0645
G01 X7.5244 Y13.0693
G01 X7.4616 Y13.0693
G01 X7.3635 Y13.0645
G01 X7.3010 Y13.0583
G01 X7.2040 Y13.0439
G01 X7.1424 Y13.0317
G01 X7.0472 Y13.0078
G01 X6.9871 Y12.9896
G01 X6.8947 Y12.9565
G01 X6.8367 Y12.9325
G01 X6.7479 Y12.8905
G01 X6.6925 Y12.8609
G01 X6.6084 Y12.8105
G01 X6.5562 Y12.7756
G01 X6.4773 Y12.7171
G01 X6.4288 Y12.6773
G01 X6.4211 Y12.6703
G01 X5.2070 Y12.6703
G01 X5.1756 Y12.6695
G01 X5.1168 Y12.6666
G01 X5.0543 Y12.6605
G01 X4.9960 Y12.6518
G01 X4.9344 Y12.6396
G01 X4.8772 Y12.6253
G01 X4.8171 Y12.6070
G01 X4.7617 Y12.5872
G01 X4.7036 Y12.5632
G01 X4.6504 Y12.5380
G01 X4.5950 Y12.5084
G01 X4.5445 Y12.4781
G01 X4.4922 Y12.4432
G01 X4.4449 Y12.4081
G01 X4.3964 Y12.3682
G01 X4.3527 Y12.3287
G01 X4.3300 Y12.3070
G01 X2.1710 Y10.1480
G01 X2.1493 Y10.1253
G01 X2.1098 Y10.0816
G01 X2.0699 Y10.0331
G01 X2.0348 Y9.9858
G01 X1.9999 Y9.9335
G01 X1.9696 Y9.8830
G01 X1.9400 Y9.8276
G01 X1.9148 Y9.7744
G01 X1.8908 Y9.7163
G01 X1.8710 Y9.6609
G01 X1.8527 Y9.6008
G01 X1.8384 Y9.5436
G01 X1.8262 Y9.4820
G01 X1.8175 Y9.4237
G01 X1.8114 Y9.3612
G01 X1.8085 Y9.3024
G01 X1.8077 Y9.2710
G01 X1.8077 Y3.8100
G01 X1.8085 Y3.7786
G01 X1.8114 Y3.7198
G01 X1.8175 Y3.6573
G01 X1.8262 Y3.5990
G01 X1.8384 Y3.5374
G01 X1.8527 Y3.4802
G01 X1.8710 Y3.4201
G01 X1.8908 Y3.3647
G01 X1.9148 Y3.3066
G01 X1.9400 Y3.2534
G01 X1.9696 Y3.1980
G01 X1.9999 Y3.1475
G01 X2.0348 Y3.0952
G01 X2.0699 Y3.0479
G01 X2.1098 Y2.9994
G01 X2.1493 Y2.9557
G01 X2.1710 Y2.9330
G01 X3.4410 Y1.6630
G01 X3.4637 Y1.6413
G01 X3.5074 Y1.6018
G01 X3.5559 Y1.5619
G01 X3.6032 Y1.5268
G01 X3.6555 Y1.4919
G01 X3.7060 Y1.4616
G01 X3.7614 Y1.4320
G01 X3.8146 Y1.4068
G01 X3.8727 Y1.3828
G01 X3.9281 Y1.3630
G01 X3.9882 Y1.3447
G01 X4.0454 Y1.3304
G01 X4.1070 Y1.3182
G01 X4.1653 Y1.3095
G01 X4.2278 Y1.3034
G01 X4.2866 Y1.3005
G01 X4.3180 Y1.2997
G01 X18.6334 Y1.2997
G01 X18.6648 Y1.3005
G01 X18.7237 Y1.3034
G01 X18.7862 Y1.3095
G01 X18.8445 Y1.3182
G01 X18.9061 Y1.3304
G01 X18.9632 Y1.3447
G01 X19.0233 Y1.3630
G01 X19.0788 Y1.3828
G01 X19.1368 Y1.4068
G01 X19.1901 Y1.4320
G01 X19.2454 Y1.4616
G01 X19.2960 Y1.4919
G01 X19.3482 Y1.5268
G01 X19.3955 Y1.5619
G01 X19.4441 Y1.6018
G01 X19.4877 Y1.6413
G01 X19.5105 Y1.6630
G01 X23.0706 Y5.2231
G01 X23.0809 Y5.2236
G01 X23.1434 Y5.2297
G01 X23.2404 Y5.2441
G01 X23.3020 Y5.2564
G01 X23.3972 Y5.2802
G01 X23.4573 Y5.2985
G01 X23.5497 Y5.3315
G01 X23.6077 Y5.3556
G01 X23.6965 Y5.3975
G01 X23.7519 Y5.4271
G01 X23.8360 Y5.4776
G01 X23.8882 Y5.5125
G01 X23.9671 Y5.5709
G01 X24.0156 Y5.6108
G01 X24.0883 Y5.6767
G01 X24.1327 Y5.7211
G01 X24.1986 Y5.7938
G01 X24.2385 Y5.8424
G01 X24.2970 Y5.9212
G01 X24.3318 Y5.9734
G01 X24.3823 Y6.0576
G01 X24.4119 Y6.1130
G01 X24.4539 Y6.2017
G01 X24.4779 Y6.2597
G01 X24.5110 Y6.3521
G01 X24.5292 Y6.4122
G01 X24.5530 Y6.5074
G01 X24.5653 Y6.5690
G01 X24.5797 Y6.6661
G01 X24.5858 Y6.7286
G01 X24.5907 Y6.8266
G01 X24.5907 Y6.8894
G01 X24.5858 Y6.9874
G01 X24.5797 Y7.0499
G01 X24.5653 Y7.1470
G01 X24.5530 Y7.2086
G01 X24.5292 Y7.3038
G01 X24.5110 Y7.3639
G01 X24.4779 Y7.4563
G01 X24.4539 Y7.5143
G01 X24.4119 Y7.6030
G01 X24.3823 Y7.6584
G01 X24.3318 Y7.7426
G01 X24.2970 Y7.7948
G01 X24.2385 Y7.8736
G01 X24.1986 Y7.9222
G01 X24.1327 Y7.9949
G01 X24.0883 Y8.0393
G01 X24.0647 Y8.0607
G01 X24.0647 Y25.7252
G01 X24.0716 Y25.7328
G01 X24.1115 Y25.7814
G01 X24.1700 Y25.8602
G01 X24.2048 Y25.9124
G01 X24.2553 Y25.9966
G01 X24.2849 Y26.0520
G01 X24.3269 Y26.1407
G01 X24.3509 Y26.1987
G01 X24.3840 Y26.2911
G01 X24.4022 Y26.3512
G01 X24.4260 Y26.4464
G01 X24.4383 Y26.5080
G01 X24.4527 Y26.6051
G01 X24.4588 Y26.6676
G01 X24.4637 Y26.7656
G01 X24.4637 Y26.8284
G01 X24.4588 Y26.9264
G01 X24.4527 Y26.9889
G01 X24.4383 Y27.0860
G01 X24.4260 Y27.1476
G01 X24.4022 Y27.2428
G01 X24.3840 Y27.3029
G01 X24.3509 Y27.3953
G01 X24.3269 Y27.4533
G01 X24.2849 Y27.5420
G01 X24.2553 Y27.5974
G01 X24.2048 Y27.6816
G01 X24.1700 Y27.7338
G01 X24.1115 Y27.8126
G01 X24.0716 Y27.8612
G01 X24.0057 Y27.9339
G01 X23.9613 Y27.9783
G01 X23.8886 Y28.0442
G01 X23.8401 Y28.0841
G01 X23.7612 Y28.1425
G01 X23.7090 Y28.1774
G01 X23.6249 Y28.2279
G01 X23.5695 Y28.2575
G01 X23.4807 Y28.2994
G01 X23.4227 Y28.3235
G01 X23.3303 Y28.3565
G01 X23.2702 Y28.3748
G01 X23.1750 Y28.3986
G01 X23.1134 Y28.4109
G01 X23.0164 Y28.4253
G01 X22.9539 Y28.4314
G01 X22.8558 Y28.4362
G01 X22.7930 Y28.4362
G01 X22.6950 Y28.4314
G01 X22.6325 Y28.4253
G01 X22.5354 Y28.4109
G01 X22.4738 Y28.3986
G01 X22.3786 Y28.3748
G01 X22.3185 Y28.3565
G01 X22.2261 Y28.3235
G01 X22.1681 Y28.2994
G01 X22.0794 Y28.2575
G01 X22.0240 Y28.2279
G01 X21.9398 Y28.1774
G01 X21.8876 Y28.1425
G01 X21.8088 Y28.0841
G01 X21.7602 Y28.0442
G01 X21.6875 Y27.9783
G01 X21.6431 Y27.9339
G01 X21.5772 Y27.8612
G01 X21.5374 Y27.8126
G01 X21.4789 Y27.7338
G01 X21.4440 Y27.6816
G01 X21.3936 Y27.5974
G01 X21.3640 Y27.5420
G01 X21.3220 Y27.4533
G01 X21.2980 Y27.3953
G01 X21.2649 Y27.3029
G01 X21.2467 Y27.2428
G01 X21.2228 Y27.1476
G01 X21.2106 Y27.0860
G01 X21.1962 Y26.9889
G01 X21.1900 Y26.9264
G01 X21.1852 Y26.8284
G01 X21.1852 Y26.7656
G01 X21.1900 Y26.6676
G01 X21.1962 Y26.6051
G01 X21.2106 Y26.5080
G01 X21.2228 Y26.4464
G01 X21.2467 Y26.3512
G01 X21.2649 Y26.2911
G01 X21.2980 Y26.1987
G01 X21.3220 Y26.1407
G01 X21.3640 Y26.0520
G01 X21.3936 Y25.9966
G01 X21.4440 Y25.9124
G01 X21.4789 Y25.8602
G01 X21.5374 Y25.7814
G01 X21.5772 Y25.7328
G01 X21.5841 Y25.7252
G01 X21.5841 Y7.7622
G01 X21.5710 Y7.7426
G01 X21.5206 Y7.6584
G01 X21.4910 Y7.6030
G01 X21.4490 Y7.5143
G01 X21.4250 Y7.4563
G01 X21.3919 Y7.3639
G01 X21.3737 Y7.3038
G01 X21.3498 Y7.2086
G01 X21.3376 Y7.1470
G01 X21.3232 Y7.0499
G01 X21.3170 Y6.9874
G01 X21.3165 Y6.9771
G01 X18.1197 Y3.7803
G01 X4.8317 Y3.7803
G01 X4.2883 Y4.3237
G01 X4.2883 Y8.7573
G01 X5.7207 Y10.1897
G00 Z2.0000
G00 X5.6462 Y10.3697
G01 F60.00
G01 Z-0.0900
G01 F120.00
G01 X6.4907 Y10.3697
G01 X6.5497 Y10.3162
G01 X6.5846 Y10.2876
G01 X6.6634 Y10.2291
G01 X6.7009 Y10.2040
G01 X6.7851 Y10.1536
G01 X6.8249 Y10.1323
G01 X6.9136 Y10.0904
G01 X6.9553 Y10.0731
G01 X7.0477 Y10.0400
G01 X7.0909 Y10.0269
G01 X7.1861 Y10.0031
G01 X7.2304 Y9.9943
G01 X7.3275 Y9.9799
G01 X7.3724 Y9.9754
G01 X7.4704 Y9.9706
G01 X7.5155 Y9.9706
G01 X7.6136 Y9.9754
G01 X7.6585 Y9.9799
G01 X7.7556 Y9.9943
G01 X7.7998 Y10.0031
G01 X7.8950 Y10.0269
G01 X7.9382 Y10.0400
G01 X8.0306 Y10.0731
G01 X8.0723 Y10.0904
G01 X8.1610 Y10.1323
G01 X8.2009 Y10.1536
G01 X8.2850 Y10.2040
G01 X8.3226 Y10.2291
G01 X8.4014 Y10.2876
G01 X8.4363 Y10.3162
G01 X8.5090 Y10.3821
G01 X8.5409 Y10.4140
G01 X8.6068 Y10.4868
G01 X8.6355 Y10.5217
G01 X8.6939 Y10.6005
G01 X8.7190 Y10.6380
G01 X8.7694 Y10.7222
G01 X8.7907 Y10.7620
G01 X8.8327 Y10.8507
G01 X8.8500 Y10.8924
G01 X8.8830 Y10.9848
G01 X8.8961 Y11.0280
G01 X8.9200 Y11.1232
G01 X8.9288 Y11.1675
G01 X8.9432 Y11.2646
G01 X8.9476 Y11.3095
G01 X8.9524 Y11.4075
G01 X8.9524 Y11.4526
G01 X8.9476 Y11.5507
G01 X8.9432 Y11.5956
G01 X8.9288 Y11.6927
G01 X8.9200 Y11.7369
G01 X8.8961 Y11.8321
G01 X8.8830 Y11.8753
G01 X8.8500 Y11.9677
G01 X8.8327 Y12.0094
G01 X8.7907 Y12.0981
G01 X8.7694 Y12.1380
G01 X8.7190 Y12.2221
G01 X8.6939 Y12.2597
G01 X8.6355 Y12.3385
G01 X8.6068 Y12.3734
G01 X8.5409 Y12.4461
G01 X8.5090 Y12.4780
G01 X8.4363 Y12.5439
G01 X8.4014 Y12.5726
G01 X8.3226 Y12.6310
G01 X8.2850 Y12.6561
G01 X8.2009 Y12.7065
G01 X8.1610 Y12.7278
G01 X8.0723 Y12.7698
G01 X8.0306 Y12.7871
G01 X7.9382 Y12.8201
G01 X7.8950 Y12.8332
G01 X7.7998 Y12.8571
G01 X7.7556 Y12.8659
G01 X7.6585 Y12.8803
G01 X7.6136 Y12.8847
G01 X7.5155 Y12.8895
G01 X7.4704 Y12.8895
G01 X7.3724 Y12.8847
G01 X7.3275 Y12.8803
G01 X7.2304 Y12.8659
G01 X7.1861 Y12.8571
G01 X7.0909 Y12.8332
G01 X7.0477 Y12.8201
G01 X6.9553 Y12.7871
G01 X6.9136 Y12.7698
G01 X6.8249 Y12.7278
G01 X6.7851 Y12.7065
G01 X6.7009 Y12.6561
G01 X6.6634 Y12.6310
G01 X6.5846 Y12.5726
G01 X6.5497 Y12.5439
G01 X6.4905 Y12.4903
G01 X5.2070 Y12.4903
G01 X5.1844 Y12.4897
G01 X5.1256 Y12.4869
G01 X5.0807 Y12.4824
G01 X5.0224 Y12.4738
G01 X4.9781 Y12.4650
G01 X4.9210 Y12.4507
G01 X4.8778 Y12.4376
G01 X4.8223 Y12.4177
G01 X4.7806 Y12.4004
G01 X4.7273 Y12.3753
G01 X4.6875 Y12.3540
G01 X4.6370 Y12.3237
G01 X4.5995 Y12.2986
G01 X4.5522 Y12.2635
G01 X4.5173 Y12.2349
G01 X4.4736 Y12.1953
G01 X4.4573 Y12.1797
G01 X2.2983 Y10.0207
G01 X2.2827 Y10.0044
G01 X2.2431 Y9.9607
G01 X2.2145 Y9.9258
G01 X2.1794 Y9.8785
G01 X2.1543 Y9.8410
G01 X2.1240 Y9.7905
G01 X2.1027 Y9.7507
G01 X2.0776 Y9.6974
G01 X2.0603 Y9.6557
G01 X2.0404 Y9.6002
G01 X2.0273 Y9.5570
G01 X2.0130 Y9.4999
G01 X2.0042 Y9.4556
G01 X1.9956 Y9.3973
G01 X1.9911 Y9.3524
G01 X1.9883 Y9.2936
G01 X1.9877 Y9.2710
G01 X1.9877 Y3.8100
G01 X1.9883 Y3.7874
G01 X1.9911 Y3.7286
G01 X1.9956 Y3.6837
G01 X2.0042 Y3.6254
G01 X2.0130 Y3.5811
G01 X2.0273 Y3.5240
G01 X2.0404 Y3.4808
G01 X2.0603 Y3.4253
G01 X2.0776 Y3.3836
G01 X2.1027 Y3.3303
G01 X2.1240 Y3.2905
G01 X2.1543 Y3.2400
G01 X2.1794 Y3.2025
G01 X2.2145 Y3.1552
G01 X2.2431 Y3.1203
G01 X2.2827 Y3.0766
G01 X2.2983 Y3.0603
G01 X3.5683 Y1.7903
G01 X3.5846 Y1.7747
G01 X3.6283 Y1.7351
G01 X3.6632 Y1.7065
G01 X3.7105 Y1.6714
G01 X3.7480 Y1.6463
G01 X3.7985 Y1.6160
G01 X3.8383 Y1.5947
G01 X3.8916 Y1.5696
G01 X3.9333 Y1.5523
G01 X3.9888 Y1.5324
G01 X4.0320 Y1.5193
G01 X4.0891 Y1.5050
G01 X4.1334 Y1.4962
G01 X4.1917 Y1.4876
G01 X4.2366 Y1.4831
G01 X4.2954 Y1.4803
G01 X4.3180 Y1.4797
G01 X18.6334 Y1.4797
G01 X18.6560 Y1.4803
G01 X18.7149 Y1.4831
G01 X18.7598 Y1.4876
G01 X18.8180 Y1.4962
G01 X18.8623 Y1.5050
G01 X18.9195 Y1.5193
G01 X18.9627 Y1.5324
G01 X19.0181 Y1.5523
G01 X19.0598 Y1.5696
G01 X19.1131 Y1.5947
G01 X19.1529 Y1.6160
G01 X19.2034 Y1.6463
G01 X19.2410 Y1.6714
G01 X19.2883 Y1.7065
G01 X19.3232 Y1.7351
G01 X19.3668 Y1.7747
G01 X19.3832 Y1.7903
G01 X22.9924 Y5.3995
G01 X23.0720 Y5.4034
G01 X23.1169 Y5.4078
G01 X23.2140 Y5.4222
G01 X23.2583 Y5.4310
G01 X23.3535 Y5.4548
G01 X23.3967 Y5.4679
G01 X23.4891 Y5.5010
G01 X23.5308 Y5.5183
G01 X23.6195 Y5.5602
G01 X23.6593 Y5.5815
G01 X23.7435 Y5.6320
G01 X23.7810 Y5.6571
G01 X23.8598 Y5.7155
G01 X23.8947 Y5.7442
G01 X23.9675 Y5.8101
G01 X23.9994 Y5.8420
G01 X24.0653 Y5.9147
G01 X24.0939 Y5.9496
G01 X24.1524 Y6.0284
G01 X24.1775 Y6.0659
G01 X24.2279 Y6.1501
G01 X24.2492 Y6.1899
G01 X24.2911 Y6.2786
G01 X24.3084 Y6.3203
G01 X24.3415 Y6.4127
G01 X24.3546 Y6.4559
G01 X24.3784 Y6.5511
G01 X24.3872 Y6.5954
G01 X24.4016 Y6.6925
G01 X24.4061 Y6.7374
G01 X24.4109 Y6.8354
G01 X24.4109 Y6.8806
G01 X24.4061 Y6.9786
G01 X24.4016 Y7.0235
G01 X24.3872 Y7.1206
G01 X24.3784 Y7.1649
G01 X24.3546 Y7.2601
G01 X24.3415 Y7.3033
G01 X24.3084 Y7.3957
G01 X24.2911 Y7.4374
G01 X24.2492 Y7.5261
G01 X24.2279 Y7.5659
G01 X24.1775 Y7.6501
G01 X24.1524 Y7.6876
G01 X24.0939 Y7.7664
G01 X24.0653 Y7.8013
G01 X23.9994 Y7.8740
G01 X23.9675 Y7.9059
G01 X23.8947 Y7.9718
G01 X23.8847 Y7.9801
G01 X23.8847 Y25.7946
G01 X23.9383 Y25.8537
G01 X23.9669 Y25.8886
G01 X24.0254 Y25.9674
G01 X24.0505 Y26.0049
G01 X24.1009 Y26.0891
G01 X24.1222 Y26.1289
G01 X24.1641 Y26.2176
G01 X24.1814 Y26.2593
G01 X24.2145 Y26.3517
G01 X24.2276 Y26.3949
G01 X24.2514 Y26.4901
G01 X24.2602 Y26.5344
G01 X24.2746 Y26.6315
G01 X24.2791 Y26.6764
G01 X24.2839 Y26.7744
G01 X24.2839 Y26.8196
G01 X24.2791 Y26.9176
G01 X24.2746 Y26.9625
G01 X24.2602 Y27.0596
G01 X24.2514 Y27.1039
G01 X24.2276 Y27.1991
G01 X24.2145 Y27.2423
G01 X24.1814 Y27.3347
G01 X24.1641 Y27.3764
G01 X24.1222 Y27.4651
G01 X24.1009 Y27.5049
G01 X24.0505 Y27.5891
G01 X24.0254 Y27.6266
G01 X23.9669 Y27.7054
G01 X23.9383 Y27.7403
G01 X23.8724 Y27.8130
G01 X23.8405 Y27.8449
G01 X23.7677 Y27.9108
G01 X23.7328 Y27.9395
G01 X23.6540 Y27.9979
G01 X23.6165 Y28.0230
G01 X23.5323 Y28.0735
G01 X23.4925 Y28.0948
G01 X23.4038 Y28.1367
G01 X23.3621 Y28.1540
G01 X23.2697 Y28.1871
G01 X23.2265 Y28.2002
G01 X23.1313 Y28.2240
G01 X23.0870 Y28.2328
G01 X22.9899 Y28.2472
G01 X22.9450 Y28.2516
G01 X22.8470 Y28.2564
G01 X22.8019 Y28.2564
G01 X22.7038 Y28.2516
G01 X22.6589 Y28.2472
G01 X22.5618 Y28.2328
G01 X22.5176 Y28.2240
G01 X22.4224 Y28.2002
G01 X22.3792 Y28.1871
G01 X22.2868 Y28.1540
G01 X22.2451 Y28.1367
G01 X22.1564 Y28.0948
G01 X22.1165 Y28.0735
G01 X22.0324 Y28.0230
G01 X21.9948 Y27.9979
G01 X21.9160 Y27.9395
G01 X21.8811 Y27.9108
G01 X21.8084 Y27.8449
G01 X21.7765 Y27.8130
G01 X21.7106 Y27.7403
G01 X21.6819 Y27.7054
G01 X21.6235 Y27.6266
G01 X21.5984 Y27.5891
G01 X21.5480 Y27.5049
G01 X21.5267 Y27.4651
G01 X21.4847 Y27.3764
G01 X21.4674 Y27.3347
G01 X21.4344 Y27.2423
G01 X21.4213 Y27.1991
G01 X21.3974 Y27.1039
G01 X21.3886 Y27.0596
G01 X21.3742 Y26.9625
G01 X21.3698 Y26.9176
G01 X21.3650 Y26.8196
G01 X21.3650 Y26.7744
G01 X21.3698 Y26.6764
G01 X21.3742 Y26.6315
G01 X21.3886 Y26.5344
G01 X21.3974 Y26.4901
G01 X21.4213 Y26.3949
G01 X21.4344 Y26.3517
G01 X21.4674 Y26.2593
G01 X21.4847 Y26.2176
G01 X21.5267 Y26.1289
G01 X21.5480 Y26.0891
G01 X21.5984 Y26.0049
G01 X21.6235 Y25.9674
G01 X21.6819 Y25.8886
G01 X21.7106 Y25.8537
G01 X21.7641 Y25.7946
G01 X21.7641 Y7.7060
G01 X21.7505 Y7.6876
G01 X21.7254 Y7.6501
G01 X21.6750 Y7.5659
G01 X21.6537 Y7.5261
G01 X21.6117 Y7.4374
G01 X21.5944 Y7.3957
G01 X21.5614 Y7.3033
G01 X21.5483 Y7.2601
G01 X21.5244 Y7.1649
G01 X21.5156 Y7.1206
G01 X21.5012 Y7.0235
G01 X21.4968 Y6.9786
G01 X21.4929 Y6.8989
G01 X18.1942 Y3.6003
G01 X4.7572 Y3.6003
G01 X4.1083 Y4.2492
G01 X4.1083 Y8.8318
G01 X5.6462 Y10.3697
G00 Z2.0000
G00 X5.5716 Y10.5497
G01 F60.00
G01 Z-0.0900
G01 F120.00
G01 X6.5650 Y10.5497
G01 X6.5784 Y10.5349
G01 X6.5978 Y10.5155
G01 X6.6705 Y10.4496
G01 X6.6918 Y10.4322
G01 X6.7706 Y10.3737
G01 X6.7935 Y10.3584
G01 X6.8776 Y10.3080
G01 X6.9019 Y10.2950
G01 X6.9906 Y10.2531
G01 X7.0160 Y10.2426
G01 X7.1084 Y10.2095
G01 X7.1347 Y10.2015
G01 X7.2298 Y10.1777
G01 X7.2568 Y10.1723
G01 X7.3539 Y10.1579
G01 X7.3812 Y10.1552
G01 X7.4792 Y10.1504
G01 X7.5067 Y10.1504
G01 X7.6047 Y10.1552
G01 X7.6321 Y10.1579
G01 X7.7291 Y10.1723
G01 X7.7561 Y10.1777
G01 X7.8513 Y10.2015
G01 X7.8776 Y10.2095
G01 X7.9700 Y10.2426
G01 X7.9954 Y10.2531
G01 X8.0841 Y10.2950
G01 X8.1083 Y10.3080
G01 X8.1925 Y10.3584
G01 X8.2153 Y10.3737
G01 X8.2942 Y10.4322
G01 X8.3154 Y10.4496
G01 X8.3881 Y10.5155
G01 X8.4075 Y10.5349
G01 X8.4734 Y10.6076
G01 X8.4909 Y10.6289
G01 X8.5493 Y10.7077
G01 X8.5646 Y10.7306
G01 X8.6151 Y10.8147
G01 X8.6280 Y10.8390
G01 X8.6700 Y10.9277
G01 X8.6805 Y10.9531
G01 X8.7135 Y11.0455
G01 X8.7215 Y11.0718
G01 X8.7454 Y11.1669
G01 X8.7507 Y11.1939
G01 X8.7651 Y11.2910
G01 X8.7678 Y11.3183
G01 X8.7726 Y11.4163
G01 X8.7726 Y11.4438
G01 X8.7678 Y11.5418
G01 X8.7651 Y11.5692
G01 X8.7507 Y11.6662
G01 X8.7454 Y11.6932
G01 X8.7215 Y11.7884
G01 X8.7135 Y11.8147
G01 X8.6805 Y11.9071
G01 X8.6700 Y11.9325
G01 X8.6280 Y12.0212
G01 X8.6151 Y12.0454
G01 X8.5646 Y12.1296
G01 X8.5493 Y12.1524
G01 X8.4909 Y12.2313
G01 X8.4734 Y12.2525
G01 X8.4075 Y12.3252
G01 X8.3881 Y12.3446
G01 X8.3154 Y12.4105
G01 X8.2942 Y12.4280
G01 X8.2153 Y12.4864
G01 X8.1925 Y12.5017
G01 X8.1083 Y12.5522
G01 X8.0841 Y12.5651
G01 X7.9954 Y12.6071
G01 X7.9700 Y12.6176
G01 X7.8776 Y12.6506
G01 X7.8513 Y12.6586
G01 X7.7561 Y12.6825
G01 X7.7291 Y12.6878
G01 X7.6321 Y12.7022
G01 X7.6047 Y12.7049
G01 X7.5067 Y12.7097
G01 X7.4792 Y12.7097
G01 X7.3812 Y12.7049
G01 X7.3539 Y12.7022
G01 X7.2568 Y12.6878
G01 X7.2298 Y12.6825
G01 X7.1347 Y12.6586
G01 X7.1084 Y12.6506
G01 X7.0160 Y12.6176
G01 X6.9906 Y12.6071
G01 X6.9019 Y12.5651
G01 X6.8776 Y12.5522
G01 X6.7935 Y12.5017
G01 X6.7706 Y12.4864
G01 X6.6918 Y12.4280
G01 X6.6705 Y12.4105
G01 X6.5978 Y12.3446
G01 X6.5784 Y12.3252
G01 X6.5649 Y12.3103
G01 X5.2070 Y12.3103
G01 X5.1933 Y12.3100
G01 X5.1344 Y12.3071
G01 X5.1071 Y12.3044
G01 X5.0488 Y12.2957
G01 X5.0219 Y12.2904
G01 X4.9647 Y12.2761
G01 X4.9384 Y12.2681
G01 X4.8829 Y12.2482
G01 X4.8576 Y12.2377
G01 X4.8043 Y12.2125
G01 X4.7801 Y12.1996
G01 X4.7295 Y12.1693
G01 X4.7067 Y12.1540
G01 X4.6594 Y12.1189
G01 X4.6381 Y12.1015
G01 X4.5945 Y12.0619
G01 X4.5845 Y12.0525
G01 X2.4255 Y9.8935
G01 X2.4161 Y9.8835
G01 X2.3765 Y9.8399
G01 X2.3591 Y9.8186
G01 X2.3240 Y9.7713
G01 X2.3087 Y9.7485
G01 X2.2784 Y9.6979
G01 X2.2655 Y9.6737
G01 X2.2403 Y9.6204
G01 X2.2298 Y9.5951
G01 X2.2099 Y9.5396
G01 X2.2019 Y9.5133
G01 X2.1876 Y9.4561
G01 X2.1823 Y9.4292
G01 X2.1736 Y9.3709
G01 X2.1709 Y9.3436
G01 X2.1680 Y9.2847
G01 X2.1677 Y9.2710
G01 X2.1677 Y3.8100
G01 X2.1680 Y3.7963
G01 X2.1709 Y3.7374
G01 X2.1736 Y3.7101
G01 X2.1823 Y3.6518
G01 X2.1876 Y3.6249
G01 X2.2019 Y3.5677
G01 X2.2099 Y3.5414
G01 X2.2298 Y3.4859
G01 X2.2403 Y3.4606
G01 X2.2655 Y3.4073
G01 X2.2784 Y3.3831
G01 X2.3087 Y3.3325
G01 X2.3240 Y3.3097
G01 X2.3591 Y3.2624
G01 X2.3765 Y3.2411
G01 X2.4161 Y3.1975
G01 X2.4255 Y3.1875
G01 X3.6955 Y1.9175
G01 X3.7055 Y1.9081
G01 X3.7491 Y1.8685
G01 X3.7704 Y1.8511
G01 X3.8177 Y1.8160
G01 X3.8405 Y1.8007
G01 X3.8911 Y1.7704
G01 X3.9153 Y1.7575
G01 X3.9686 Y1.7323
G01 X3.9939 Y1.7218
G01 X4.0494 Y1.7019
G01 X4.0757 Y1.6939
G01 X4.1329 Y1.6796
G01 X4.1598 Y1.6743
G01 X4.2181 Y1.6656
G01 X4.2454 Y1.6629
G01 X4.3043 Y1.6600
G01 X4.3180 Y1.6597
G01 X18.6334 Y1.6597
G01 X18.6472 Y1.6600
G01 X18.7060 Y1.6629
G01 X18.7334 Y1.6656
G01 X18.7916 Y1.6743
G01 X18.8186 Y1.6796
G01 X18.8757 Y1.6939
G01 X18.9020 Y1.7019
G01 X18.9575 Y1.7218
G01 X18.9829 Y1.7323
G01 X19.0361 Y1.7575
G01 X19.0604 Y1.7704
G01 X19.1109 Y1.8007
G01 X19.1337 Y1.8160
G01 X19.1811 Y1.8511
G01 X19.2023 Y1.8685
G01 X19.2460 Y1.9081
G01 X19.2559 Y1.9175
G01 X22.9177 Y5.5793
G01 X22.9377 Y5.5783
G01 X22.9652 Y5.5783
G01 X23.0632 Y5.5832
G01 X23.0905 Y5.5858
G01 X23.1876 Y5.6002
G01 X23.2146 Y5.6056
G01 X23.3097 Y5.6295
G01 X23.3360 Y5.6374
G01 X23.4284 Y5.6705
G01 X23.4538 Y5.6810
G01 X23.5425 Y5.7230
G01 X23.5668 Y5.7359
G01 X23.6509 Y5.7864
G01 X23.6738 Y5.8016
G01 X23.7526 Y5.8601
G01 X23.7739 Y5.8775
G01 X23.8466 Y5.9434
G01 X23.8660 Y5.9629
G01 X23.9319 Y6.0356
G01 X23.9493 Y6.0568
G01 X24.0078 Y6.1356
G01 X24.0231 Y6.1585
G01 X24.0735 Y6.2427
G01 X24.0865 Y6.2669
G01 X24.1284 Y6.3556
G01 X24.1389 Y6.3810
G01 X24.1720 Y6.4734
G01 X24.1800 Y6.4997
G01 X24.2038 Y6.5949
G01 X24.2092 Y6.6218
G01 X24.2236 Y6.7189
G01 X24.2263 Y6.7462
G01 X24.2311 Y6.8443
G01 X24.2311 Y6.8717
G01 X24.2263 Y6.9698
G01 X24.2236 Y6.9971
G01 X24.2092 Y7.0942
G01 X24.2038 Y7.1211
G01 X24.1800 Y7.2163
G01 X24.1720 Y7.2426
G01 X24.1389 Y7.3350
G01 X24.1284 Y7.3604
G01 X24.0865 Y7.4491
G01 X24.0735 Y7.4733
G01 X24.0231 Y7.5575
G01 X24.0078 Y7.5804
G01 X23.9493 Y7.6592
G01 X23.9319 Y7.6804
G01 X23.8660 Y7.7531
G01 X23.8466 Y7.7726
G01 X23.7739 Y7.8385
G01 X23.7526 Y7.8559
G01 X23.7047 Y7.8914
G01 X23.7047 Y25.8690
G01 X23.7196 Y25.8824
G01 X23.7390 Y25.9019
G01 X23.8049 Y25.9746
G01 X23.8223 Y25.9958
G01 X23.8808 Y26.0746
G01 X23.8961 Y26.0975
G01 X23.9465 Y26.1817
G01 X23.9595 Y26.2059
G01 X24.0014 Y26.2946
G01 X24.0119 Y26.3200
G01 X24.0450 Y26.4124
G01 X24.0530 Y26.4387
G01 X24.0768 Y26.5339
G01 X24.0822 Y26.5608
G01 X24.0966 Y26.6579
G01 X24.0993 Y26.6852
G01 X24.1041 Y26.7833
G01 X24.1041 Y26.8107
G01 X24.0993 Y26.9088
G01 X24.0966 Y26.9361
G01 X24.0822 Y27.0332
G01 X24.0768 Y27.0601
G01 X24.0530 Y27.1553
G01 X24.0450 Y27.1816
G01 X24.0119 Y27.2740
G01 X24.0014 Y27.2994
G01 X23.9595 Y27.3881
G01 X23.9465 Y27.4123
G01 X23.8961 Y27.4965
G01 X23.8808 Y27.5194
G01 X23.8223 Y27.5982
G01 X23.8049 Y27.6194
G01 X23.7390 Y27.6921
G01 X23.7196 Y27.7116
G01 X23.6469 Y27.7775
G01 X23.6256 Y27.7949
G01 X23.5468 Y27.8534
G01 X23.5239 Y27.8686
G01 X23.4398 Y27.9191
G01 X23.4155 Y27.9320
G01 X23.3268 Y27.9740
G01 X23.3014 Y27.9845
G01 X23.2090 Y28.0176
G01 X23.1827 Y28.0255
G01 X23.0876 Y28.0494
G01 X23.0606 Y28.0548
G01 X22.9635 Y28.0692
G01 X22.9362 Y28.0718
G01 X22.8382 Y28.0767
G01 X22.8107 Y28.0767
G01 X22.7127 Y28.0718
G01 X22.6853 Y28.0692
G01 X22.5883 Y28.0548
G01 X22.5613 Y28.0494
G01 X22.4661 Y28.0255
G01 X22.4398 Y28.0176
G01 X22.3474 Y27.9845
G01 X22.3220 Y27.9740
G01 X22.2333 Y27.9320
G01 X22.2091 Y27.9191
G01 X22.1249 Y27.8686
G01 X22.1021 Y27.8534
G01 X22.0232 Y27.7949
G01 X22.0020 Y27.7775
G01 X21.9293 Y27.7116
G01 X21.9099 Y27.6921
G01 X21.8440 Y27.6194
G01 X21.8265 Y27.5982
G01 X21.7681 Y27.5194
G01 X21.7528 Y27.4965
G01 X21.7023 Y27.4123
G01 X21.6894 Y27.3881
G01 X21.6474 Y27.2994
G01 X21.6369 Y27.2740
G01 X21.6039 Y27.1816
G01 X21.5959 Y27.1553
G01 X21.5720 Y27.0601
G01 X21.5667 Y27.0332
G01 X21.5523 Y26.9361
G01 X21.5496 Y26.9088
G01 X21.5448 Y26.8107
G01 X21.5448 Y26.7833
G01 X21.5496 Y26.6852
G01 X21.5523 Y26.6579
G01 X21.5667 Y26.5608
G01 X21.5720 Y26.5339
G01 X21.5959 Y26.4387
G01 X21.6039 Y26.4124
G01 X21.6369 Y26.3200
G01 X21.6474 Y26.2946
G01 X21.6894 Y26.2059
G01 X21.7023 Y26.1817
G01 X21.7528 Y26.0975
G01 X21.7681 Y26.0746
G01 X21.8265 Y25.9958
G01 X21.8440 Y25.9746
G01 X21.9099 Y25.9019
G01 X21.9293 Y25.8824
G01 X21.9441 Y25.8690
G01 X21.9441 Y7.6465
G01 X21.8951 Y7.5804
G01 X21.8798 Y7.5575
G01 X21.8293 Y7.4733
G01 X21.8164 Y7.4491
G01 X21.7744 Y7.3604
G01 X21.7639 Y7.3350
G01 X21.7309 Y7.2426
G01 X21.7229 Y7.2163
G01 X21.6990 Y7.1211
G01 X21.6937 Y7.0942
G01 X21.6793 Y6.9971
G01 X21.6766 Y6.9698
G01 X21.6718 Y6.8717
G01 X21.6718 Y6.8443
G01 X21.6728 Y6.8243
G01 X18.2688 Y3.4203
G01 X4.6826 Y3.4203
G01 X3.9283 Y4.1746
G01 X3.9283 Y8.9064
G01 X5.5716 Y10.5497
G00 Z2.0000
G00 X5.4971 Y10.7297
G01 F60.00
G01 Z-0.0900
G01 F120.00
G01 X6.6449 Y10.7297
G01 X6.7118 Y10.6558
G01 X6.7187 Y10.6489
G01 X6.7914 Y10.5830
G01 X6.7990 Y10.5767
G01 X6.8778 Y10.5183
G01 X6.8860 Y10.5128
G01 X6.9702 Y10.4624
G01 X6.9788 Y10.4577
G01 X7.0675 Y10.4158
G01 X7.0766 Y10.4120
G01 X7.1690 Y10.3790
G01 X7.1784 Y10.3761
G01 X7.2736 Y10.3523
G01 X7.2832 Y10.3504
G01 X7.3803 Y10.3360
G01 X7.3900 Y10.3350
G01 X7.4881 Y10.3302
G01 X7.4979 Y10.3302
G01 X7.5959 Y10.3350
G01 X7.6057 Y10.3360
G01 X7.7027 Y10.3504
G01 X7.7124 Y10.3523
G01 X7.8076 Y10.3761
G01 X7.8169 Y10.3790
G01 X7.9093 Y10.4120
G01 X7.9184 Y10.4158
G01 X8.0071 Y10.4577
G01 X8.0158 Y10.4624
G01 X8.1000 Y10.5128
G01 X8.1081 Y10.5183
G01 X8.1869 Y10.5767
G01 X8.1945 Y10.5830
G01 X8.2672 Y10.6489
G01 X8.2742 Y10.6558
G01 X8.3401 Y10.7285
G01 X8.3463 Y10.7361
G01 X8.4048 Y10.8149
G01 X8.4102 Y10.8231
G01 X8.4607 Y10.9073
G01 X8.4653 Y10.9159
G01 X8.5072 Y11.0046
G01 X8.5110 Y11.0137
G01 X8.5441 Y11.1061
G01 X8.5469 Y11.1155
G01 X8.5708 Y11.2107
G01 X8.5727 Y11.2203
G01 X8.5871 Y11.3174
G01 X8.5880 Y11.3271
G01 X8.5928 Y11.4252
G01 X8.5928 Y11.4350
G01 X8.5880 Y11.5330
G01 X8.5871 Y11.5428
G01 X8.5727 Y11.6398
G01 X8.5708 Y11.6495
G01 X8.5469 Y11.7447
G01 X8.5441 Y11.7540
G01 X8.5110 Y11.8464
G01 X8.5072 Y11.8555
G01 X8.4653 Y11.9442
G01 X8.4607 Y11.9529
G01 X8.4102 Y12.0371
G01 X8.4048 Y12.0452
G01 X8.3463 Y12.1240
G01 X8.3401 Y12.1316
G01 X8.2742 Y12.2043
G01 X8.2672 Y12.2113
G01 X8.1945 Y12.2772
G01 X8.1869 Y12.2834
G01 X8.1081 Y12.3419
G01 X8.1000 Y12.3473
G01 X8.0158 Y12.3978
G01 X8.0071 Y12.4024
G01 X7.9184 Y12.4443
G01 X7.9093 Y12.4481
G01 X7.8169 Y12.4812
G01 X7.8076 Y12.4840
G01 X7.7124 Y12.5079
G01 X7.7027 Y12.5098
G01 X7.6057 Y12.5242
G01 X7.5959 Y12.5251
G01 X7.4979 Y12.5299
G01 X7.4881 Y12.5299
G01 X7.3900 Y12.5251
G01 X7.3803 Y12.5242
G01 X7.2832 Y12.5098
G01 X7.2736 Y12.5079
G01 X7.1784 Y12.4840
G01 X7.1690 Y12.4812
G01 X7.0766 Y12.4481
G01 X7.0675 Y12.4443
G01 X6.9788 Y12.4024
G01 X6.9702 Y12.3978
G01 X6.8860 Y12.3473
G01 X6.8778 Y12.3419
G01 X6.7990 Y12.2834
G01 X6.7914 Y12.2772
G01 X6.7187 Y12.2113
G01 X6.7118 Y12.2043
G01 X6.6448 Y12.1303
G01 X5.2021 Y12.1302
G01 X5.1433 Y12.1273
G01 X5.1335 Y12.1263
G01 X5.0752 Y12.1177
G01 X5.0656 Y12.1158
G01 X5.0084 Y12.1015
G01 X4.9991 Y12.0986
G01 X4.9436 Y12.0788
G01 X4.9345 Y12.0750
G01 X4.8813 Y12.0498
G01 X4.8726 Y12.0452
G01 X4.8221 Y12.0149
G01 X4.8139 Y12.0095
G01 X4.7666 Y11.9744
G01 X4.7590 Y11.9681
G01 X4.7118 Y11.9252
G01 X2.5528 Y9.7662
G01 X2.5099 Y9.7190
G01 X2.5036 Y9.7114
G01 X2.4685 Y9.6641
G01 X2.4631 Y9.6559
G01 X2.4328 Y9.6054
G01 X2.4282 Y9.5967
G01 X2.4030 Y9.5435
G01 X2.3992 Y9.5344
G01 X2.3794 Y9.4789
G01 X2.3765 Y9.4696
G01 X2.3622 Y9.4124
G01 X2.3603 Y9.4028
G01 X2.3517 Y9.3445
G01 X2.3507 Y9.3347
G01 X2.3477 Y9.2710
G01 X2.3477 Y3.8100
G01 X2.3507 Y3.7463
G01 X2.3517 Y3.7365
G01 X2.3603 Y3.6782
G01 X2.3622 Y3.6686
G01 X2.3765 Y3.6114
G01 X2.3794 Y3.6021
G01 X2.3992 Y3.5466
G01 X2.4030 Y3.5375
G01 X2.4282 Y3.4843
G01 X2.4328 Y3.4756
G01 X2.4631 Y3.4251
G01 X2.4685 Y3.4169
G01 X2.5036 Y3.3696
G01 X2.5099 Y3.3620
G01 X2.5528 Y3.3148
G01 X3.8264 Y2.0414
G01 X3.8700 Y2.0019
G01 X3.8776 Y1.9956
G01 X3.9249 Y1.9605
G01 X3.9331 Y1.9551
G01 X3.9836 Y1.9248
G01 X3.9923 Y1.9202
G01 X4.0455 Y1.8950
G01 X4.0546 Y1.8912
G01 X4.1101 Y1.8714
G01 X4.1194 Y1.8685
G01 X4.1766 Y1.8542
G01 X4.1862 Y1.8523
G01 X4.2445 Y1.8437
G01 X4.2543 Y1.8427
G01 X4.3180 Y1.8397
G01 X18.6334 Y1.8397
G01 X18.6972 Y1.8427
G01 X18.7070 Y1.8437
G01 X18.7652 Y1.8523
G01 X18.7749 Y1.8542
G01 X18.8320 Y1.8685
G01 X18.8414 Y1.8714
G01 X18.8969 Y1.8912
G01 X18.9059 Y1.8950
G01 X18.9592 Y1.9202
G01 X18.9678 Y1.9248
G01 X19.0184 Y1.9551
G01 X19.0265 Y1.9605
G01 X19.0738 Y1.9956
G01 X19.0814 Y2.0019
G01 X19.1286 Y2.0448
G01 X22.8469 Y5.7631
G01 X22.9465 Y5.7581
G01 X22.9563 Y5.7581
G01 X23.0544 Y5.7629
G01 X23.0641 Y5.7639
G01 X23.1612 Y5.7783
G01 X23.1708 Y5.7802
G01 X23.2660 Y5.8041
G01 X23.2754 Y5.8069
G01 X23.3678 Y5.8400
G01 X23.3769 Y5.8437
G01 X23.4656 Y5.8857
G01 X23.4742 Y5.8903
G01 X23.5584 Y5.9408
G01 X23.5666 Y5.9462
G01 X23.6454 Y6.0047
G01 X23.6530 Y6.0109
G01 X23.7257 Y6.0768
G01 X23.7326 Y6.0837
G01 X23.7985 Y6.1565
G01 X23.8048 Y6.1640
G01 X23.8632 Y6.2429
G01 X23.8687 Y6.2510
G01 X23.9191 Y6.3352
G01 X23.9238 Y6.3438
G01 X23.9657 Y6.4326
G01 X23.9695 Y6.4416
G01 X24.0025 Y6.5340
G01 X24.0054 Y6.5434
G01 X24.0292 Y6.6386
G01 X24.0311 Y6.6482
G01 X24.0455 Y6.7453
G01 X24.0465 Y6.7551
G01 X24.0513 Y6.8531
G01 X24.0513 Y6.8629
G01 X24.0465 Y6.9609
G01 X24.0455 Y6.9707
G01 X24.0311 Y7.0678
G01 X24.0292 Y7.0774
G01 X24.0054 Y7.1726
G01 X24.0025 Y7.1820
G01 X23.9695 Y7.2744
G01 X23.9657 Y7.2834
G01 X23.9238 Y7.3722
G01 X23.9191 Y7.3808
G01 X23.8687 Y7.4650
G01 X23.8632 Y7.4731
G01 X23.8048 Y7.5520
G01 X23.7985 Y7.5595
G01 X23.7326 Y7.6323
G01 X23.7257 Y7.6392
G01 X23.6530 Y7.7051
G01 X23.6454 Y7.7113
G01 X23.5666 Y7.7698
G01 X23.5584 Y7.7752
G01 X23.5247 Y7.7954
G01 X23.5247 Y25.9489
G01 X23.5987 Y26.0158
G01 X23.6056 Y26.0227
G01 X23.6715 Y26.0955
G01 X23.6778 Y26.1030
G01 X23.7362 Y26.1819
G01 X23.7417 Y26.1900
G01 X23.7921 Y26.2742
G01 X23.7968 Y26.2828
G01 X23.8387 Y26.3716
G01 X23.8425 Y26.3806
G01 X23.8755 Y26.4730
G01 X23.8784 Y26.4824
G01 X23.9022 Y26.5776
G01 X23.9041 Y26.5872
G01 X23.9185 Y26.6843
G01 X23.9195 Y26.6941
G01 X23.9243 Y26.7921
G01 X23.9243 Y26.8019
G01 X23.9195 Y26.8999
G01 X23.9185 Y26.9097
G01 X23.9041 Y27.0068
G01 X23.9022 Y27.0164
G01 X23.8784 Y27.1116
G01 X23.8755 Y27.1210
G01 X23.8425 Y27.2134
G01 X23.8387 Y27.2224
G01 X23.7968 Y27.3112
G01 X23.7921 Y27.3198
G01 X23.7417 Y27.4040
G01 X23.7362 Y27.4121
G01 X23.6778 Y27.4910
G01 X23.6715 Y27.4985
G01 X23.6056 Y27.5713
G01 X23.5987 Y27.5782
G01 X23.5260 Y27.6441
G01 X23.5184 Y27.6503
G01 X23.4396 Y27.7088
G01 X23.4314 Y27.7142
G01 X23.3472 Y27.7647
G01 X23.3386 Y27.7693
G01 X23.2499 Y27.8113
G01 X23.2408 Y27.8150
G01 X23.1484 Y27.8481
G01 X23.1390 Y27.8509
G01 X23.0438 Y27.8748
G01 X23.0342 Y27.8767
G01 X22.9371 Y27.8911
G01 X22.9274 Y27.8921
G01 X22.8293 Y27.8969
G01 X22.8195 Y27.8969
G01 X22.7215 Y27.8921
G01 X22.7117 Y27.8911
G01 X22.6147 Y27.8767
G01 X22.6050 Y27.8748
G01 X22.5098 Y27.8509
G01 X22.5005 Y27.8481
G01 X22.4081 Y27.8150
G01 X22.3990 Y27.8113
G01 X22.3103 Y27.7693
G01 X22.3016 Y27.7647
G01 X22.2174 Y27.7142
G01 X22.2093 Y27.7088
G01 X22.1305 Y27.6503
G01 X22.1229 Y27.6441
G01 X22.0502 Y27.5782
G01 X22.0432 Y27.5713
G01 X21.9773 Y27.4985
G01 X21.9711 Y27.4910
G01 X21.9126 Y27.4121
G01 X21.9072 Y27.4040
G01 X21.8567 Y27.3198
G01 X21.8521 Y27.3112
G01 X21.8102 Y27.2224
G01 X21.8064 Y27.2134
G01 X21.7733 Y27.1210
G01 X21.7705 Y27.1116
G01 X21.7466 Y27.0164
G01 X21.7447 Y27.0068
G01 X21.7303 Y26.9097
G01 X21.7294 Y26.8999
G01 X21.7246 Y26.8019
G01 X21.7246 Y26.7921
G01 X21.7294 Y26.6941
G01 X21.7303 Y26.6843
G01 X21.7447 Y26.5872
G01 X21.7466 Y26.5776
G01 X21.7705 Y26.4824
G01 X21.7733 Y26.4730
G01 X21.8064 Y26.3806
G01 X21.8102 Y26.3716
G01 X21.8521 Y26.2828
G01 X21.8567 Y26.2742
G01 X21.9072 Y26.1900
G01 X21.9126 Y26.1819
G01 X21.9711 Y26.1030
G01 X21.9773 Y26.0955
G01 X22.0432 Y26.0227
G01 X22.0502 Y26.0158
G01 X22.1241 Y25.9489
G01 X22.1241 Y7.5814
G01 X22.1043 Y7.5595
G01 X22.0981 Y7.5520
G01 X22.0396 Y7.4731
G01 X22.0342 Y7.4650
G01 X21.9837 Y7.3808
G01 X21.9791 Y7.3722
G01 X21.9372 Y7.2834
G01 X21.9334 Y7.2744
G01 X21.9003 Y7.1820
G01 X21.8975 Y7.1726
G01 X21.8736 Y7.0774
G01 X21.8717 Y7.0678
G01 X21.8573 Y6.9707
G01 X21.8564 Y6.9609
G01 X21.8516 Y6.8629
G01 X21.8516 Y6.8531
G01 X21.8565 Y6.7535
G01 X18.3434 Y3.2403
G01 X4.6081 Y3.2403
G01 X3.7483 Y4.1001
G01 X3.7483 Y8.9809
G01 X5.4971 Y10.7297
G00 Z2.0000
G00 X6.6127 Y17.4381
G01 F60.00
G01 Z-0.0900
G01 F120.00
G01 X6.5978 Y17.4246
G01 X6.5784 Y17.4052
G01 X6.5125 Y17.3325
G01 X6.4951 Y17.3113
G01 X6.4366 Y17.2324
G01 X6.4213 Y17.2096
G01 X6.3709 Y17.1254
G01 X6.3579 Y17.1012
G01 X6.3160 Y17.0125
G01 X6.3055 Y16.9871
G01 X6.2724 Y16.8947
G01 X6.2644 Y16.8684
G01 X6.2406 Y16.7732
G01 X6.2352 Y16.7462
G01 X6.2208 Y16.6492
G01 X6.2181 Y16.6218
G01 X6.2133 Y16.5238
G01 X6.2133 Y16.4963
G01 X6.2181 Y16.3983
G01 X6.2208 Y16.3710
G01 X6.2352 Y16.2739
G01 X6.2406 Y16.2469
G01 X6.2644 Y16.1518
G01 X6.2724 Y16.1255
G01 X6.3055 Y16.0331
G01 X6.3160 Y16.0077
G01 X6.3579 Y15.9190
G01 X6.3709 Y15.8947
G01 X6.4213 Y15.8106
G01 X6.4366 Y15.7877
G01 X6.4951 Y15.7089
G01 X6.5125 Y15.6876
G01 X6.5784 Y15.6149
G01 X6.5978 Y15.5955
G01 X6.6705 Y15.5296
G01 X6.6918 Y15.5122
G01 X6.7706 Y15.4537
G01 X6.7935 Y15.4384
G01 X6.8776 Y15.3880
G01 X6.9019 Y15.3750
G01 X6.9906 Y15.3331
G01 X7.0160 Y15.3226
G01 X7.1084 Y15.2895
G01 X7.1347 Y15.2815
G01 X7.2298 Y15.2577
G01 X7.2568 Y15.2523
G01 X7.3539 Y15.2379
G01 X7.3812 Y15.2352
G01 X7.4792 Y15.2304
G01 X7.5067 Y15.2304
G01 X7.6047 Y15.2352
G01 X7.6321 Y15.2379
G01 X7.7291 Y15.2523
G01 X7.7561 Y15.2577
G01 X7.8513 Y15.2815
G01 X7.8776 Y15.2895
G01 X7.9700 Y15.3226
G01 X7.9954 Y15.3331
G01 X8.0841 Y15.3750
G01 X8.1083 Y15.3880
G01 X8.1925 Y15.4384
G01 X8.2153 Y15.4537
G01 X8.2942 Y15.5122
G01 X8.3154 Y15.5296
G01 X8.3881 Y15.5955
G01 X8.4075 Y15.6149
G01 X8.4734 Y15.6876
G01 X8.4909 Y15.7089
G01 X8.5493 Y15.7877
G01 X8.5646 Y15.8106
G01 X8.6151 Y15.8947
G01 X8.6280 Y15.9190
G01 X8.6700 Y16.0077
G01 X8.6805 Y16.0331
G01 X8.7135 Y16.1255
G01 X8.7215 Y16.1518
G01 X8.7454 Y16.2469
G01 X8.7507 Y16.2739
G01 X8.7651 Y16.3710
G01 X8.7678 Y16.3983
G01 X8.7726 Y16.4963
G01 X8.7726 Y16.5238
G01 X8.7678 Y16.6218
G01 X8.7651 Y16.6492
G01 X8.7507 Y16.7462
G01 X8.7454 Y16.7732
G01 X8.7215 Y16.8684
G01 X8.7135 Y16.8947
G01 X8.6805 Y16.9871
G01 X8.6700 Y17.0125
G01 X8.6280 Y17.1012
G01 X8.6151 Y17.1254
G01 X8.5646 Y17.2096
G01 X8.5493 Y17.2324
G01 X8.4909 Y17.3113
G01 X8.4734 Y17.3325
G01 X8.4075 Y17.4052
G01 X8.3881 Y17.4246
G01 X8.3733 Y17.4381
G01 X8.3733 Y20.8245
G01 X8.3881 Y20.8380
G01 X8.4076 Y20.8574
G01 X8.4735 Y20.9301
G01 X8.4909 Y20.9514
G01 X8.5494 Y21.0302
G01 X8.5646 Y21.0530
G01 X8.6151 Y21.1372
G01 X8.6280 Y21.1614
G01 X8.6700 Y21.2502
G01 X8.6805 Y21.2755
G01 X8.7136 Y21.3679
G01 X8.7215 Y21.3942
G01 X8.7454 Y21.4894
G01 X8.7508 Y21.5164
G01 X8.7652 Y21.6134
G01 X8.7678 Y21.6408
G01 X8.7727 Y21.7388
G01 X8.7727 Y21.7663
G01 X8.7678 Y21.8643
G01 X8.7652 Y21.8917
G01 X8.7508 Y21.9887
G01 X8.7454 Y22.0157
G01 X8.7215 Y22.1109
G01 X8.7136 Y22.1372
G01 X8.6805 Y22.2296
G01 X8.6700 Y22.2549
G01 X8.6280 Y22.3437
G01 X8.6151 Y22.3679
G01 X8.5646 Y22.4521
G01 X8.5494 Y22.4749
G01 X8.4909 Y22.5537
G01 X8.4735 Y22.5750
G01 X8.4076 Y22.6477
G01 X8.3881 Y22.6671
G01 X8.3733 Y22.6806
G01 X8.3733 Y22.7494
G01 X15.9856 Y30.3617
G01 X23.1659 Y30.3617
G01 X26.6969 Y26.8307
G01 X26.6959 Y26.8107
G01 X26.6959 Y26.7833
G01 X26.7007 Y26.6852
G01 X26.7034 Y26.6579
G01 X26.7178 Y26.5608
G01 X26.7232 Y26.5339
G01 X26.7470 Y26.4387
G01 X26.7550 Y26.4124
G01 X26.7880 Y26.3200
G01 X26.7986 Y26.2946
G01 X26.8405 Y26.2059
G01 X26.8535 Y26.1817
G01 X26.9039 Y26.0975
G01 X26.9192 Y26.0746
G01 X26.9777 Y25.9958
G01 X26.9951 Y25.9746
G01 X27.0610 Y25.9019
G01 X27.0804 Y25.8824
G01 X27.0953 Y25.8690
G01 X27.0953 Y7.6465
G01 X27.0462 Y7.5804
G01 X27.0309 Y7.5575
G01 X26.9805 Y7.4733
G01 X26.9675 Y7.4491
G01 X26.9256 Y7.3604
G01 X26.9150 Y7.3350
G01 X26.8820 Y7.2426
G01 X26.8740 Y7.2163
G01 X26.8502 Y7.1211
G01 X26.8448 Y7.0942
G01 X26.8304 Y6.9971
G01 X26.8277 Y6.9698
G01 X26.8229 Y6.8717
G01 X26.8229 Y6.8443
G01 X26.8277 Y6.7462
G01 X26.8304 Y6.7189
G01 X26.8448 Y6.6218
G01 X26.8502 Y6.5949
G01 X26.8740 Y6.4997
G01 X26.8820 Y6.4734
G01 X26.9150 Y6.3810
G01 X26.9256 Y6.3556
G01 X26.9675 Y6.2669
G01 X26.9805 Y6.2427
G01 X27.0309 Y6.1585
G01 X27.0462 Y6.1356
G01 X27.1047 Y6.0568
G01 X27.1221 Y6.0356
G01 X27.1880 Y5.9629
G01 X27.2074 Y5.9434
G01 X27.2801 Y5.8775
G01 X27.3014 Y5.8601
G01 X27.3802 Y5.8016
G01 X27.4030 Y5.7864
G01 X27.4872 Y5.7359
G01 X27.5114 Y5.7230
G01 X27.6002 Y5.6810
G01 X27.6255 Y5.6705
G01 X27.7179 Y5.6374
G01 X27.7442 Y5.6295
G01 X27.8394 Y5.6056
G01 X27.8664 Y5.6002
G01 X27.9635 Y5.5858
G01 X27.9908 Y5.5832
G01 X28.0888 Y5.5783
G01 X28.1163 Y5.5783
G01 X28.2143 Y5.5832
G01 X28.2417 Y5.5858
G01 X28.3387 Y5.6002
G01 X28.3657 Y5.6056
G01 X28.4609 Y5.6295
G01 X28.4872 Y5.6374
G01 X28.5796 Y5.6705
G01 X28.6050 Y5.6810
G01 X28.6937 Y5.7230
G01 X28.7179 Y5.7359
G01 X28.8021 Y5.7864
G01 X28.8249 Y5.8016
G01 X28.9037 Y5.8601
G01 X28.9250 Y5.8775
G01 X28.9977 Y5.9434
G01 X29.0171 Y5.9629
G01 X29.0830 Y6.0356
G01 X29.1005 Y6.0568
G01 X29.1589 Y6.1356
G01 X29.1742 Y6.1585
G01 X29.2246 Y6.2427
G01 X29.2376 Y6.2669
G01 X29.2796 Y6.3556
G01 X29.2901 Y6.3810
G01 X29.3231 Y6.4734
G01 X29.3311 Y6.4997
G01 X29.3550 Y6.5949
G01 X29.3603 Y6.6218
G01 X29.3747 Y6.7189
G01 X29.3774 Y6.7462
G01 X29.3822 Y6.8443
G01 X29.3822 Y6.8717
G01 X29.3774 Y6.9698
G01 X29.3747 Y6.9971
G01 X29.3603 Y7.0942
G01 X29.3550 Y7.1211
G01 X29.3311 Y7.2163
G01 X29.3231 Y7.2426
G01 X29.2901 Y7.3350
G01 X29.2796 Y7.3604
G01 X29.2376 Y7.4491
G01 X29.2246 Y7.4733
G01 X29.1742 Y7.5575
G01 X29.1589 Y7.5804
G01 X29.1005 Y7.6592
G01 X29.0830 Y7.6804
G01 X29.0171 Y7.7531
G01 X28.9977 Y7.7726
G01 X28.9250 Y7.8385
G01 X28.9037 Y7.8559
G01 X28.8559 Y7.8914
G01 X28.8559 Y25.8690
G01 X28.8707 Y25.8824
G01 X28.8901 Y25.9019
G01 X28.9560 Y25.9746
G01 X28.9735 Y25.9958
G01 X29.0319 Y26.0746
G01 X29.0472 Y26.0975
G01 X29.0976 Y26.1817
G01 X29.1106 Y26.2059
G01 X29.1526 Y26.2946
G01 X29.1631 Y26.3200
G01 X29.1961 Y26.4124
G01 X29.2041 Y26.4387
G01 X29.2280 Y26.5339
G01 X29.2333 Y26.5608
G01 X29.2477 Y26.6579
G01 X29.2504 Y26.6852
G01 X29.2552 Y26.7833
G01 X29.2552 Y26.8107
G01 X29.2504 Y26.9088
G01 X29.2477 Y26.9361
G01 X29.2333 Y27.0332
G01 X29.2280 Y27.0601
G01 X29.2041 Y27.1553
G01 X29.1961 Y27.1816
G01 X29.1631 Y27.2740
G01 X29.1526 Y27.2994
G01 X29.1106 Y27.3881
G01 X29.0976 Y27.4123
G01 X29.0472 Y27.4965
G01 X29.0319 Y27.5194
G01 X28.9735 Y27.5982
G01 X28.9560 Y27.6194
G01 X28.8901 Y27.6921
G01 X28.8707 Y27.7116
G01 X28.7980 Y27.7775
G01 X28.7767 Y27.7949
G01 X28.6979 Y27.8534
G01 X28.6751 Y27.8686
G01 X28.5909 Y27.9191
G01 X28.5667 Y27.9320
G01 X28.4780 Y27.9740
G01 X28.4526 Y27.9845
G01 X28.3602 Y28.0176
G01 X28.3339 Y28.0255
G01 X28.2387 Y28.0494
G01 X28.2117 Y28.0548
G01 X28.1147 Y28.0692
G01 X28.0873 Y28.0718
G01 X27.9893 Y28.0767
G01 X27.9618 Y28.0767
G01 X27.9418 Y28.0757
G01 X24.1530 Y31.8645
G01 X24.1431 Y31.8739
G01 X24.0994 Y31.9135
G01 X24.0782 Y31.9309
G01 X24.0309 Y31.9660
G01 X24.0080 Y31.9813
G01 X23.9575 Y32.0116
G01 X23.9333 Y32.0245
G01 X23.8800 Y32.0497
G01 X23.8546 Y32.0602
G01 X23.7991 Y32.0801
G01 X23.7729 Y32.0881
G01 X23.7157 Y32.1024
G01 X23.6888 Y32.1077
G01 X23.6305 Y32.1164
G01 X23.6031 Y32.1191
G01 X23.5443 Y32.1220
G01 X23.5306 Y32.1223
G01 X15.6210 Y32.1223
G01 X15.6073 Y32.1220
G01 X15.5484 Y32.1191
G01 X15.5211 Y32.1164
G01 X15.4628 Y32.1077
G01 X15.4359 Y32.1024
G01 X15.3787 Y32.0881
G01 X15.3524 Y32.0801
G01 X15.2969 Y32.0602
G01 X15.2716 Y32.0497
G01 X15.2183 Y32.0245
G01 X15.1941 Y32.0116
G01 X15.1435 Y31.9813
G01 X15.1207 Y31.9660
G01 X15.0734 Y31.9309
G01 X15.0521 Y31.9135
G01 X15.0085 Y31.8739
G01 X14.9985 Y31.8645
G01 X6.8705 Y23.7365
G01 X6.8611 Y23.7265
G01 X6.8215 Y23.6829
G01 X6.8041 Y23.6616
G01 X6.7690 Y23.6143
G01 X6.7537 Y23.5915
G01 X6.7234 Y23.5409
G01 X6.7105 Y23.5167
G01 X6.6853 Y23.4634
G01 X6.6748 Y23.4381
G01 X6.6549 Y23.3826
G01 X6.6469 Y23.3563
G01 X6.6326 Y23.2991
G01 X6.6273 Y23.2722
G01 X6.6186 Y23.2139
G01 X6.6159 Y23.1866
G01 X6.6130 Y23.1277
G01 X6.6127 Y23.1140
G01 X6.6127 Y22.6806
G01 X6.5979 Y22.6671
G01 X6.5784 Y22.6477
G01 X6.5125 Y22.5750
G01 X6.4951 Y22.5537
G01 X6.4366 Y22.4749
G01 X6.4214 Y22.4521
G01 X6.3709 Y22.3679
G01 X6.3580 Y22.3437
G01 X6.3160 Y22.2549
G01 X6.3055 Y22.2296
G01 X6.2724 Y22.1372
G01 X6.2645 Y22.1109
G01 X6.2406 Y22.0157
G01 X6.2352 Y21.9887
G01 X6.2208 Y21.8917
G01 X6.2182 Y21.8643
G01 X6.2133 Y21.7663
G01 X6.2133 Y21.7388
G01 X6.2182 Y21.6408
G01 X6.2208 Y21.6134
G01 X6.2352 Y21.5164
G01 X6.2406 Y21.4894
G01 X6.2645 Y21.3942
G01 X6.2724 Y21.3679
G01 X6.3055 Y21.2755
G01 X6.3160 Y21.2502
G01 X6.3580 Y21.1614
G01 X6.3709 Y21.1372
G01 X6.4214 Y21.0530
G01 X6.4366 Y21.0302
G01 X6.4951 Y20.9514
G01 X6.5125 Y20.9301
G01 X6.5784 Y20.8574
G01 X6.5979 Y20.8380
G01 X6.6127 Y20.8245
G01 X6.6127 Y17.4381
G00 Z2.0000
G00 X6.4327 Y17.5125
G01 F60.00
G01 Z-0.0900
G01 F120.00
G01 X6.3791 Y17.4534
G01 X6.3505 Y17.4185
G01 X6.2920 Y17.3397
G01 X6.2669 Y17.3021
G01 X6.2165 Y17.2180
G01 X6.1952 Y17.1781
G01 X6.1533 Y17.0894
G01 X6.1360 Y17.0477
G01 X6.1029 Y16.9553
G01 X6.0898 Y16.9121
G01 X6.0660 Y16.8169
G01 X6.0572 Y16.7727
G01 X6.0428 Y16.6756
G01 X6.0383 Y16.6307
G01 X6.0335 Y16.5326
G01 X6.0335 Y16.4875
G01 X6.0383 Y16.3895
G01 X6.0428 Y16.3446
G01 X6.0572 Y16.2475
G01 X6.0660 Y16.2032
G01 X6.0898 Y16.1080
G01 X6.1029 Y16.0648
G01 X6.1360 Y15.9724
G01 X6.1533 Y15.9307
G01 X6.1952 Y15.8420
G01 X6.2165 Y15.8022
G01 X6.2669 Y15.7180
G01 X6.2920 Y15.6805
G01 X6.3505 Y15.6017
G01 X6.3791 Y15.5668
G01 X6.4450 Y15.4940
G01 X6.4769 Y15.4621
G01 X6.5497 Y15.3962
G01 X6.5846 Y15.3676
G01 X6.6634 Y15.3091
G01 X6.7009 Y15.2840
G01 X6.7851 Y15.2336
G01 X6.8249 Y15.2123
G01 X6.9136 Y15.1704
G01 X6.9553 Y15.1531
G01 X7.0477 Y15.1200
G01 X7.0909 Y15.1069
G01 X7.1861 Y15.0831
G01 X7.2304 Y15.0743
G01 X7.3275 Y15.0599
G01 X7.3724 Y15.0554
G01 X7.4704 Y15.0506
G01 X7.5155 Y15.0506
G01 X7.6136 Y15.0554
G01 X7.6585 Y15.0599
G01 X7.7556 Y15.0743
G01 X7.7998 Y15.0831
G01 X7.8950 Y15.1069
G01 X7.9382 Y15.1200
G01 X8.0306 Y15.1531
G01 X8.0723 Y15.1704
G01 X8.1610 Y15.2123
G01 X8.2009 Y15.2336
G01 X8.2850 Y15.2840
G01 X8.3226 Y15.3091
G01 X8.4014 Y15.3676
G01 X8.4363 Y15.3962
G01 X8.5090 Y15.4621
G01 X8.5409 Y15.4940
G01 X8.6068 Y15.5668
G01 X8.6355 Y15.6017
G01 X8.6939 Y15.6805
G01 X8.7190 Y15.7180
G01 X8.7694 Y15.8022
G01 X8.7907 Y15.8420
G01 X8.8327 Y15.9307
G01 X8.8500 Y15.9724
G01 X8.8830 Y16.0648
G01 X8.8961 Y16.1080
G01 X8.9200 Y16.2032
G01 X8.9288 Y16.2475
G01 X8.9432 Y16.3446
G01 X8.9476 Y16.3895
G01 X8.9524 Y16.4875
G01 X8.9524 Y16.5326
G01 X8.9476 Y16.6307
G01 X8.9432 Y16.6756
G01 X8.9288 Y16.7727
G01 X8.9200 Y16.8169
G01 X8.8961 Y16.9121
G01 X8.8830 Y16.9553
G01 X8.8500 Y17.0477
G01 X8.8327 Y17.0894
G01 X8.7907 Y17.1781
G01 X8.7694 Y17.2180
G01 X8.7190 Y17.3021
G01 X8.6939 Y17.3397
G01 X8.6355 Y17.4185
G01 X8.6068 Y17.4534
G01 X8.5533 Y17.5124
G01 X8.5533 Y20.7502
G01 X8.6068 Y20.8092
G01 X8.6355 Y20.8441
G01 X8.6939 Y20.9230
G01 X8.7190 Y20.9605
G01 X8.7695 Y21.0447
G01 X8.7908 Y21.0845
G01 X8.8327 Y21.1732
G01 X8.8500 Y21.2149
G01 X8.8831 Y21.3073
G01 X8.8962 Y21.3505
G01 X8.9200 Y21.4457
G01 X8.9288 Y21.4900
G01 X8.9432 Y21.5870
G01 X8.9476 Y21.6320
G01 X8.9524 Y21.7300
G01 X8.9524 Y21.7751
G01 X8.9476 Y21.8731
G01 X8.9432 Y21.9181
G01 X8.9288 Y22.0151
G01 X8.9200 Y22.0594
G01 X8.8962 Y22.1546
G01 X8.8831 Y22.1978
G01 X8.8500 Y22.2902
G01 X8.8327 Y22.3319
G01 X8.7908 Y22.4206
G01 X8.7695 Y22.4604
G01 X8.7190 Y22.5446
G01 X8.6939 Y22.5821
G01 X8.6355 Y22.6610
G01 X8.6068 Y22.6959
G01 X8.5914 Y22.7129
G01 X16.0602 Y30.1817
G01 X23.0914 Y30.1817
G01 X26.5170 Y26.7561
G01 X26.5209 Y26.6764
G01 X26.5254 Y26.6315
G01 X26.5398 Y26.5344
G01 X26.5486 Y26.4901
G01 X26.5724 Y26.3949
G01 X26.5855 Y26.3517
G01 X26.6186 Y26.2593
G01 X26.6358 Y26.2176
G01 X26.6778 Y26.1289
G01 X26.6991 Y26.0891
G01 X26.7495 Y26.0049
G01 X26.7746 Y25.9674
G01 X26.8331 Y25.8886
G01 X26.8617 Y25.8537
G01 X26.9153 Y25.7946
G01 X26.9153 Y7.7060
G01 X26.9016 Y7.6876
G01 X26.8765 Y7.6501
G01 X26.8261 Y7.5659
G01 X26.8048 Y7.5261
G01 X26.7628 Y7.4374
G01 X26.7456 Y7.3957
G01 X26.7125 Y7.3033
G01 X26.6994 Y7.2601
G01 X26.6756 Y7.1649
G01 X26.6668 Y7.1206
G01 X26.6524 Y7.0235
G01 X26.6479 Y6.9786
G01 X26.6431 Y6.8806
G01 X26.6431 Y6.8354
G01 X26.6479 Y6.7374
G01 X26.6524 Y6.6925
G01 X26.6668 Y6.5954
G01 X26.6756 Y6.5511
G01 X26.6994 Y6.4559
G01 X26.7125 Y6.4127
G01 X26.7456 Y6.3203
G01 X26.7628 Y6.2786
G01 X26.8048 Y6.1899
G01 X26.8261 Y6.1501
G01 X26.8765 Y6.0659
G01 X26.9016 Y6.0284
G01 X26.9601 Y5.9496
G01 X26.9887 Y5.9147
G01 X27.0546 Y5.8420
G01 X27.0865 Y5.8101
G01 X27.1592 Y5.7442
G01 X27.1941 Y5.7155
G01 X27.2730 Y5.6571
G01 X27.3105 Y5.6320
G01 X27.3947 Y5.5815
G01 X27.4345 Y5.5602
G01 X27.5232 Y5.5183
G01 X27.5649 Y5.5010
G01 X27.6573 Y5.4679
G01 X27.7005 Y5.4548
G01 X27.7957 Y5.4310
G01 X27.8400 Y5.4222
G01 X27.9370 Y5.4078
G01 X27.9820 Y5.4034
G01 X28.0800 Y5.3986
G01 X28.1251 Y5.3986
G01 X28.2231 Y5.4034
G01 X28.2681 Y5.4078
G01 X28.3651 Y5.4222
G01 X28.4094 Y5.4310
G01 X28.5046 Y5.4548
G01 X28.5478 Y5.4679
G01 X28.6402 Y5.5010
G01 X28.6819 Y5.5183
G01 X28.7706 Y5.5602
G01 X28.8104 Y5.5815
G01 X28.8946 Y5.6320
G01 X28.9322 Y5.6571
G01 X29.0110 Y5.7155
G01 X29.0459 Y5.7442
G01 X29.1186 Y5.8101
G01 X29.1505 Y5.8420
G01 X29.2164 Y5.9147
G01 X29.2450 Y5.9496
G01 X29.3035 Y6.0284
G01 X29.3286 Y6.0659
G01 X29.3790 Y6.1501
G01 X29.4003 Y6.1899
G01 X29.4423 Y6.2786
G01 X29.4595 Y6.3203
G01 X29.4926 Y6.4127
G01 X29.5057 Y6.4559
G01 X29.5296 Y6.5511
G01 X29.5384 Y6.5954
G01 X29.5528 Y6.6925
G01 X29.5572 Y6.7374
G01 X29.5620 Y6.8354
G01 X29.5620 Y6.8806
G01 X29.5572 Y6.9786
G01 X29.5528 Y7.0235
G01 X29.5384 Y7.1206
G01 X29.5296 Y7.1649
G01 X29.5057 Y7.2601
G01 X29.4926 Y7.3033
G01 X29.4595 Y7.3957
G01 X29.4423 Y7.4374
G01 X29.4003 Y7.5261
G01 X29.3790 Y7.5659
G01 X29.3286 Y7.6501
G01 X29.3035 Y7.6876
G01 X29.2450 Y7.7664
G01 X29.2164 Y7.8013
G01 X29.1505 Y7.8740
G01 X29.1186 Y7.9059
G01 X29.0459 Y7.9718
G01 X29.0359 Y7.9801
G01 X29.0359 Y25.7946
G01 X29.0894 Y25.8537
G01 X29.1180 Y25.8886
G01 X29.1765 Y25.9674
G01 X29.2016 Y26.0049
G01 X29.2520 Y26.0891
G01 X29.2733 Y26.1289
G01 X29.3153 Y26.2176
G01 X29.3325 Y26.2593
G01 X29.3656 Y26.3517
G01 X29.3787 Y26.3949
G01 X29.4026 Y26.4901
G01 X29.4114 Y26.5344
G01 X29.4258 Y26.6315
G01 X29.4302 Y26.6764
G01 X29.4350 Y26.7744
G01 X29.4350 Y26.8196
G01 X29.4302 Y26.9176
G01 X29.4258 Y26.9625
G01 X29.4114 Y27.0596
G01 X29.4026 Y27.1039
G01 X29.3787 Y27.1991
G01 X29.3656 Y27.2423
G01 X29.3325 Y27.3347
G01 X29.3153 Y27.3764
G01 X29.2733 Y27.4651
G01 X29.2520 Y27.5049
G01 X29.2016 Y27.5891
G01 X29.1765 Y27.6266
G01 X29.1180 Y27.7054
G01 X29.0894 Y27.7403
G01 X29.0235 Y27.8130
G01 X28.9916 Y27.8449
G01 X28.9189 Y27.9108
G01 X28.8840 Y27.9395
G01 X28.8052 Y27.9979
G01 X28.7676 Y28.0230
G01 X28.6834 Y28.0735
G01 X28.6436 Y28.0948
G01 X28.5549 Y28.1367
G01 X28.5132 Y28.1540
G01 X28.4208 Y28.1871
G01 X28.3776 Y28.2002
G01 X28.2824 Y28.2240
G01 X28.2381 Y28.2328
G01 X28.1411 Y28.2472
G01 X28.0961 Y28.2516
G01 X28.0165 Y28.2555
G01 X24.2803 Y31.9917
G01 X24.2640 Y32.0073
G01 X24.2203 Y32.0469
G01 X24.1854 Y32.0755
G01 X24.1381 Y32.1106
G01 X24.1006 Y32.1357
G01 X24.0500 Y32.1660
G01 X24.0102 Y32.1873
G01 X23.9570 Y32.2124
G01 X23.9153 Y32.2297
G01 X23.8598 Y32.2496
G01 X23.8166 Y32.2627
G01 X23.7594 Y32.2770
G01 X23.7152 Y32.2858
G01 X23.6569 Y32.2944
G01 X23.6120 Y32.2989
G01 X23.5531 Y32.3017
G01 X23.5306 Y32.3023
G01 X15.6210 Y32.3023
G01 X15.5984 Y32.3017
G01 X15.5396 Y32.2989
G01 X15.4947 Y32.2944
G01 X15.4364 Y32.2858
G01 X15.3921 Y32.2770
G01 X15.3350 Y32.2627
G01 X15.2918 Y32.2496
G01 X15.2363 Y32.2297
G01 X15.1946 Y32.2124
G01 X15.1413 Y32.1873
G01 X15.1015 Y32.1660
G01 X15.0510 Y32.1357
G01 X15.0135 Y32.1106
G01 X14.9662 Y32.0755
G01 X14.9313 Y32.0469
G01 X14.8876 Y32.0073
G01 X14.8713 Y31.9917
G01 X6.7433 Y23.8637
G01 X6.7277 Y23.8474
G01 X6.6881 Y23.8037
G01 X6.6595 Y23.7688
G01 X6.6244 Y23.7215
G01 X6.5993 Y23.6840
G01 X6.5690 Y23.6335
G01 X6.5477 Y23.5937
G01 X6.5226 Y23.5404
G01 X6.5053 Y23.4987
G01 X6.4854 Y23.4432
G01 X6.4723 Y23.4000
G01 X6.4580 Y23.3429
G01 X6.4492 Y23.2986
G01 X6.4406 Y23.2403
G01 X6.4361 Y23.1954
G01 X6.4333 Y23.1366
G01 X6.4327 Y23.1140
G01 X6.4327 Y22.7549
G01 X6.3792 Y22.6959
G01 X6.3505 Y22.6610
G01 X6.2921 Y22.5821
G01 X6.2670 Y22.5446
G01 X6.2165 Y22.4604
G01 X6.1952 Y22.4206
G01 X6.1533 Y22.3319
G01 X6.1360 Y22.2902
G01 X6.1029 Y22.1978
G01 X6.0898 Y22.1546
G01 X6.0660 Y22.0594
G01 X6.0572 Y22.0151
G01 X6.0428 Y21.9181
G01 X6.0384 Y21.8731
G01 X6.0336 Y21.7751
G01 X6.0336 Y21.7300
G01 X6.0384 Y21.6320
G01 X6.0428 Y21.5870
G01 X6.0572 Y21.4900
G01 X6.0660 Y21.4457
G01 X6.0898 Y21.3505
G01 X6.1029 Y21.3073
G01 X6.1360 Y21.2149
G01 X6.1533 Y21.1732
G01 X6.1952 Y21.0845
G01 X6.2165 Y21.0447
G01 X6.2670 Y20.9605
G01 X6.2921 Y20.9230
G01 X6.3505 Y20.8441
G01 X6.3792 Y20.8092
G01 X6.4327 Y20.7502
G01 X6.4327 Y17.5125
G00 Z2.0000
G00 X6.2527 Y17.5819
G01 F60.00
G01 Z-0.0900
G01 F120.00
G01 X6.2458 Y17.5743
G01 X6.2059 Y17.5257
G01 X6.1474 Y17.4469
G01 X6.1126 Y17.3947
G01 X6.0621 Y17.3105
G01 X6.0325 Y17.2551
G01 X5.9905 Y17.1664
G01 X5.9665 Y17.1084
G01 X5.9334 Y17.0160
G01 X5.9152 Y16.9559
G01 X5.8914 Y16.8607
G01 X5.8791 Y16.7991
G01 X5.8647 Y16.7020
G01 X5.8586 Y16.6395
G01 X5.8537 Y16.5415
G01 X5.8537 Y16.4787
G01 X5.8586 Y16.3806
G01 X5.8647 Y16.3181
G01 X5.8791 Y16.2211
G01 X5.8914 Y16.1595
G01 X5.9152 Y16.0643
G01 X5.9334 Y16.0042
G01 X5.9665 Y15.9118
G01 X5.9905 Y15.8538
G01 X6.0325 Y15.7650
G01 X6.0621 Y15.7096
G01 X6.1126 Y15.6255
G01 X6.1474 Y15.5733
G01 X6.2059 Y15.4944
G01 X6.2458 Y15.4459
G01 X6.3117 Y15.3732
G01 X6.3561 Y15.3288
G01 X6.4288 Y15.2629
G01 X6.4773 Y15.2230
G01 X6.5562 Y15.1645
G01 X6.6084 Y15.1297
G01 X6.6925 Y15.0792
G01 X6.7479 Y15.0496
G01 X6.8367 Y15.0076
G01 X6.8947 Y14.9836
G01 X6.9871 Y14.9505
G01 X7.0472 Y14.9323
G01 X7.1424 Y14.9085
G01 X7.2040 Y14.8962
G01 X7.3010 Y14.8818
G01 X7.3635 Y14.8757
G01 X7.4616 Y14.8708
G01 X7.5244 Y14.8708
G01 X7.6224 Y14.8757
G01 X7.6849 Y14.8818
G01 X7.7820 Y14.8962
G01 X7.8436 Y14.9085
G01 X7.9388 Y14.9323
G01 X7.9989 Y14.9505
G01 X8.0913 Y14.9836
G01 X8.1493 Y15.0076
G01 X8.2380 Y15.0496
G01 X8.2934 Y15.0792
G01 X8.3776 Y15.1297
G01 X8.4298 Y15.1645
G01 X8.5086 Y15.2230
G01 X8.5572 Y15.2629
G01 X8.6299 Y15.3288
G01 X8.6743 Y15.3732
G01 X8.7402 Y15.4459
G01 X8.7800 Y15.4944
G01 X8.8385 Y15.5733
G01 X8.8734 Y15.6255
G01 X8.9238 Y15.7096
G01 X8.9534 Y15.7650
G01 X8.9954 Y15.8538
G01 X9.0194 Y15.9118
G01 X9.0525 Y16.0042
G01 X9.0707 Y16.0643
G01 X9.0946 Y16.1595
G01 X9.1068 Y16.2211
G01 X9.1212 Y16.3181
G01 X9.1274 Y16.3806
G01 X9.1322 Y16.4787
G01 X9.1322 Y16.5415
G01 X9.1274 Y16.6395
G01 X9.1212 Y16.7020
G01 X9.1068 Y16.7991
G01 X9.0946 Y16.8607
G01 X9.0707 Y16.9559
G01 X9.0525 Y17.0160
G01 X9.0194 Y17.1084
G01 X8.9954 Y17.1664
G01 X8.9534 Y17.2551
G01 X8.9238 Y17.3105
G01 X8.8734 Y17.3947
G01 X8.8385 Y17.4469
G01 X8.7800 Y17.5257
G01 X8.7402 Y17.5743
G01 X8.7333 Y17.5819
G01 X8.7333 Y20.6807
G01 X8.7402 Y20.6884
G01 X8.7801 Y20.7369
G01 X8.8385 Y20.8157
G01 X8.8734 Y20.8680
G01 X8.9239 Y20.9521
G01 X8.9535 Y21.0075
G01 X8.9954 Y21.0962
G01 X9.0195 Y21.1543
G01 X9.0525 Y21.2467
G01 X9.0708 Y21.3068
G01 X9.0946 Y21.4020
G01 X9.1069 Y21.4636
G01 X9.1213 Y21.5606
G01 X9.1274 Y21.6231
G01 X9.1322 Y21.7211
G01 X9.1322 Y21.7840
G01 X9.1274 Y21.8820
G01 X9.1213 Y21.9445
G01 X9.1069 Y22.0415
G01 X9.0946 Y22.1031
G01 X9.0708 Y22.1983
G01 X9.0525 Y22.2584
G01 X9.0195 Y22.3508
G01 X8.9954 Y22.4089
G01 X8.9535 Y22.4976
G01 X8.9239 Y22.5530
G01 X8.8734 Y22.6371
G01 X8.8385 Y22.6894
G01 X8.8317 Y22.6986
G01 X16.1347 Y30.0017
G01 X23.0168 Y30.0017
G01 X26.3406 Y26.6779
G01 X26.3411 Y26.6676
G01 X26.3473 Y26.6051
G01 X26.3617 Y26.5080
G01 X26.3740 Y26.4464
G01 X26.3978 Y26.3512
G01 X26.4160 Y26.2911
G01 X26.4491 Y26.1987
G01 X26.4731 Y26.1407
G01 X26.5151 Y26.0520
G01 X26.5447 Y25.9966
G01 X26.5951 Y25.9124
G01 X26.6300 Y25.8602
G01 X26.6885 Y25.7814
G01 X26.7283 Y25.7328
G01 X26.7353 Y25.7252
G01 X26.7353 Y7.7622
G01 X26.7221 Y7.7426
G01 X26.6717 Y7.6584
G01 X26.6421 Y7.6030
G01 X26.6001 Y7.5143
G01 X26.5761 Y7.4563
G01 X26.5430 Y7.3639
G01 X26.5248 Y7.3038
G01 X26.5010 Y7.2086
G01 X26.4887 Y7.1470
G01 X26.4743 Y7.0499
G01 X26.4681 Y6.9874
G01 X26.4633 Y6.8894
G01 X26.4633 Y6.8266
G01 X26.4681 Y6.7286
G01 X26.4743 Y6.6661
G01 X26.4887 Y6.5690
G01 X26.5010 Y6.5074
G01 X26.5248 Y6.4122
G01 X26.5430 Y6.3521
G01 X26.5761 Y6.2597
G01 X26.6001 Y6.2017
G01 X26.6421 Y6.1130
G01 X26.6717 Y6.0576
G01 X26.7221 Y5.9734
G01 X26.7570 Y5.9212
G01 X26.8155 Y5.8424
G01 X26.8553 Y5.7938
G01 X26.9212 Y5.7211
G01 X26.9657 Y5.6767
G01 X27.0384 Y5.6108
G01 X27.0869 Y5.5709
G01 X27.1657 Y5.5125
G01 X27.2180 Y5.4776
G01 X27.3021 Y5.4271
G01 X27.3575 Y5.3975
G01 X27.4462 Y5.3556
G01 X27.5043 Y5.3315
G01 X27.5967 Y5.2985
G01 X27.6568 Y5.2802
G01 X27.7520 Y5.2564
G01 X27.8136 Y5.2441
G01 X27.9106 Y5.2297
G01 X27.9731 Y5.2236
G01 X28.0712 Y5.2188
G01 X28.1340 Y5.2188
G01 X28.2320 Y5.2236
G01 X28.2945 Y5.2297
G01 X28.3916 Y5.2441
G01 X28.4532 Y5.2564
G01 X28.5484 Y5.2802
G01 X28.6085 Y5.2985
G01 X28.7009 Y5.3315
G01 X28.7589 Y5.3556
G01 X28.8476 Y5.3975
G01 X28.9030 Y5.4271
G01 X28.9872 Y5.4776
G01 X29.0394 Y5.5125
G01 X29.1182 Y5.5709
G01 X29.1668 Y5.6108
G01 X29.2395 Y5.6767
G01 X29.2839 Y5.7211
G01 X29.3498 Y5.7938
G01 X29.3896 Y5.8424
G01 X29.4481 Y5.9212
G01 X29.4830 Y5.9734
G01 X29.5334 Y6.0576
G01 X29.5630 Y6.1130
G01 X29.6050 Y6.2017
G01 X29.6290 Y6.2597
G01 X29.6621 Y6.3521
G01 X29.6803 Y6.4122
G01 X29.7042 Y6.5074
G01 X29.7164 Y6.5690
G01 X29.7308 Y6.6661
G01 X29.7370 Y6.7286
G01 X29.7418 Y6.8266
G01 X29.7418 Y6.8894
G01 X29.7370 Y6.9874
G01 X29.7308 Y7.0499
G01 X29.7164 Y7.1470
G01 X29.7042 Y7.2086
G01 X29.6803 Y7.3038
G01 X29.6621 Y7.3639
G01 X29.6290 Y7.4563
G01 X29.6050 Y7.5143
G01 X29.5630 Y7.6030
G01 X29.5334 Y7.6584
G01 X29.4830 Y7.7426
G01 X29.4481 Y7.7948
G01 X29.3896 Y7.8736
G01 X29.3498 Y7.9222
G01 X29.2839 Y7.9949
G01 X29.2395 Y8.0393
G01 X29.2159 Y8.0607
G01 X29.2159 Y25.7252
G01 X29.2228 Y25.7328
G01 X29.2626 Y25.7814
G01 X29.3211 Y25.8602
G01 X29.3560 Y25.9124
G01 X29.4064 Y25.9966
G01 X29.4360 Y26.0520
G01 X29.4780 Y26.1407
G01 X29.5020 Y26.1987
G01 X29.5351 Y26.2911
G01 X29.5533 Y26.3512
G01 X29.5772 Y26.4464
G01 X29.5894 Y26.5080
G01 X29.6038 Y26.6051
G01 X29.6100 Y26.6676
G01 X29.6148 Y26.7656
G01 X29.6148 Y26.8284
G01 X29.6100 Y26.9264
G01 X29.6038 Y26.9889
G01 X29.5894 Y27.0860
G01 X29.5772 Y27.1476
G01 X29.5533 Y27.2428
G01 X29.5351 Y27.3029
G01 X29.5020 Y27.3953
G01 X29.4780 Y27.4533
G01 X29.4360 Y27.5420
G01 X29.4064 Y27.5974
G01 X29.3560 Y27.6816
G01 X29.3211 Y27.7338
G01 X29.2626 Y27.8126
G01 X29.2228 Y27.8612
G01 X29.1569 Y27.9339
G01 X29.1125 Y27.9783
G01 X29.0398 Y28.0442
G01 X28.9912 Y28.0841
G01 X28.9124 Y28.1425
G01 X28.8602 Y28.1774
G01 X28.7760 Y28.2279
G01 X28.7206 Y28.2575
G01 X28.6319 Y28.2994
G01 X28.5739 Y28.3235
G01 X28.4815 Y28.3565
G01 X28.4214 Y28.3748
G01 X28.3262 Y28.3986
G01 X28.2646 Y28.4109
G01 X28.1675 Y28.4253
G01 X28.1050 Y28.4314
G01 X28.0947 Y28.4319
G01 X24.4076 Y32.1190
G01 X24.3848 Y32.1407
G01 X24.3412 Y32.1802
G01 X24.2926 Y32.2201
G01 X24.2453 Y32.2552
G01 X24.1931 Y32.2901
G01 X24.1426 Y32.3204
G01 X24.0872 Y32.3500
G01 X24.0339 Y32.3752
G01 X23.9759 Y32.3992
G01 X23.9204 Y32.4190
G01 X23.8603 Y32.4373
G01 X23.8032 Y32.4516
G01 X23.7416 Y32.4638
G01 X23.6833 Y32.4725
G01 X23.6208 Y32.4786
G01 X23.5620 Y32.4815
G01 X23.5306 Y32.4823
G01 X15.6210 Y32.4823
G01 X15.5896 Y32.4815
G01 X15.5308 Y32.4786
G01 X15.4683 Y32.4725
G01 X15.4100 Y32.4638
G01 X15.3484 Y32.4516
G01 X15.2912 Y32.4373
G01 X15.2311 Y32.4190
G01 X15.1757 Y32.3992
G01 X15.1176 Y32.3752
G01 X15.0644 Y32.3500
G01 X15.0090 Y32.3204
G01 X14.9585 Y32.2901
G01 X14.9062 Y32.2552
G01 X14.8589 Y32.2201
G01 X14.8104 Y32.1802
G01 X14.7667 Y32.1407
G01 X14.7440 Y32.1190
G01 X9.1085 Y26.4836
G01 X9.1213 Y26.5695
G01 X9.1274 Y26.6320
G01 X9.1279 Y26.6423
G01 X15.0273 Y32.5417
G01 X25.3943 Y32.5417
G01 X31.3606 Y26.5754
G01 X31.3706 Y26.5080
G01 X31.3828 Y26.4464
G01 X31.4067 Y26.3512
G01 X31.4249 Y26.2911
G01 X31.4580 Y26.1987
G01 X31.4820 Y26.1407
G01 X31.5240 Y26.0520
G01 X31.5536 Y25.9966
G01 X31.6040 Y25.9124
G01 X31.6389 Y25.8602
G01 X31.6974 Y25.7814
G01 X31.7372 Y25.7328
G01 X31.7441 Y25.7252
G01 X31.7441 Y7.7622
G01 X31.7310 Y7.7426
G01 X31.6806 Y7.6584
G01 X31.6510 Y7.6030
G01 X31.6090 Y7.5143
G01 X31.5850 Y7.4563
G01 X31.5519 Y7.3639
G01 X31.5337 Y7.3038
G01 X31.5098 Y7.2086
G01 X31.4976 Y7.1470
G01 X31.4832 Y7.0499
G01 X31.4770 Y6.9874
G01 X31.4722 Y6.8894
G01 X31.4722 Y6.8266
G01 X31.4770 Y6.7286
G01 X31.4832 Y6.6661
G01 X31.4976 Y6.5690
G01 X31.5098 Y6.5074
G01 X31.5337 Y6.4122
G01 X31.5519 Y6.3521
G01 X31.5850 Y6.2597
G01 X31.6090 Y6.2017
G01 X31.6510 Y6.1130
G01 X31.6806 Y6.0576
G01 X31.7310 Y5.9734
G01 X31.7659 Y5.9212
G01 X31.8244 Y5.8424
G01 X31.8642 Y5.7938
G01 X31.9301 Y5.7211
G01 X31.9745 Y5.6767
G01 X32.0472 Y5.6108
G01 X32.0958 Y5.5709
G01 X32.1746 Y5.5125
G01 X32.2268 Y5.4776
G01 X32.3110 Y5.4271
G01 X32.3664 Y5.3975
G01 X32.4551 Y5.3556
G01 X32.5131 Y5.3315
G01 X32.6055 Y5.2985
G01 X32.6656 Y5.2802
G01 X32.7608 Y5.2564
G01 X32.8224 Y5.2441
G01 X32.9195 Y5.2297
G01 X32.9820 Y5.2236
G01 X33.0800 Y5.2188
G01 X33.1428 Y5.2188
G01 X33.2409 Y5.2236
G01 X33.3034 Y5.2297
G01 X33.4004 Y5.2441
G01 X33.4620 Y5.2564
G01 X33.5572 Y5.2802
G01 X33.6173 Y5.2985
G01 X33.7097 Y5.3315
G01 X33.7677 Y5.3556
G01 X33.8565 Y5.3975
G01 X33.9119 Y5.4271
G01 X33.9960 Y5.4776
G01 X34.0482 Y5.5125
G01 X34.1271 Y5.5709
G01 X34.1756 Y5.6108
G01 X34.2483 Y5.6767
G01 X34.2927 Y5.7211
G01 X34.3586 Y5.7938
G01 X34.3985 Y5.8424
G01 X34.4570 Y5.9212
G01 X34.4918 Y5.9734
G01 X34.5423 Y6.0576
G01 X34.5719 Y6.1130
G01 X34.6139 Y6.2017
G01 X34.6379 Y6.2597
G01 X34.6710 Y6.3521
G01 X34.6892 Y6.4122
G01 X34.7130 Y6.5074
G01 X34.7253 Y6.5690
G01 X34.7397 Y6.6661
G01 X34.7458 Y6.7286
G01 X34.7507 Y6.8266
G01 X34.7507 Y6.8894
G01 X34.7458 Y6.9874
G01 X34.7397 Y7.0499
G01 X34.7253 Y7.1470
G01 X34.7130 Y7.2086
G01 X34.6892 Y7.3038
G01 X34.6710 Y7.3639
G01 X34.6379 Y7.4563
G01 X34.6139 Y7.5143
G01 X34.5719 Y7.6030
G01 X34.5423 Y7.6584
G01 X34.4918 Y7.7426
G01 X34.4570 Y7.7948
G01 X34.3985 Y7.8736
G01 X34.3586 Y7.9222
G01 X34.2927 Y7.9949
G01 X34.2483 Y8.0393
G01 X34.2247 Y8.0607
G01 X34.2247 Y25.7252
G01 X34.2316 Y25.7328
G01 X34.2715 Y25.7814
G01 X34.3300 Y25.8602
G01 X34.3648 Y25.9124
G01 X34.4153 Y25.9966
G01 X34.4449 Y26.0520
G01 X34.4869 Y26.1407
G01 X34.5109 Y26.1987
G01 X34.5440 Y26.2911
G01 X34.5622 Y26.3512
G01 X34.5860 Y26.4464
G01 X34.5983 Y26.5080
G01 X34.6127 Y26.6051
G01 X34.6188 Y26.6676
G01 X34.6237 Y26.7656
G01 X34.6237 Y26.8284
G01 X34.6188 Y26.9264
G01 X34.6127 Y26.9889
G01 X34.5983 Y27.0860
G01 X34.5860 Y27.1476
G01 X34.5622 Y27.2428
G01 X34.5440 Y27.3029
G01 X34.5109 Y27.3953
G01 X34.4869 Y27.4533
G01 X34.4449 Y27.5420
G01 X34.4153 Y27.5974
G01 X34.3648 Y27.6816
G01 X34.3300 Y27.7338
G01 X34.2715 Y27.8126
G01 X34.2316 Y27.8612
G01 X34.1657 Y27.9339
G01 X34.1213 Y27.9783
G01 X34.0486 Y28.0442
G01 X34.0001 Y28.0841
G01 X33.9212 Y28.1425
G01 X33.8690 Y28.1774
G01 X33.7849 Y28.2279
G01 X33.7295 Y28.2575
G01 X33.6407 Y28.2994
G01 X33.5827 Y28.3235
G01 X33.4903 Y28.3565
G01 X33.4302 Y28.3748
G01 X33.3350 Y28.3986
G01 X33.2734 Y28.4109
G01 X33.1764 Y28.4253
G01 X33.1139 Y28.4314
G01 X33.0158 Y28.4362
G01 X33.0078 Y28.4362
G01 X26.7850 Y34.6590
G01 X26.7623 Y34.6807
G01 X26.7186 Y34.7202
G01 X26.6701 Y34.7601
G01 X26.6228 Y34.7952
G01 X26.5705 Y34.8301
G01 X26.5200 Y34.8604
G01 X26.4646 Y34.8900
G01 X26.4114 Y34.9152
G01 X26.3533 Y34.9392
G01 X26.2979 Y34.9590
G01 X26.2378 Y34.9773
G01 X26.1806 Y34.9916
G01 X26.1190 Y35.0038
G01 X26.0607 Y35.0125
G01 X25.9982 Y35.0186
G01 X25.9394 Y35.0215
G01 X25.9080 Y35.0223
G01 X14.5136 Y35.0223
G01 X14.4821 Y35.0215
G01 X14.4233 Y35.0186
G01 X14.3608 Y35.0125
G01 X14.3025 Y35.0038
G01 X14.2409 Y34.9916
G01 X14.1838 Y34.9773
G01 X14.1237 Y34.9590
G01 X14.0682 Y34.9392
G01 X14.0102 Y34.9152
G01 X13.9569 Y34.8900
G01 X13.9015 Y34.8604
G01 X13.8510 Y34.8301
G01 X13.7988 Y34.7952
G01 X13.7515 Y34.7601
G01 X13.7029 Y34.7202
G01 X13.6593 Y34.6807
G01 X13.6365 Y34.6590
G01 X7.3739 Y28.3964
G01 X7.3636 Y28.3959
G01 X7.3011 Y28.3897
G01 X7.2040 Y28.3753
G01 X7.1424 Y28.3630
G01 X7.0472 Y28.3392
G01 X6.9871 Y28.3210
G01 X6.8947 Y28.2879
G01 X6.8367 Y28.2639
G01 X6.7480 Y28.2219
G01 X6.6926 Y28.1923
G01 X6.6084 Y28.1419
G01 X6.5562 Y28.1070
G01 X6.4774 Y28.0485
G01 X6.4288 Y28.0087
G01 X6.3561 Y27.9428
G01 X6.3117 Y27.8983
G01 X6.2458 Y27.8256
G01 X6.2059 Y27.7771
G01 X6.1475 Y27.6983
G01 X6.1126 Y27.6460
G01 X6.0621 Y27.5619
G01 X6.0325 Y27.5065
G01 X5.9906 Y27.4178
G01 X5.9665 Y27.3597
G01 X5.9335 Y27.2673
G01 X5.9152 Y27.2072
G01 X5.8914 Y27.1120
G01 X5.8791 Y27.0504
G01 X5.8647 Y26.9534
G01 X5.8586 Y26.8909
G01 X5.8538 Y26.7928
G01 X5.8538 Y26.7300
G01 X5.8586 Y26.6320
G01 X5.8647 Y26.5695
G01 X5.8791 Y26.4724
G01 X5.8914 Y26.4108
G01 X5.9152 Y26.3156
G01 X5.9335 Y26.2555
G01 X5.9665 Y26.1631
G01 X5.9906 Y26.1051
G01 X6.0325 Y26.0164
G01 X6.0621 Y25.9610
G01 X6.1126 Y25.8768
G01 X6.1475 Y25.8246
G01 X6.2059 Y25.7458
G01 X6.2458 Y25.6972
G01 X6.3117 Y25.6245
G01 X6.3561 Y25.5801
G01 X6.4288 Y25.5142
G01 X6.4774 Y25.4744
G01 X6.5562 Y25.4159
G01 X6.6084 Y25.3810
G01 X6.6926 Y25.3306
G01 X6.7480 Y25.3010
G01 X6.8367 Y25.2590
G01 X6.8947 Y25.2350
G01 X6.9871 Y25.2019
G01 X7.0472 Y25.1837
G01 X7.1424 Y25.1598
G01 X7.2040 Y25.1476
G01 X7.3011 Y25.1332
G01 X7.3636 Y25.1270
G01 X7.4616 Y25.1222
G01 X7.5244 Y25.1222
G01 X7.6224 Y25.1270
G01 X7.6849 Y25.1332
G01 X7.7709 Y25.1459
G01 X6.6160 Y23.9910
G01 X6.5943 Y23.9683
G01 X6.5548 Y23.9246
G01 X6.5149 Y23.8761
G01 X6.4798 Y23.8288
G01 X6.4449 Y23.7765
G01 X6.4146 Y23.7260
G01 X6.3850 Y23.6706
G01 X6.3598 Y23.6174
G01 X6.3358 Y23.5593
G01 X6.3160 Y23.5039
G01 X6.2977 Y23.4438
G01 X6.2834 Y23.3866
G01 X6.2712 Y23.3250
G01 X6.2625 Y23.2667
G01 X6.2564 Y23.2042
G01 X6.2535 Y23.1454
G01 X6.2527 Y23.1140
G01 X6.2527 Y22.8244
G01 X6.2458 Y22.8167
G01 X6.2059 Y22.7682
G01 X6.1475 Y22.6894
G01 X6.1126 Y22.6371
G01 X6.0621 Y22.5530
G01 X6.0325 Y22.4976
G01 X5.9906 Y22.4089
G01 X5.9665 Y22.3508
G01 X5.9335 Y22.2584
G01 X5.9152 Y22.1983
G01 X5.8914 Y22.1031
G01 X5.8791 Y22.0415
G01 X5.8647 Y21.9445
G01 X5.8586 Y21.8820
G01 X5.8538 Y21.7840
G01 X5.8538 Y21.7211
G01 X5.8586 Y21.6231
G01 X5.8647 Y21.5606
G01 X5.8791 Y21.4636
G01 X5.8914 Y21.4020
G01 X5.9152 Y21.3068
G01 X5.9335 Y21.2467
G01 X5.9665 Y21.1543
G01 X5.9906 Y21.0962
G01 X6.0325 Y21.0075
G01 X6.0621 Y20.9521
G01 X6.1126 Y20.8680
G01 X6.1475 Y20.8157
G01 X6.2059 Y20.7369
G01 X6.2458 Y20.6884
G01 X6.2527 Y20.6807
G01 X6.2527 Y17.5819
G00 Z2.0000
G00 X6.0727 Y17.6468
G01 F60.00
G01 Z-0.0900
G01 F120.00
G01 X6.0613 Y17.6329
G01 X6.0029 Y17.5541
G01 X5.9582 Y17.4872
G01 X5.9077 Y17.4030
G01 X5.8698 Y17.3321
G01 X5.8278 Y17.2433
G01 X5.7970 Y17.1690
G01 X5.7640 Y17.0766
G01 X5.7406 Y16.9996
G01 X5.7168 Y16.9044
G01 X5.7011 Y16.8255
G01 X5.6867 Y16.7284
G01 X5.6788 Y16.6483
G01 X5.6740 Y16.5503
G01 X5.6740 Y16.4698
G01 X5.6788 Y16.3718
G01 X5.6867 Y16.2917
G01 X5.7011 Y16.1947
G01 X5.7168 Y16.1157
G01 X5.7406 Y16.0205
G01 X5.7640 Y15.9435
G01 X5.7970 Y15.8511
G01 X5.8278 Y15.7768
G01 X5.8698 Y15.6881
G01 X5.9077 Y15.6171
G01 X5.9582 Y15.5329
G01 X6.0029 Y15.4660
G01 X6.0613 Y15.3872
G01 X6.1124 Y15.3250
G01 X6.1783 Y15.2523
G01 X6.2352 Y15.1954
G01 X6.3079 Y15.1295
G01 X6.3701 Y15.0784
G01 X6.4489 Y15.0200
G01 X6.5158 Y14.9753
G01 X6.6000 Y14.9248
G01 X6.6710 Y14.8869
G01 X6.7597 Y14.8449
G01 X6.8340 Y14.8141
G01 X6.9264 Y14.7811
G01 X7.0034 Y14.7577
G01 X7.0986 Y14.7339
G01 X7.1776 Y14.7182
G01 X7.2746 Y14.7038
G01 X7.3547 Y14.6959
G01 X7.4527 Y14.6911
G01 X7.5332 Y14.6911
G01 X7.6312 Y14.6959
G01 X7.7113 Y14.7038
G01 X7.8084 Y14.7182
G01 X7.8873 Y14.7339
G01 X7.9825 Y14.7577
G01 X8.0595 Y14.7811
G01 X8.1519 Y14.8141
G01 X8.2262 Y14.8449
G01 X8.3150 Y14.8869
G01 X8.3859 Y14.9248
G01 X8.4701 Y14.9753
G01 X8.5370 Y15.0200
G01 X8.6158 Y15.0784
G01 X8.6780 Y15.1295
G01 X8.7508 Y15.1954
G01 X8.8077 Y15.2523
G01 X8.8736 Y15.3250
G01 X8.9246 Y15.3872
G01 X8.9831 Y15.4660
G01 X9.0278 Y15.5329
G01 X9.0782 Y15.6171
G01 X9.1162 Y15.6881
G01 X9.1581 Y15.7768
G01 X9.1889 Y15.8511
G01 X9.2220 Y15.9435
G01 X9.2453 Y16.0205
G01 X9.2692 Y16.1157
G01 X9.2849 Y16.1947
G01 X9.2993 Y16.2917
G01 X9.3072 Y16.3718
G01 X9.3120 Y16.4698
G01 X9.3120 Y16.5503
G01 X9.3072 Y16.6483
G01 X9.2993 Y16.7284
G01 X9.2849 Y16.8255
G01 X9.2692 Y16.9044
G01 X9.2453 Y16.9996
G01 X9.2220 Y17.0766
G01 X9.1889 Y17.1690
G01 X9.1581 Y17.2433
G01 X9.1162 Y17.3321
G01 X9.0782 Y17.4030
G01 X9.0278 Y17.4872
G01 X8.9831 Y17.5541
G01 X8.9246 Y17.6329
G01 X8.9133 Y17.6467
G01 X8.9133 Y20.6159
G01 X8.9246 Y20.6297
G01 X8.9831 Y20.7085
G01 X9.0278 Y20.7754
G01 X9.0783 Y20.8596
G01 X9.1162 Y20.9306
G01 X9.1582 Y21.0193
G01 X9.1889 Y21.0936
G01 X9.2220 Y21.1860
G01 X9.2454 Y21.2630
G01 X9.2692 Y21.3582
G01 X9.2849 Y21.4371
G01 X9.2993 Y21.5342
G01 X9.3072 Y21.6143
G01 X9.3120 Y21.7123
G01 X9.3120 Y21.7928
G01 X9.3072 Y21.8908
G01 X9.2993 Y21.9709
G01 X9.2849 Y22.0680
G01 X9.2692 Y22.1469
G01 X9.2454 Y22.2421
G01 X9.2220 Y22.3191
G01 X9.1889 Y22.4115
G01 X9.1582 Y22.4858
G01 X9.1162 Y22.5745
G01 X9.0783 Y22.6455
G01 X9.0613 Y22.6737
G01 X16.2093 Y29.8217
G01 X22.9423 Y29.8217
G01 X26.1675 Y26.5965
G01 X26.1693 Y26.5787
G01 X26.1837 Y26.4816
G01 X26.1993 Y26.4027
G01 X26.2232 Y26.3075
G01 X26.2466 Y26.2305
G01 X26.2796 Y26.1381
G01 X26.3104 Y26.0637
G01 X26.3524 Y25.9750
G01 X26.3903 Y25.9040
G01 X26.4408 Y25.8199
G01 X26.4855 Y25.7530
G01 X26.5439 Y25.6741
G01 X26.5553 Y25.6603
G01 X26.5553 Y7.8143
G01 X26.5173 Y7.7510
G01 X26.4794 Y7.6800
G01 X26.4374 Y7.5913
G01 X26.4066 Y7.5169
G01 X26.3736 Y7.4245
G01 X26.3502 Y7.3475
G01 X26.3263 Y7.2523
G01 X26.3107 Y7.1734
G01 X26.2963 Y7.0763
G01 X26.2884 Y6.9963
G01 X26.2835 Y6.8982
G01 X26.2835 Y6.8178
