(G-CODE GENERATED BY FLATCAM v8.991 - www.flatcam.org - Version Date: 2019/12/27)

(Name: Drill_PTH_Through.DRL_cnc)
(Type: G-code from Excellon)
(Units: MM)

(Created on Friday, 12 July 2024 at 08:44)

(Feedrate: 300.0 mm/min)
(Feedrate rapids 1500.0 mm/min)

(Z_Cut: -2.2 mm)
(Z_Move: 2.0 mm)
(Z Toolchange: 15.0 mm)
(X,Y Toolchange: 0.0000, 0.0000 mm)
(Z Start: None mm)
(Z End: 0.5 mm)
(Steps per circle: 64)
(Preprocessor Excellon: default)

(X range:    9.5095 ...   45.9895  mm)
(Y range:   17.2565 ...   40.1475  mm)

(Spindle Speed: None RPM)
G21
G90
G94




G01 F300.00
G00 Z2.0000

M03
G00 X10.1600 Y24.5110
G01 Z-2.2000
G01 Z0
G00 Z2.0000
G00 X10.1600 Y29.5910
G01 Z-2.2000
G01 Z0
G00 Z2.0000
G00 X10.1600 Y34.6710
G01 Z-2.2000
G01 Z0
G00 Z2.0000
G00 X19.8480 Y39.4970
G01 Z-2.2000
G01 Z0
G00 Z2.0000
G00 X24.8560 Y39.4970
G01 Z-2.2000
G01 Z0
G00 Z2.0000
G00 X30.1350 Y39.4970
G01 Z-2.2000
G01 Z0
G00 Z2.0000
G00 X35.1430 Y39.4970
G01 Z-2.2000
G01 Z0
G00 Z2.0000
G00 X45.3390 Y28.2850
G01 Z-2.2000
G01 Z0
G00 Z2.0000
G00 X45.3390 Y23.2770
G01 Z-2.2000
G01 Z0
G00 Z2.0000
G00 X35.9050 Y17.9070
G01 Z-2.2000
G01 Z0
G00 Z2.0000
G00 X30.8970 Y17.9070
G01 Z-2.2000
G01 Z0
G00 Z2.0000
G00 X25.7450 Y17.9070
G01 Z-2.2000
G01 Z0
G00 Z2.0000
G00 X20.7370 Y17.9070
G01 Z-2.2000
G01 Z0
G00 Z2.0000
M05
G00 Z0.50
G00 X0.0 Y0.0

