(G-CODE GENERATED BY FLATCAM v8.991 - www.flatcam.org - Version Date: 2019/12/27)

(Name: Gerber_BottomLayer.GBL_iso10_cnc)
(Type: G-code from Geometry)
(Units: MM)

(Created on Friday, 12 July 2024 at 08:47)

(TOOL DIAMETER: 0.2 mm)
(Feedrate: 120.0 mm/min)
(Feedrate_Z: 60.0 mm/min)
(Feedrate rapids 1500.0 mm/min)

(Z_Cut: -0.09 mm)
(Z_Move: 2.0 mm)
(Z Toolchange: 15.0 mm)
(X,Y Toolchange: 0.0000, 0.0000 mm)
(Z Start: None mm)
(Z End: 15.0 mm)
(Steps per circle: 64)
(Preprocessor Geometry: default)

(X range:    2.5167 ...   51.5853  mm)
(Y range:   10.8987 ...   41.3160  mm)

(Spindle Speed: None RPM)
G21
G90
G94




G01 F120.00
G00 Z2.0000

M03
G00 X5.3573 Y15.2401
G01 F60.00
G01 Z-0.0900
G01 F120.00
G01 X5.3573 Y14.3743
G01 X6.2231 Y14.3743
G01 X5.3573 Y15.2401
G00 Z2.0000
G00 X22.9869 Y14.3743
G01 F60.00
G01 Z-0.0900
G01 F120.00
G01 X24.0497 Y14.3743
G01 X25.7634 Y16.0880
G01 X25.7052 Y16.0880
G01 X25.6072 Y16.0928
G01 X25.5271 Y16.1007
G01 X25.4300 Y16.1151
G01 X25.3511 Y16.1308
G01 X25.2559 Y16.1546
G01 X25.1789 Y16.1780
G01 X25.0865 Y16.2111
G01 X25.0122 Y16.2418
G01 X24.9234 Y16.2838
G01 X24.9058 Y16.2932
G01 X22.9869 Y14.3743
G00 Z2.0000
G00 X28.7143 Y38.3603
G01 F60.00
G01 Z-0.0900
G01 F120.00
G01 X28.7143 Y23.6779
G01 X28.7152 Y23.6376
G01 X28.7181 Y23.5788
G01 X28.7260 Y23.4987
G01 X28.7347 Y23.4404
G01 X28.7504 Y23.3615
G01 X28.7647 Y23.3043
G01 X28.7880 Y23.2273
G01 X28.8079 Y23.1719
G01 X28.8387 Y23.0975
G01 X28.8639 Y23.0443
G01 X28.9018 Y22.9733
G01 X28.9321 Y22.9228
G01 X28.9768 Y22.8559
G01 X29.0119 Y22.8086
G01 X29.0629 Y22.7463
G01 X29.1025 Y22.7027
G01 X29.1303 Y22.6735
G01 X34.0974 Y17.7064
G01 X34.0991 Y17.6887
G01 X34.1135 Y17.5916
G01 X34.1292 Y17.5127
G01 X34.1531 Y17.4175
G01 X34.1764 Y17.3405
G01 X34.2095 Y17.2481
G01 X34.2403 Y17.1737
G01 X34.2822 Y17.0850
G01 X34.3202 Y17.0140
G01 X34.3706 Y16.9299
G01 X34.4153 Y16.8630
G01 X34.4738 Y16.7841
G01 X34.5248 Y16.7219
G01 X34.5907 Y16.6492
G01 X34.6476 Y16.5923
G01 X34.7204 Y16.5264
G01 X34.7826 Y16.4754
G01 X34.8614 Y16.4169
G01 X34.9283 Y16.3722
G01 X35.0125 Y16.3217
G01 X35.0834 Y16.2838
G01 X35.1722 Y16.2418
G01 X35.2465 Y16.2111
G01 X35.3389 Y16.1780
G01 X35.4159 Y16.1546
G01 X35.5111 Y16.1308
G01 X35.5900 Y16.1151
G01 X35.6871 Y16.1007
G01 X35.7672 Y16.0928
G01 X35.8652 Y16.0880
G01 X35.9457 Y16.0880
G01 X36.0437 Y16.0928
G01 X36.1238 Y16.1007
G01 X36.2208 Y16.1151
G01 X36.2998 Y16.1308
G01 X36.3950 Y16.1546
G01 X36.4720 Y16.1780
G01 X36.5644 Y16.2111
G01 X36.6387 Y16.2418
G01 X36.7274 Y16.2838
G01 X36.7984 Y16.3217
G01 X36.8826 Y16.3722
G01 X36.9495 Y16.4169
G01 X37.0283 Y16.4754
G01 X37.0421 Y16.4867
G01 X39.9694 Y16.4867
G01 X40.0097 Y16.4877
G01 X40.0685 Y16.4906
G01 X40.1486 Y16.4985
G01 X40.2069 Y16.5071
G01 X40.2858 Y16.5228
G01 X40.3429 Y16.5371
G01 X40.4199 Y16.5605
G01 X40.4754 Y16.5803
G01 X40.5497 Y16.6111
G01 X40.6030 Y16.6363
G01 X40.6740 Y16.6742
G01 X40.7245 Y16.7045
G01 X40.7914 Y16.7492
G01 X40.8387 Y16.7843
G01 X40.9009 Y16.8354
G01 X40.9446 Y16.8749
G01 X40.9737 Y16.9027
G01 X45.5395 Y21.4685
G01 X45.5573 Y21.4702
G01 X45.6544 Y21.4846
G01 X45.7333 Y21.5003
G01 X45.8285 Y21.5242
G01 X45.9055 Y21.5475
G01 X45.9979 Y21.5806
G01 X46.0723 Y21.6114
G01 X46.1610 Y21.6534
G01 X46.2320 Y21.6913
G01 X46.3161 Y21.7417
G01 X46.3830 Y21.7865
G01 X46.4619 Y21.8449
G01 X46.5241 Y21.8960
G01 X46.5968 Y21.9619
G01 X46.6537 Y22.0188
G01 X46.7196 Y22.0915
G01 X46.7706 Y22.1537
G01 X46.8291 Y22.2325
G01 X46.8738 Y22.2994
G01 X46.9243 Y22.3836
G01 X46.9622 Y22.4546
G01 X47.0042 Y22.5433
G01 X47.0349 Y22.6176
G01 X47.0680 Y22.7100
G01 X47.0914 Y22.7870
G01 X47.1152 Y22.8822
G01 X47.1309 Y22.9611
G01 X47.1453 Y23.0582
G01 X47.1532 Y23.1383
G01 X47.1580 Y23.2363
G01 X47.1580 Y23.3168
G01 X47.1532 Y23.4148
G01 X47.1453 Y23.4949
G01 X47.1309 Y23.5920
G01 X47.1152 Y23.6709
G01 X47.0914 Y23.7661
G01 X47.0680 Y23.8431
G01 X47.0349 Y23.9355
G01 X47.0042 Y24.0098
G01 X46.9622 Y24.0985
G01 X46.9243 Y24.1695
G01 X46.8738 Y24.2537
G01 X46.8291 Y24.3206
G01 X46.7706 Y24.3994
G01 X46.7196 Y24.4616
G01 X46.6537 Y24.5343
G01 X46.5968 Y24.5912
G01 X46.5241 Y24.6571
G01 X46.4619 Y24.7082
G01 X46.3830 Y24.7666
G01 X46.3161 Y24.8114
G01 X46.2320 Y24.8618
G01 X46.1610 Y24.8997
G01 X46.0723 Y24.9417
G01 X45.9979 Y24.9725
G01 X45.9055 Y25.0056
G01 X45.8285 Y25.0289
G01 X45.7333 Y25.0528
G01 X45.6544 Y25.0685
G01 X45.5573 Y25.0829
G01 X45.4773 Y25.0907
G01 X45.3792 Y25.0956
G01 X45.2988 Y25.0956
G01 X45.2007 Y25.0907
G01 X45.1207 Y25.0829
G01 X45.0236 Y25.0685
G01 X44.9447 Y25.0528
G01 X44.8495 Y25.0289
G01 X44.7725 Y25.0056
G01 X44.6801 Y24.9725
G01 X44.6057 Y24.9417
G01 X44.5170 Y24.8997
G01 X44.4460 Y24.8618
G01 X44.3619 Y24.8114
G01 X44.2950 Y24.7666
G01 X44.2161 Y24.7082
G01 X44.1539 Y24.6571
G01 X44.0812 Y24.5912
G01 X44.0243 Y24.5343
G01 X43.9584 Y24.4616
G01 X43.9074 Y24.3994
G01 X43.8489 Y24.3206
G01 X43.8042 Y24.2537
G01 X43.7537 Y24.1695
G01 X43.7158 Y24.0985
G01 X43.6738 Y24.0098
G01 X43.6431 Y23.9355
G01 X43.6100 Y23.8431
G01 X43.5866 Y23.7661
G01 X43.5628 Y23.6709
G01 X43.5471 Y23.5920
G01 X43.5327 Y23.4949
G01 X43.5309 Y23.4771
G01 X39.3811 Y19.3273
G01 X37.0421 Y19.3273
G01 X37.0283 Y19.3386
G01 X36.9495 Y19.3971
G01 X36.8826 Y19.4418
G01 X36.7984 Y19.4923
G01 X36.7274 Y19.5302
G01 X36.6387 Y19.5722
G01 X36.5644 Y19.6029
G01 X36.4720 Y19.6360
G01 X36.3950 Y19.6594
G01 X36.2998 Y19.6832
G01 X36.2208 Y19.6989
G01 X36.1238 Y19.7133
G01 X36.1060 Y19.7151
G01 X31.5549 Y24.2662
G01 X31.5549 Y38.3603
G01 X31.5662 Y38.3741
G01 X31.6247 Y38.4530
G01 X31.6694 Y38.5199
G01 X31.7198 Y38.6040
G01 X31.7578 Y38.6750
G01 X31.7997 Y38.7637
G01 X31.8305 Y38.8381
G01 X31.8636 Y38.9305
G01 X31.8869 Y39.0075
G01 X31.9108 Y39.1027
G01 X31.9265 Y39.1816
G01 X31.9409 Y39.2787
G01 X31.9488 Y39.3587
G01 X31.9536 Y39.4568
G01 X31.9536 Y39.5372
G01 X31.9488 Y39.6353
G01 X31.9409 Y39.7153
G01 X31.9265 Y39.8124
G01 X31.9108 Y39.8913
G01 X31.8869 Y39.9865
G01 X31.8636 Y40.0635
G01 X31.8305 Y40.1559
G01 X31.7997 Y40.2303
G01 X31.7578 Y40.3190
G01 X31.7198 Y40.3900
G01 X31.6694 Y40.4741
G01 X31.6247 Y40.5410
G01 X31.5662 Y40.6199
G01 X31.5152 Y40.6821
G01 X31.4492 Y40.7548
G01 X31.3923 Y40.8117
G01 X31.3196 Y40.8776
G01 X31.2574 Y40.9286
G01 X31.1786 Y40.9871
G01 X31.1117 Y41.0318
G01 X31.0275 Y41.0823
G01 X30.9566 Y41.1202
G01 X30.8678 Y41.1622
G01 X30.7935 Y41.1929
G01 X30.7011 Y41.2260
G01 X30.6241 Y41.2494
G01 X30.5289 Y41.2732
G01 X30.4500 Y41.2889
G01 X30.3529 Y41.3033
G01 X30.2728 Y41.3112
G01 X30.1748 Y41.3160
G01 X30.0943 Y41.3160
G01 X29.9963 Y41.3112
G01 X29.9162 Y41.3033
G01 X29.8192 Y41.2889
G01 X29.7402 Y41.2732
G01 X29.6450 Y41.2494
G01 X29.5680 Y41.2260
G01 X29.4756 Y41.1929
G01 X29.4013 Y41.1622
G01 X29.3126 Y41.1202
G01 X29.2416 Y41.0823
G01 X29.1574 Y41.0318
G01 X29.0905 Y40.9871
G01 X29.0117 Y40.9286
G01 X28.9495 Y40.8776
G01 X28.8768 Y40.8117
G01 X28.8199 Y40.7548
G01 X28.7540 Y40.6821
G01 X28.7029 Y40.6199
G01 X28.6445 Y40.5410
G01 X28.5998 Y40.4741
G01 X28.5493 Y40.3900
G01 X28.5114 Y40.3190
G01 X28.4694 Y40.2303
G01 X28.4386 Y40.1559
G01 X28.4056 Y40.0635
G01 X28.3822 Y39.9865
G01 X28.3583 Y39.8913
G01 X28.3427 Y39.8124
G01 X28.3283 Y39.7153
G01 X28.3204 Y39.6353
G01 X28.3155 Y39.5372
G01 X28.3155 Y39.4568
G01 X28.3204 Y39.3587
G01 X28.3283 Y39.2787
G01 X28.3427 Y39.1816
G01 X28.3583 Y39.1027
G01 X28.3822 Y39.0075
G01 X28.4056 Y38.9305
G01 X28.4386 Y38.8381
G01 X28.4694 Y38.7637
G01 X28.5114 Y38.6750
G01 X28.5493 Y38.6040
G01 X28.5998 Y38.5199
G01 X28.6445 Y38.4530
G01 X28.7029 Y38.3741
G01 X28.7143 Y38.3603
G00 Z2.0000
G00 X8.3519 Y34.8715
G01 F60.00
G01 Z-0.0900
G01 F120.00
G01 X2.9327 Y29.4523
G01 X2.9049 Y29.4232
G01 X2.8654 Y29.3795
G01 X2.8143 Y29.3173
G01 X2.7792 Y29.2700
G01 X2.7345 Y29.2031
G01 X2.7042 Y29.1525
G01 X2.6663 Y29.0816
G01 X2.6411 Y29.0283
G01 X2.6103 Y28.9540
G01 X2.5905 Y28.8985
G01 X2.5671 Y28.8215
G01 X2.5528 Y28.7644
G01 X2.5371 Y28.6854
G01 X2.5285 Y28.6272
G01 X2.5206 Y28.5471
G01 X2.5177 Y28.4882
G01 X2.5167 Y28.4480
G01 X2.5167 Y12.9540
G01 X2.5177 Y12.9138
G01 X2.5206 Y12.8549
G01 X2.5285 Y12.7748
G01 X2.5371 Y12.7166
G01 X2.5528 Y12.6376
G01 X2.5671 Y12.5805
G01 X2.5905 Y12.5035
G01 X2.6103 Y12.4480
G01 X2.6411 Y12.3737
G01 X2.6663 Y12.3204
G01 X2.7042 Y12.2495
G01 X2.7345 Y12.1989
G01 X2.7792 Y12.1320
G01 X2.8143 Y12.0847
G01 X2.8654 Y12.0225
G01 X2.9049 Y11.9788
G01 X2.9618 Y11.9219
G01 X3.0055 Y11.8824
G01 X3.0677 Y11.8313
G01 X3.1150 Y11.7962
G01 X3.1819 Y11.7515
G01 X3.2325 Y11.7212
G01 X3.3034 Y11.6833
G01 X3.3567 Y11.6581
G01 X3.4310 Y11.6273
G01 X3.4865 Y11.6075
G01 X3.5635 Y11.5841
G01 X3.6206 Y11.5698
G01 X3.6996 Y11.5541
G01 X3.7578 Y11.5455
G01 X3.8379 Y11.5376
G01 X3.8968 Y11.5347
G01 X3.9370 Y11.5337
G01 X24.6380 Y11.5337
G01 X24.6782 Y11.5347
G01 X24.7371 Y11.5376
G01 X24.8172 Y11.5455
G01 X24.8754 Y11.5541
G01 X24.9544 Y11.5698
G01 X25.0115 Y11.5841
G01 X25.0885 Y11.6075
G01 X25.1440 Y11.6273
G01 X25.2183 Y11.6581
G01 X25.2716 Y11.6833
G01 X25.3425 Y11.7212
G01 X25.3931 Y11.7515
G01 X25.4600 Y11.7962
G01 X25.5073 Y11.8313
G01 X25.5695 Y11.8824
G01 X25.6132 Y11.9219
G01 X25.6423 Y11.9497
G01 X28.7827 Y15.0901
G01 X28.8031 Y15.0407
G01 X28.8283 Y14.9874
G01 X28.8662 Y14.9165
G01 X28.8965 Y14.8659
G01 X28.9412 Y14.7990
G01 X28.9763 Y14.7517
G01 X29.0274 Y14.6895
G01 X29.0669 Y14.6458
G01 X29.0947 Y14.6167
G01 X32.3967 Y11.3147
G01 X32.4258 Y11.2869
G01 X32.4695 Y11.2474
G01 X32.5317 Y11.1963
G01 X32.5790 Y11.1612
G01 X32.6459 Y11.1165
G01 X32.6965 Y11.0862
G01 X32.7674 Y11.0483
G01 X32.8207 Y11.0231
G01 X32.8950 Y10.9923
G01 X32.9505 Y10.9725
G01 X33.0275 Y10.9491
G01 X33.0846 Y10.9348
G01 X33.1636 Y10.9191
G01 X33.2218 Y10.9105
G01 X33.3019 Y10.9026
G01 X33.3608 Y10.8997
G01 X33.4010 Y10.8987
G01 X46.3550 Y10.8987
G01 X46.3952 Y10.8997
G01 X46.4541 Y10.9026
G01 X46.5342 Y10.9105
G01 X46.5924 Y10.9191
G01 X46.6714 Y10.9348
G01 X46.7285 Y10.9491
G01 X46.8055 Y10.9725
G01 X46.8610 Y10.9923
G01 X46.9353 Y11.0231
G01 X46.9886 Y11.0483
G01 X47.0595 Y11.0862
G01 X47.1101 Y11.1165
G01 X47.1770 Y11.1612
G01 X47.2243 Y11.1963
G01 X47.2865 Y11.2474
G01 X47.3302 Y11.2869
G01 X47.3593 Y11.3147
G01 X51.1693 Y15.1247
G01 X51.1971 Y15.1538
G01 X51.2366 Y15.1975
G01 X51.2877 Y15.2597
G01 X51.3228 Y15.3070
G01 X51.3675 Y15.3739
G01 X51.3978 Y15.4245
G01 X51.4357 Y15.4954
G01 X51.4609 Y15.5487
G01 X51.4917 Y15.6230
G01 X51.5115 Y15.6785
G01 X51.5349 Y15.7555
G01 X51.5492 Y15.8126
G01 X51.5649 Y15.8916
G01 X51.5735 Y15.9498
G01 X51.5814 Y16.0299
G01 X51.5843 Y16.0888
G01 X51.5853 Y16.1290
G01 X51.5853 Y28.2854
G01 X51.5843 Y28.3257
G01 X51.5814 Y28.3845
G01 X51.5735 Y28.4646
G01 X51.5649 Y28.5229
G01 X51.5492 Y28.6018
G01 X51.5349 Y28.6589
G01 X51.5115 Y28.7359
G01 X51.4917 Y28.7914
G01 X51.4609 Y28.8658
G01 X51.4357 Y28.9190
G01 X51.3978 Y28.9900
G01 X51.3675 Y29.0405
G01 X51.3228 Y29.1074
G01 X51.2877 Y29.1547
G01 X51.2366 Y29.2169
G01 X51.1971 Y29.2606
G01 X51.1402 Y29.3175
G01 X51.0965 Y29.3571
G01 X51.0343 Y29.4081
G01 X50.9870 Y29.4432
G01 X50.9201 Y29.4879
G01 X50.8695 Y29.5182
G01 X50.7986 Y29.5561
G01 X50.7453 Y29.5813
G01 X50.6710 Y29.6121
G01 X50.6155 Y29.6320
G01 X50.5385 Y29.6553
G01 X50.4814 Y29.6696
G01 X50.4024 Y29.6853
G01 X50.3442 Y29.6940
G01 X50.2641 Y29.7019
G01 X50.2052 Y29.7048
G01 X50.1650 Y29.7057
G01 X46.4757 Y29.7057
G01 X46.4619 Y29.7171
G01 X46.3830 Y29.7755
G01 X46.3161 Y29.8202
G01 X46.2320 Y29.8707
G01 X46.1610 Y29.9086
G01 X46.0723 Y29.9506
G01 X45.9979 Y29.9814
G01 X45.9055 Y30.0144
G01 X45.8285 Y30.0378
G01 X45.7333 Y30.0617
G01 X45.6544 Y30.0773
G01 X45.5573 Y30.0917
G01 X45.5396 Y30.0935
G01 X36.8264 Y38.8067
G01 X36.8394 Y38.8381
G01 X36.8724 Y38.9305
G01 X36.8958 Y39.0075
G01 X36.9196 Y39.1027
G01 X36.9353 Y39.1816
G01 X36.9497 Y39.2787
G01 X36.9576 Y39.3587
G01 X36.9624 Y39.4568
G01 X36.9624 Y39.5372
G01 X36.9576 Y39.6353
G01 X36.9497 Y39.7153
G01 X36.9353 Y39.8124
G01 X36.9196 Y39.8913
G01 X36.8958 Y39.9865
G01 X36.8724 Y40.0635
G01 X36.8394 Y40.1559
G01 X36.8086 Y40.2303
G01 X36.7666 Y40.3190
G01 X36.7287 Y40.3900
G01 X36.6782 Y40.4741
G01 X36.6335 Y40.5410
G01 X36.5751 Y40.6199
G01 X36.5240 Y40.6821
G01 X36.4581 Y40.7548
G01 X36.4012 Y40.8117
G01 X36.3285 Y40.8776
G01 X36.2663 Y40.9286
G01 X36.1875 Y40.9871
G01 X36.1206 Y41.0318
G01 X36.0364 Y41.0823
G01 X35.9654 Y41.1202
G01 X35.8767 Y41.1622
G01 X35.8024 Y41.1929
G01 X35.7100 Y41.2260
G01 X35.6330 Y41.2494
G01 X35.5378 Y41.2732
G01 X35.4588 Y41.2889
G01 X35.3618 Y41.3033
G01 X35.2817 Y41.3112
G01 X35.1837 Y41.3160
G01 X35.1032 Y41.3160
G01 X35.0052 Y41.3112
G01 X34.9251 Y41.3033
G01 X34.8280 Y41.2889
G01 X34.7491 Y41.2732
G01 X34.6539 Y41.2494
G01 X34.5769 Y41.2260
G01 X34.4845 Y41.1929
G01 X34.4102 Y41.1622
G01 X34.3214 Y41.1202
G01 X34.2505 Y41.0823
G01 X34.1663 Y41.0318
G01 X34.0994 Y40.9871
G01 X34.0206 Y40.9286
G01 X33.9584 Y40.8776
G01 X33.8856 Y40.8117
G01 X33.8287 Y40.7548
G01 X33.7628 Y40.6821
G01 X33.7118 Y40.6199
G01 X33.6533 Y40.5410
G01 X33.6086 Y40.4741
G01 X33.5582 Y40.3900
G01 X33.5202 Y40.3190
G01 X33.4783 Y40.2303
G01 X33.4475 Y40.1559
G01 X33.4144 Y40.0635
G01 X33.3911 Y39.9865
G01 X33.3672 Y39.8913
G01 X33.3515 Y39.8124
G01 X33.3371 Y39.7153
G01 X33.3292 Y39.6353
G01 X33.3244 Y39.5372
G01 X33.3244 Y39.4568
G01 X33.3292 Y39.3587
G01 X33.3371 Y39.2787
G01 X33.3515 Y39.1816
G01 X33.3672 Y39.1027
G01 X33.3911 Y39.0075
G01 X33.4144 Y38.9305
G01 X33.4475 Y38.8381
G01 X33.4783 Y38.7637
G01 X33.5202 Y38.6750
G01 X33.5582 Y38.6040
G01 X33.6086 Y38.5199
G01 X33.6533 Y38.4530
G01 X33.7118 Y38.3741
G01 X33.7300 Y38.3520
G01 X33.7349 Y38.3019
G01 X33.7435 Y38.2436
G01 X33.7592 Y38.1647
G01 X33.7736 Y38.1075
G01 X33.7969 Y38.0305
G01 X33.8168 Y37.9750
G01 X33.8476 Y37.9007
G01 X33.8727 Y37.8474
G01 X33.9107 Y37.7765
G01 X33.9410 Y37.7259
G01 X33.9857 Y37.6590
G01 X34.0208 Y37.6117
G01 X34.0718 Y37.5495
G01 X34.1114 Y37.5059
G01 X34.1391 Y37.4767
G01 X43.5309 Y28.0849
G01 X43.5327 Y28.0671
G01 X43.5471 Y27.9700
G01 X43.5628 Y27.8911
G01 X43.5866 Y27.7959
G01 X43.6100 Y27.7189
G01 X43.6431 Y27.6265
G01 X43.6738 Y27.5522
G01 X43.7158 Y27.4634
G01 X43.7537 Y27.3925
G01 X43.8042 Y27.3083
G01 X43.8489 Y27.2414
G01 X43.9074 Y27.1626
G01 X43.9584 Y27.1004
G01 X44.0243 Y27.0277
G01 X44.0812 Y26.9708
G01 X44.1539 Y26.9048
G01 X44.2161 Y26.8538
G01 X44.2950 Y26.7953
G01 X44.3619 Y26.7506
G01 X44.4460 Y26.7002
G01 X44.5170 Y26.6622
G01 X44.6057 Y26.6203
G01 X44.6801 Y26.5895
G01 X44.7725 Y26.5564
G01 X44.8495 Y26.5331
G01 X44.9447 Y26.5092
G01 X45.0236 Y26.4935
G01 X45.1207 Y26.4791
G01 X45.2007 Y26.4712
G01 X45.2988 Y26.4664
G01 X45.3792 Y26.4664
G01 X45.4773 Y26.4712
G01 X45.5573 Y26.4791
G01 X45.6544 Y26.4935
G01 X45.7333 Y26.5092
G01 X45.8285 Y26.5331
G01 X45.9055 Y26.5564
G01 X45.9979 Y26.5895
G01 X46.0723 Y26.6203
G01 X46.1610 Y26.6622
G01 X46.2320 Y26.7002
G01 X46.3161 Y26.7506
G01 X46.3830 Y26.7953
G01 X46.4619 Y26.8538
G01 X46.4757 Y26.8651
G01 X48.7447 Y26.8651
G01 X48.7447 Y16.7173
G01 X45.7667 Y13.7393
G01 X33.9893 Y13.7393
G01 X31.5276 Y16.2011
G01 X31.5555 Y16.2111
G01 X31.6298 Y16.2418
G01 X31.7186 Y16.2838
G01 X31.7895 Y16.3217
G01 X31.8737 Y16.3722
G01 X31.9406 Y16.4169
G01 X32.0194 Y16.4754
G01 X32.0816 Y16.5264
G01 X32.1543 Y16.5923
G01 X32.2112 Y16.6492
G01 X32.2772 Y16.7219
G01 X32.3282 Y16.7841
G01 X32.3867 Y16.8630
G01 X32.4314 Y16.9299
G01 X32.4818 Y17.0140
G01 X32.5198 Y17.0850
G01 X32.5617 Y17.1737
G01 X32.5925 Y17.2481
G01 X32.6256 Y17.3405
G01 X32.6489 Y17.4175
G01 X32.6728 Y17.5127
G01 X32.6885 Y17.5916
G01 X32.7029 Y17.6887
G01 X32.7108 Y17.7687
G01 X32.7156 Y17.8668
G01 X32.7156 Y17.9472
G01 X32.7108 Y18.0453
G01 X32.7029 Y18.1253
G01 X32.6885 Y18.2224
G01 X32.6728 Y18.3013
G01 X32.6489 Y18.3965
G01 X32.6256 Y18.4735
G01 X32.5925 Y18.5659
G01 X32.5617 Y18.6403
G01 X32.5198 Y18.7290
G01 X32.4818 Y18.8000
G01 X32.4314 Y18.8841
G01 X32.3867 Y18.9510
G01 X32.3282 Y19.0299
G01 X32.2772 Y19.0921
G01 X32.2112 Y19.1648
G01 X32.1543 Y19.2217
G01 X32.0816 Y19.2876
G01 X32.0194 Y19.3386
G01 X31.9406 Y19.3971
G01 X31.8737 Y19.4418
G01 X31.7895 Y19.4923
G01 X31.7186 Y19.5302
G01 X31.6298 Y19.5722
G01 X31.5555 Y19.6029
G01 X31.4631 Y19.6360
G01 X31.3861 Y19.6594
G01 X31.2909 Y19.6832
G01 X31.2120 Y19.6989
G01 X31.1149 Y19.7133
G01 X31.0348 Y19.7212
G01 X30.9368 Y19.7260
G01 X30.8563 Y19.7260
G01 X30.7583 Y19.7212
G01 X30.6782 Y19.7133
G01 X30.5812 Y19.6989
G01 X30.5022 Y19.6832
G01 X30.4070 Y19.6594
G01 X30.3300 Y19.6360
G01 X30.2376 Y19.6029
G01 X30.1633 Y19.5722
G01 X30.0746 Y19.5302
G01 X30.0036 Y19.4923
G01 X29.9194 Y19.4418
G01 X29.8525 Y19.3971
G01 X29.7737 Y19.3386
G01 X29.7599 Y19.3273
G01 X29.5910 Y19.3273
G01 X29.5508 Y19.3263
G01 X29.4919 Y19.3234
G01 X29.4118 Y19.3155
G01 X29.3536 Y19.3069
G01 X29.2746 Y19.2912
G01 X29.2175 Y19.2769
G01 X29.1405 Y19.2535
G01 X29.0850 Y19.2337
G01 X29.0107 Y19.2029
G01 X28.9574 Y19.1777
G01 X28.8865 Y19.1398
G01 X28.8359 Y19.1095
G01 X28.7690 Y19.0648
G01 X28.7217 Y19.0297
G01 X28.6595 Y18.9786
G01 X28.6158 Y18.9391
G01 X28.5867 Y18.9113
G01 X27.5644 Y17.8890
G01 X27.5644 Y17.9472
G01 X27.5596 Y18.0453
G01 X27.5517 Y18.1253
G01 X27.5373 Y18.2224
G01 X27.5216 Y18.3013
G01 X27.4978 Y18.3965
G01 X27.4744 Y18.4735
G01 X27.4414 Y18.5659
G01 X27.4106 Y18.6403
G01 X27.3686 Y18.7290
G01 X27.3307 Y18.8000
G01 X27.2802 Y18.8841
G01 X27.2355 Y18.9510
G01 X27.1771 Y19.0299
G01 X27.1260 Y19.0921
G01 X27.0601 Y19.1648
G01 X27.0032 Y19.2217
G01 X26.9305 Y19.2876
G01 X26.8683 Y19.3386
G01 X26.7895 Y19.3971
G01 X26.7226 Y19.4418
G01 X26.6384 Y19.4923
G01 X26.5674 Y19.5302
G01 X26.4787 Y19.5722
G01 X26.4044 Y19.6029
G01 X26.3120 Y19.6360
G01 X26.2350 Y19.6594
G01 X26.1398 Y19.6832
G01 X26.0608 Y19.6989
G01 X25.9638 Y19.7133
G01 X25.8837 Y19.7212
G01 X25.7857 Y19.7260
G01 X25.7052 Y19.7260
G01 X25.6072 Y19.7212
G01 X25.5271 Y19.7133
G01 X25.4300 Y19.6989
G01 X25.3511 Y19.6832
G01 X25.2559 Y19.6594
G01 X25.1789 Y19.6360
G01 X25.0865 Y19.6029
G01 X25.0122 Y19.5722
G01 X24.9234 Y19.5302
G01 X24.8525 Y19.4923
G01 X24.7683 Y19.4418
G01 X24.7014 Y19.3971
G01 X24.6226 Y19.3386
G01 X24.6087 Y19.3273
G01 X24.5110 Y19.3273
G01 X24.4708 Y19.3263
G01 X24.4119 Y19.3234
G01 X24.3318 Y19.3155
G01 X24.2736 Y19.3069
G01 X24.1946 Y19.2912
G01 X24.1375 Y19.2769
G01 X24.0605 Y19.2535
G01 X24.0050 Y19.2337
G01 X23.9307 Y19.2029
G01 X23.8774 Y19.1777
G01 X23.8065 Y19.1398
G01 X23.7559 Y19.1095
G01 X23.6890 Y19.0648
G01 X23.6417 Y19.0297
G01 X23.5795 Y18.9786
G01 X23.5358 Y18.9391
G01 X23.5067 Y18.9113
G01 X22.5550 Y17.9596
G01 X22.5508 Y18.0453
G01 X22.5429 Y18.1253
G01 X22.5285 Y18.2224
G01 X22.5128 Y18.3013
G01 X22.4889 Y18.3965
G01 X22.4656 Y18.4735
G01 X22.4325 Y18.5659
G01 X22.4017 Y18.6403
G01 X22.3598 Y18.7290
G01 X22.3218 Y18.8000
G01 X22.2714 Y18.8841
G01 X22.2267 Y18.9510
G01 X22.1682 Y19.0299
G01 X22.1569 Y19.0437
G01 X22.1569 Y34.7888
G01 X25.0570 Y37.6889
G01 X25.0748 Y37.6907
G01 X25.1718 Y37.7051
G01 X25.2508 Y37.7208
G01 X25.3460 Y37.7446
G01 X25.4230 Y37.7680
G01 X25.5154 Y37.8011
G01 X25.5897 Y37.8318
G01 X25.6784 Y37.8738
G01 X25.7494 Y37.9117
G01 X25.8336 Y37.9622
G01 X25.9005 Y38.0069
G01 X25.9793 Y38.0654
G01 X26.0415 Y38.1164
G01 X26.1142 Y38.1823
G01 X26.1711 Y38.2392
G01 X26.2370 Y38.3119
G01 X26.2881 Y38.3741
G01 X26.3465 Y38.4530
G01 X26.3912 Y38.5199
G01 X26.4417 Y38.6040
G01 X26.4796 Y38.6750
G01 X26.5216 Y38.7637
G01 X26.5524 Y38.8381
G01 X26.5854 Y38.9305
G01 X26.6088 Y39.0075
G01 X26.6326 Y39.1027
G01 X26.6483 Y39.1816
G01 X26.6627 Y39.2787
G01 X26.6706 Y39.3587
G01 X26.6754 Y39.4568
G01 X26.6754 Y39.5372
G01 X26.6706 Y39.6353
G01 X26.6627 Y39.7153
G01 X26.6483 Y39.8124
G01 X26.6326 Y39.8913
G01 X26.6088 Y39.9865
G01 X26.5854 Y40.0635
G01 X26.5524 Y40.1559
G01 X26.5216 Y40.2303
G01 X26.4796 Y40.3190
G01 X26.4417 Y40.3900
G01 X26.3912 Y40.4741
G01 X26.3465 Y40.5410
G01 X26.2881 Y40.6199
G01 X26.2370 Y40.6821
G01 X26.1711 Y40.7548
G01 X26.1142 Y40.8117
G01 X26.0415 Y40.8776
G01 X25.9793 Y40.9286
G01 X25.9005 Y40.9871
G01 X25.8336 Y41.0318
G01 X25.7494 Y41.0823
G01 X25.6784 Y41.1202
G01 X25.5897 Y41.1622
G01 X25.5154 Y41.1929
G01 X25.4230 Y41.2260
G01 X25.3460 Y41.2494
G01 X25.2508 Y41.2732
G01 X25.1718 Y41.2889
G01 X25.0748 Y41.3033
G01 X24.9947 Y41.3112
G01 X24.8967 Y41.3160
G01 X24.8162 Y41.3160
G01 X24.7182 Y41.3112
G01 X24.6381 Y41.3033
G01 X24.5410 Y41.2889
G01 X24.4621 Y41.2732
G01 X24.3669 Y41.2494
G01 X24.2899 Y41.2260
G01 X24.1975 Y41.1929
G01 X24.1232 Y41.1622
G01 X24.0344 Y41.1202
G01 X23.9635 Y41.0823
G01 X23.8793 Y41.0318
G01 X23.8124 Y40.9871
G01 X23.7336 Y40.9286
G01 X23.6714 Y40.8776
G01 X23.5986 Y40.8117
G01 X23.5417 Y40.7548
G01 X23.4758 Y40.6821
G01 X23.4248 Y40.6199
G01 X23.3663 Y40.5410
G01 X23.3216 Y40.4741
G01 X23.2712 Y40.3900
G01 X23.2332 Y40.3190
G01 X23.1913 Y40.2303
G01 X23.1605 Y40.1559
G01 X23.1274 Y40.0635
G01 X23.1041 Y39.9865
G01 X23.0802 Y39.8913
G01 X23.0645 Y39.8124
G01 X23.0501 Y39.7153
G01 X23.0484 Y39.6975
G01 X19.7323 Y36.3814
G01 X19.7045 Y36.3523
G01 X19.6649 Y36.3086
G01 X19.6139 Y36.2464
G01 X19.5788 Y36.1991
G01 X19.5341 Y36.1322
G01 X19.5038 Y36.0817
G01 X19.4659 Y36.0107
G01 X19.4407 Y35.9574
G01 X19.4099 Y35.8831
G01 X19.3900 Y35.8276
G01 X19.3667 Y35.7506
G01 X19.3524 Y35.6935
G01 X19.3367 Y35.6146
G01 X19.3280 Y35.5563
G01 X19.3201 Y35.4762
G01 X19.3172 Y35.4174
G01 X19.3163 Y35.3771
G01 X19.3163 Y19.3273
G01 X17.3523 Y19.3273
G01 X11.9681 Y24.7115
G01 X11.9663 Y24.7293
G01 X11.9519 Y24.8264
G01 X11.9362 Y24.9053
G01 X11.9124 Y25.0005
G01 X11.8890 Y25.0775
G01 X11.8559 Y25.1699
G01 X11.8252 Y25.2443
G01 X11.7832 Y25.3330
G01 X11.7453 Y25.4040
G01 X11.6948 Y25.4881
G01 X11.6501 Y25.5550
G01 X11.5916 Y25.6339
G01 X11.5406 Y25.6961
G01 X11.4747 Y25.7688
G01 X11.4178 Y25.8257
G01 X11.3451 Y25.8916
G01 X11.2829 Y25.9426
G01 X11.2040 Y26.0011
G01 X11.1371 Y26.0458
G01 X11.0530 Y26.0963
G01 X10.9820 Y26.1342
G01 X10.8933 Y26.1762
G01 X10.8189 Y26.2069
G01 X10.7265 Y26.2400
G01 X10.6495 Y26.2634
G01 X10.5543 Y26.2872
G01 X10.4754 Y26.3029
G01 X10.3783 Y26.3173
G01 X10.2983 Y26.3252
G01 X10.2002 Y26.3300
G01 X10.1198 Y26.3300
G01 X10.0217 Y26.3252
G01 X9.9417 Y26.3173
G01 X9.8446 Y26.3029
G01 X9.7657 Y26.2872
G01 X9.6705 Y26.2634
G01 X9.5935 Y26.2400
G01 X9.5011 Y26.2069
G01 X9.4267 Y26.1762
G01 X9.3380 Y26.1342
G01 X9.2670 Y26.0963
G01 X9.1829 Y26.0458
G01 X9.1160 Y26.0011
G01 X9.0371 Y25.9426
G01 X8.9749 Y25.8916
G01 X8.9022 Y25.8257
G01 X8.8453 Y25.7688
G01 X8.7794 Y25.6961
G01 X8.7284 Y25.6339
G01 X8.6699 Y25.5550
G01 X8.6252 Y25.4881
G01 X8.5747 Y25.4040
G01 X8.5368 Y25.3330
G01 X8.4948 Y25.2443
G01 X8.4641 Y25.1699
G01 X8.4310 Y25.0775
G01 X8.4076 Y25.0005
G01 X8.3838 Y24.9053
G01 X8.3681 Y24.8264
G01 X8.3537 Y24.7293
G01 X8.3458 Y24.6493
G01 X8.3410 Y24.5512
G01 X8.3410 Y24.4708
G01 X8.3458 Y24.3727
G01 X8.3537 Y24.2927
G01 X8.3681 Y24.1956
G01 X8.3838 Y24.1167
G01 X8.4076 Y24.0215
G01 X8.4310 Y23.9445
G01 X8.4641 Y23.8521
G01 X8.4948 Y23.7777
G01 X8.5368 Y23.6890
G01 X8.5747 Y23.6180
G01 X8.6252 Y23.5339
G01 X8.6699 Y23.4670
G01 X8.7284 Y23.3881
G01 X8.7794 Y23.3259
G01 X8.8453 Y23.2532
G01 X8.9022 Y23.1963
G01 X8.9749 Y23.1304
G01 X9.0371 Y23.0794
G01 X9.1160 Y23.0209
G01 X9.1829 Y22.9762
G01 X9.2670 Y22.9257
G01 X9.3380 Y22.8878
G01 X9.4267 Y22.8458
G01 X9.5011 Y22.8151
G01 X9.5935 Y22.7820
G01 X9.6705 Y22.7586
G01 X9.7657 Y22.7348
G01 X9.8446 Y22.7191
G01 X9.9417 Y22.7047
G01 X9.9595 Y22.7029
G01 X15.7597 Y16.9027
G01 X15.7888 Y16.8749
G01 X15.8325 Y16.8354
G01 X15.8911 Y16.7873
G01 X7.8273 Y16.7873
G01 X7.3893 Y17.2253
G01 X7.3893 Y24.8117
G01 X10.3605 Y27.7829
G01 X10.3783 Y27.7847
G01 X10.4754 Y27.7991
G01 X10.5543 Y27.8148
G01 X10.6495 Y27.8386
G01 X10.7265 Y27.8620
G01 X10.8189 Y27.8951
G01 X10.8933 Y27.9258
G01 X10.9820 Y27.9678
G01 X11.0530 Y28.0057
G01 X11.1371 Y28.0562
G01 X11.2040 Y28.1009
G01 X11.2829 Y28.1594
G01 X11.3451 Y28.2104
G01 X11.4178 Y28.2763
G01 X11.4747 Y28.3332
G01 X11.5406 Y28.4059
G01 X11.5916 Y28.4681
G01 X11.6501 Y28.5470
G01 X11.6948 Y28.6139
G01 X11.7453 Y28.6980
G01 X11.7832 Y28.7690
G01 X11.8252 Y28.8577
G01 X11.8559 Y28.9321
G01 X11.8890 Y29.0245
G01 X11.9124 Y29.1015
G01 X11.9362 Y29.1967
G01 X11.9519 Y29.2756
G01 X11.9663 Y29.3727
G01 X11.9742 Y29.4527
G01 X11.9790 Y29.5508
G01 X11.9790 Y29.6198
G01 X20.0481 Y37.6889
G01 X20.0659 Y37.6907
G01 X20.1630 Y37.7051
G01 X20.2419 Y37.7208
G01 X20.3371 Y37.7446
G01 X20.4141 Y37.7680
G01 X20.5065 Y37.8011
G01 X20.5808 Y37.8318
G01 X20.6696 Y37.8738
G01 X20.7405 Y37.9117
G01 X20.8247 Y37.9622
G01 X20.8916 Y38.0069
G01 X20.9704 Y38.0654
G01 X21.0326 Y38.1164
G01 X21.1053 Y38.1823
G01 X21.1622 Y38.2392
G01 X21.2282 Y38.3119
G01 X21.2792 Y38.3741
G01 X21.3377 Y38.4530
G01 X21.3824 Y38.5199
G01 X21.4328 Y38.6040
G01 X21.4708 Y38.6750
G01 X21.5127 Y38.7637
G01 X21.5435 Y38.8381
G01 X21.5766 Y38.9305
G01 X21.5999 Y39.0075
G01 X21.6238 Y39.1027
G01 X21.6395 Y39.1816
G01 X21.6539 Y39.2787
G01 X21.6618 Y39.3587
G01 X21.6666 Y39.4568
G01 X21.6666 Y39.5372
G01 X21.6618 Y39.6353
G01 X21.6539 Y39.7153
G01 X21.6395 Y39.8124
G01 X21.6238 Y39.8913
G01 X21.5999 Y39.9865
G01 X21.5766 Y40.0635
G01 X21.5435 Y40.1559
G01 X21.5127 Y40.2303
G01 X21.4708 Y40.3190
G01 X21.4328 Y40.3900
G01 X21.3824 Y40.4741
G01 X21.3377 Y40.5410
G01 X21.2792 Y40.6199
G01 X21.2282 Y40.6821
G01 X21.1622 Y40.7548
G01 X21.1053 Y40.8117
G01 X21.0326 Y40.8776
G01 X20.9704 Y40.9286
G01 X20.8916 Y40.9871
G01 X20.8247 Y41.0318
G01 X20.7405 Y41.0823
G01 X20.6696 Y41.1202
G01 X20.5808 Y41.1622
G01 X20.5065 Y41.1929
G01 X20.4141 Y41.2260
G01 X20.3371 Y41.2494
G01 X20.2419 Y41.2732
G01 X20.1630 Y41.2889
G01 X20.0659 Y41.3033
G01 X19.9858 Y41.3112
G01 X19.8878 Y41.3160
G01 X19.8073 Y41.3160
G01 X19.7093 Y41.3112
G01 X19.6292 Y41.3033
G01 X19.5322 Y41.2889
G01 X19.4532 Y41.2732
G01 X19.3580 Y41.2494
G01 X19.2810 Y41.2260
G01 X19.1886 Y41.1929
G01 X19.1143 Y41.1622
G01 X19.0256 Y41.1202
G01 X18.9546 Y41.0823
G01 X18.8704 Y41.0318
G01 X18.8035 Y40.9871
G01 X18.7247 Y40.9286
G01 X18.6625 Y40.8776
G01 X18.5898 Y40.8117
G01 X18.5329 Y40.7548
G01 X18.4670 Y40.6821
G01 X18.4159 Y40.6199
G01 X18.3575 Y40.5410
G01 X18.3128 Y40.4741
G01 X18.2623 Y40.3900
G01 X18.2244 Y40.3190
G01 X18.1824 Y40.2303
G01 X18.1516 Y40.1559
G01 X18.1186 Y40.0635
G01 X18.0952 Y39.9865
G01 X18.0713 Y39.8913
G01 X18.0557 Y39.8124
G01 X18.0413 Y39.7153
G01 X18.0395 Y39.6975
G01 X9.6903 Y31.3483
G01 X9.6705 Y31.3434
G01 X9.5935 Y31.3200
G01 X9.5011 Y31.2869
G01 X9.4267 Y31.2562
G01 X9.3380 Y31.2142
G01 X9.2670 Y31.1763
G01 X9.1829 Y31.1258
G01 X9.1160 Y31.0811
G01 X9.0371 Y31.0226
G01 X8.9749 Y30.9716
G01 X8.9022 Y30.9057
G01 X8.8453 Y30.8488
G01 X8.7794 Y30.7761
G01 X8.7284 Y30.7139
G01 X8.6699 Y30.6350
G01 X8.6252 Y30.5681
G01 X8.5747 Y30.4840
G01 X8.5368 Y30.4130
G01 X8.4948 Y30.3243
G01 X8.4641 Y30.2499
G01 X8.4310 Y30.1575
G01 X8.4076 Y30.0805
G01 X8.3838 Y29.9853
G01 X8.3681 Y29.9064
G01 X8.3537 Y29.8093
G01 X8.3519 Y29.7915
G01 X5.3573 Y26.7969
G01 X5.3573 Y27.8597
G01 X10.3605 Y32.8629
G01 X10.3783 Y32.8647
G01 X10.4754 Y32.8791
G01 X10.5543 Y32.8948
G01 X10.6495 Y32.9186
G01 X10.7265 Y32.9420
G01 X10.8189 Y32.9751
G01 X10.8933 Y33.0058
G01 X10.9820 Y33.0478
G01 X11.0530 Y33.0857
G01 X11.1371 Y33.1362
G01 X11.2040 Y33.1809
G01 X11.2829 Y33.2394
G01 X11.3451 Y33.2904
G01 X11.4178 Y33.3563
G01 X11.4747 Y33.4132
G01 X11.5406 Y33.4859
G01 X11.5916 Y33.5481
G01 X11.6501 Y33.6270
G01 X11.6948 Y33.6939
G01 X11.7453 Y33.7780
G01 X11.7832 Y33.8490
G01 X11.8252 Y33.9377
G01 X11.8559 Y34.0121
G01 X11.8890 Y34.1045
G01 X11.9124 Y34.1815
G01 X11.9362 Y34.2767
G01 X11.9519 Y34.3556
G01 X11.9663 Y34.4527
G01 X11.9742 Y34.5327
G01 X11.9790 Y34.6308
G01 X11.9790 Y34.7112
G01 X11.9742 Y34.8093
G01 X11.9663 Y34.8893
G01 X11.9519 Y34.9864
G01 X11.9362 Y35.0653
G01 X11.9124 Y35.1605
G01 X11.8890 Y35.2375
G01 X11.8559 Y35.3299
G01 X11.8252 Y35.4043
G01 X11.7832 Y35.4930
G01 X11.7453 Y35.5640
G01 X11.6948 Y35.6481
G01 X11.6501 Y35.7150
G01 X11.5916 Y35.7939
G01 X11.5406 Y35.8561
G01 X11.4747 Y35.9288
G01 X11.4178 Y35.9857
G01 X11.3451 Y36.0516
G01 X11.2829 Y36.1026
G01 X11.2040 Y36.1611
G01 X11.1371 Y36.2058
G01 X11.0530 Y36.2563
G01 X10.9820 Y36.2942
G01 X10.8933 Y36.3362
G01 X10.8189 Y36.3669
G01 X10.7265 Y36.4000
G01 X10.6495 Y36.4234
G01 X10.5543 Y36.4472
G01 X10.4754 Y36.4629
G01 X10.3783 Y36.4773
G01 X10.2983 Y36.4852
G01 X10.2002 Y36.4900
G01 X10.1198 Y36.4900
G01 X10.0217 Y36.4852
G01 X9.9417 Y36.4773
G01 X9.8446 Y36.4629
G01 X9.7657 Y36.4472
G01 X9.6705 Y36.4234
G01 X9.5935 Y36.4000
G01 X9.5011 Y36.3669
G01 X9.4267 Y36.3362
G01 X9.3380 Y36.2942
G01 X9.2670 Y36.2563
G01 X9.1829 Y36.2058
G01 X9.1160 Y36.1611
G01 X9.0371 Y36.1026
G01 X8.9749 Y36.0516
G01 X8.9022 Y35.9857
G01 X8.8453 Y35.9288
G01 X8.7794 Y35.8561
G01 X8.7284 Y35.7939
G01 X8.6699 Y35.7150
G01 X8.6252 Y35.6481
G01 X8.5747 Y35.5640
G01 X8.5368 Y35.4930
G01 X8.4948 Y35.4043
G01 X8.4641 Y35.3299
G01 X8.4310 Y35.2375
G01 X8.4076 Y35.1605
G01 X8.3838 Y35.0653
G01 X8.3681 Y34.9864
G01 X8.3537 Y34.8893
G01 X8.3519 Y34.8715
G00 Z2.0000
M05
G00 Z2.0000
G00 Z15.00
G00 X0.0 Y0.0

